; generated by Slic3r 0.9.10b on 2013-11-24 at 20:02:15

; layer_height = 0.248
; perimeters = 1
; top_solid_layers = 4
; bottom_solid_layers = 3
; fill_density = 0.
; perimeter_speed = 35
; infill_speed = 60
; travel_speed = 195
; nozzle_diameter = 0.5
; filament_diameter = 2.85
; extrusion_multiplier = 1
; perimeters extrusion width = 0.84mm
; infill extrusion width = 0.84mm
; solid infill extrusion width = 0.84mm
; top infill extrusion width = 0.84mm

G21 ; set units to millimeters
M107
G28 ; home all axes
M106 S255; 
G90 ; use absolute coordinates
G92 E0
M82 ; use absolute distances for extrusion
G1 F1800.000 E-1.00000
G92 E0
G1 Z0.520 F11700.000
G1 X78.955 Y71.323
G1 F1800.000 E1.00000
G1 X79.515 Y70.763 F1050.000 E1.02162
G1 X80.135 Y70.263 E1.04337
G1 X83.235 Y68.013 E1.14796
G1 X83.895 Y67.583 E1.16946
G1 X84.595 Y67.233 E1.19083
G1 X88.085 Y65.673 E1.29521
G1 X88.835 Y65.383 E1.31716
G1 X89.605 Y65.173 E1.33896
G1 X93.345 Y64.383 E1.44332
G1 X94.125 Y64.263 E1.46487
G1 X94.915 Y64.223 E1.48647
G1 X98.745 Y64.223 E1.59104
G1 X99.535 Y64.263 E1.61264
G1 X100.315 Y64.383 E1.63419
G1 X104.055 Y65.173 E1.73856
G1 X104.825 Y65.383 E1.76035
G1 X105.575 Y65.673 E1.78230
G1 X109.065 Y67.233 E1.88668
G1 X109.765 Y67.583 E1.90805
G1 X110.425 Y68.013 E1.92956
G1 X113.525 Y70.263 E2.03414
G1 X114.145 Y70.763 E2.05589
G1 X114.705 Y71.323 E2.07751
G1 X117.265 Y74.163 E2.18191
G1 X117.765 Y74.783 E2.20366
G1 X118.205 Y75.453 E2.22554
G1 X120.115 Y78.763 E2.32988
G1 X120.475 Y79.473 E2.35162
G1 X120.755 Y80.213 E2.37322
G1 X121.935 Y83.853 E2.47770
G1 X122.145 Y84.623 E2.49949
G1 X122.265 Y85.403 E2.52104
G1 X122.665 Y89.203 E2.62537
G1 X122.705 Y89.993 E2.64696
G1 X122.665 Y90.783 E2.66856
G1 X122.265 Y94.593 E2.77316
G1 X122.145 Y95.383 E2.79498
G1 X121.935 Y96.143 E2.81650
G1 X120.755 Y99.773 E2.92072
G1 X120.475 Y100.513 E2.94232
G1 X120.115 Y101.213 E2.96382
G1 X118.205 Y104.533 E3.06840
G1 X117.775 Y105.203 E3.09013
G1 X117.265 Y105.833 E3.11226
G1 X114.705 Y108.673 E3.21666
G1 X114.145 Y109.233 E3.23828
G1 X113.525 Y109.733 E3.26003
G1 X110.425 Y111.983 E3.36462
G1 X109.765 Y112.413 E3.38612
G1 X109.055 Y112.773 E3.40786
G1 X105.565 Y114.323 E3.51212
G1 X104.825 Y114.603 E3.53373
G1 X104.075 Y114.813 E3.55499
G1 X100.335 Y115.613 E3.65942
G1 X99.545 Y115.733 E3.68124
G1 X98.745 Y115.773 E3.70311
G1 X94.915 Y115.773 E3.80768
G1 X94.115 Y115.733 E3.82955
G1 X93.325 Y115.613 E3.85137
G1 X89.585 Y114.813 E3.95579
G1 X88.835 Y114.603 E3.97706
G1 X88.095 Y114.323 E3.99866
G1 X84.605 Y112.773 E4.10292
G1 X83.895 Y112.413 E4.12466
G1 X83.235 Y111.983 E4.14617
G1 X80.135 Y109.733 E4.25075
G1 X79.515 Y109.233 E4.27250
G1 X78.955 Y108.673 E4.29412
G1 X76.395 Y105.833 E4.39852
G1 X75.885 Y105.203 E4.42065
G1 X75.455 Y104.533 E4.44239
G1 X73.545 Y101.213 E4.54697
G1 X73.185 Y100.513 E4.56846
G1 X72.905 Y99.773 E4.59006
G1 X71.725 Y96.143 E4.69428
G1 X71.515 Y95.383 E4.71581
G1 X71.395 Y94.593 E4.73762
G1 X70.995 Y90.783 E4.84222
G1 X70.955 Y89.993 E4.86382
G1 X70.995 Y89.203 E4.88542
G1 X71.395 Y85.403 E4.98975
G1 X71.515 Y84.623 E5.01129
G1 X71.725 Y83.853 E5.03309
G1 X72.905 Y80.213 E5.13756
G1 X73.185 Y79.473 E5.15917
G1 X73.545 Y78.763 E5.18090
G1 X75.455 Y75.453 E5.28524
G1 X75.895 Y74.783 E5.30713
G1 X76.395 Y74.163 E5.32888
G1 X78.875 Y71.412 E5.43003
G1 X79.545 Y71.853 F11700.000
G1 X80.045 Y71.353 F1050.000 E5.44934
G1 X80.595 Y70.903 E5.46874
G1 X83.695 Y68.653 E5.57332
G1 X84.285 Y68.273 E5.59249
G1 X84.915 Y67.953 E5.61178
G1 X88.405 Y66.393 E5.71615
G1 X89.075 Y66.133 E5.73578
G1 X89.775 Y65.943 E5.75558
G1 X93.515 Y65.153 E5.85995
G1 X94.205 Y65.053 E5.87899
G1 X94.915 Y65.013 E5.89840
G1 X98.745 Y65.013 E6.00298
G1 X99.455 Y65.053 E6.02239
G1 X100.145 Y65.153 E6.04143
G1 X103.885 Y65.943 E6.14580
G1 X104.585 Y66.133 E6.16560
G1 X105.255 Y66.393 E6.18522
G1 X108.745 Y67.953 E6.28960
G1 X109.375 Y68.273 E6.30889
G1 X109.965 Y68.653 E6.32806
G1 X113.065 Y70.903 E6.43264
G1 X113.615 Y71.353 E6.45204
G1 X114.115 Y71.853 E6.47135
G1 X116.675 Y74.693 E6.57575
G1 X117.125 Y75.253 E6.59536
G1 X117.515 Y75.853 E6.61490
G1 X119.425 Y79.163 E6.71924
G1 X119.755 Y79.793 E6.73866
G1 X120.005 Y80.463 E6.75819
G1 X121.185 Y84.103 E6.86266
G1 X121.365 Y84.783 E6.88187
G1 X121.475 Y85.483 E6.90122
G1 X121.875 Y89.283 E7.00554
G1 X121.915 Y89.993 E7.02496
G1 X121.875 Y90.703 E7.04438
G1 X121.475 Y94.513 E7.14898
G1 X121.365 Y95.213 E7.16832
G1 X121.185 Y95.903 E7.18779
G1 X120.005 Y99.533 E7.29201
G1 X119.755 Y100.193 E7.31128
G1 X119.435 Y100.823 E7.33057
G1 X117.525 Y104.143 E7.43515
G1 X117.135 Y104.743 E7.45469
G1 X116.675 Y105.303 E7.47448
G1 X114.115 Y108.143 E7.57887
G1 X113.615 Y108.643 E7.59818
G1 X113.065 Y109.093 E7.61758
G1 X109.965 Y111.343 E7.72217
G1 X109.365 Y111.723 E7.74156
G1 X108.735 Y112.053 E7.76098
G1 X105.245 Y113.603 E7.86524
G1 X104.585 Y113.853 E7.88451
G1 X103.905 Y114.033 E7.90372
G1 X100.165 Y114.833 E8.00815
G1 X99.455 Y114.943 E8.02776
G1 X98.745 Y114.983 E8.04718
G1 X94.915 Y114.983 E8.15175
G1 X94.205 Y114.943 E8.17117
G1 X93.495 Y114.833 E8.19079
G1 X89.755 Y114.033 E8.29521
G1 X89.075 Y113.853 E8.31442
G1 X88.415 Y113.603 E8.33369
G1 X84.925 Y112.053 E8.43795
G1 X84.295 Y111.723 E8.45737
G1 X83.695 Y111.343 E8.47676
G1 X80.595 Y109.093 E8.58135
G1 X80.045 Y108.643 E8.60075
G1 X79.545 Y108.143 E8.62006
G1 X76.985 Y105.303 E8.72445
G1 X76.525 Y104.743 E8.74424
G1 X76.135 Y104.143 E8.76378
G1 X74.225 Y100.823 E8.86836
G1 X73.905 Y100.193 E8.88765
G1 X73.655 Y99.533 E8.90692
G1 X72.475 Y95.903 E9.01114
G1 X72.295 Y95.213 E9.03061
G1 X72.185 Y94.513 E9.04996
G1 X71.785 Y90.703 E9.15455
G1 X71.745 Y89.993 E9.17397
G1 X71.785 Y89.283 E9.19339
G1 X72.185 Y85.483 E9.29771
G1 X72.295 Y84.783 E9.31706
G1 X72.475 Y84.103 E9.33627
G1 X73.655 Y80.463 E9.44074
G1 X73.905 Y79.793 E9.46027
G1 X74.235 Y79.163 E9.47969
G1 X76.145 Y75.853 E9.58403
G1 X76.535 Y75.253 E9.60357
G1 X76.985 Y74.693 E9.62318
G1 X79.465 Y71.942 E9.72434
G1 F1800.000 E8.72434
G92 E0
G1 X86.532 Y78.557 F11700.000
G1 F1800.000 E1.00000
G1 X89.136 Y76.665 F1050.000 E1.08789
G1 X92.077 Y75.356 E1.17579
G1 X95.225 Y74.686 E1.26368
G1 X98.444 Y74.686 E1.35157
G1 X101.593 Y75.356 E1.43946
G1 X104.487 Y76.644 E1.52594
G1 X107.138 Y78.557 E1.61522
G1 X109.292 Y80.949 E1.70311
G1 X110.902 Y83.737 E1.79100
G1 X111.896 Y86.798 E1.87889
G1 X112.233 Y90.000 E1.96679
G1 X111.896 Y93.201 E2.05468
G1 X110.902 Y96.263 E2.14257
G1 X109.292 Y99.051 E2.23046
G1 X107.138 Y101.443 E2.31836
G1 X104.534 Y103.335 E2.40625
G1 X101.593 Y104.644 E2.49414
G1 X98.444 Y105.314 E2.58203
G1 X95.225 Y105.314 E2.66993
G1 X92.077 Y104.644 E2.75782
G1 X89.136 Y103.335 E2.84571
G1 X86.532 Y101.443 E2.93360
G1 X84.378 Y99.051 E3.02150
G1 X82.768 Y96.263 E3.10939
G1 X81.773 Y93.201 E3.19728
G1 X81.437 Y90.000 E3.28517
G1 X81.773 Y86.799 E3.37307
G1 X82.768 Y83.737 E3.46096
G1 X84.378 Y80.949 E3.54885
G1 X86.452 Y78.645 E3.63350
G1 F1800.000 E2.63350
G92 E0
G1 X84.775 Y76.794 F11700.000
G1 F1800.000 E1.00000
G1 X84.860 Y76.700 F1050.000 E1.00344
G1 X87.886 Y74.501 E1.10559
G1 X91.304 Y72.979 E1.20774
G1 X94.964 Y72.201 E1.30990
G1 X98.706 Y72.201 E1.41206
G1 X102.365 Y72.979 E1.51421
G1 X105.783 Y74.501 E1.61637
G1 X108.810 Y76.700 E1.71852
G1 X111.314 Y79.481 E1.82067
G1 X113.184 Y82.721 E1.92283
G1 X114.340 Y86.279 E2.02498
G1 X114.731 Y90.000 E2.12714
G1 X114.340 Y93.721 E2.22929
G1 X113.184 Y97.279 E2.33145
G1 X111.314 Y100.519 E2.43360
G1 X108.810 Y103.300 E2.53575
G1 X105.783 Y105.499 E2.63790
G1 X102.480 Y106.969 E2.73662
G1 X102.365 Y107.021 E2.74006
G1 X98.706 Y107.799 E2.84222
G1 X94.964 Y107.799 E2.94437
G1 X91.305 Y107.021 E3.04652
G1 X87.887 Y105.499 E3.14868
G1 X84.860 Y103.300 E3.25083
G1 X82.356 Y100.519 E3.35299
G1 X80.486 Y97.279 E3.45514
G1 X79.329 Y93.721 E3.55729
G1 X78.938 Y90.000 E3.65945
G1 X79.329 Y86.279 E3.76160
G1 X80.486 Y82.721 E3.86376
G1 X82.356 Y79.481 E3.96591
G1 X84.696 Y76.882 E4.06138
G1 F1800.000 E3.06138
G92 E0
G1 X79.989 Y93.895 F11700.000
G1 F1800.000 E1.00000
G1 X82.072 Y95.977 F1500.000 E1.08065
G1 X80.530 Y95.558 F11700.000
G1 X83.295 Y98.323 F1500.000 E1.18774
G1 X82.710 Y99.984 F11700.000
G1 X86.528 Y103.803 F1500.000 E1.33561
G1 F1800.000 E0.33561
G92 E0
G1 X88.698 Y103.726 F11700.000
G1 F1800.000 E1.00000
G1 X91.412 Y106.440 F1500.000 E1.10510
G1 X90.798 Y104.703 F11700.000
G1 X92.859 Y106.764 F1500.000 E1.18493
G1 X94.285 Y107.068 E1.22485
G1 X92.549 Y105.332 E1.29209
G1 X93.975 Y105.635 E1.33201
G1 X95.565 Y107.225 E1.39359
G1 X96.688 Y107.225 E1.42434
G1 X95.351 Y105.888 E1.47613
G1 X96.474 Y105.888 E1.50688
G1 X97.811 Y107.225 E1.55866
G1 X98.884 Y107.174 E1.58806
G1 X97.597 Y105.888 E1.63788
G1 X98.682 Y105.850 E1.66762
G1 X99.810 Y106.977 E1.71128
G1 X100.736 Y106.780 E1.73721
G1 X99.609 Y105.653 E1.78087
G1 X100.535 Y105.456 E1.80679
G1 X101.662 Y106.583 E1.85045
G1 X102.524 Y106.322 E1.87511
G1 X101.461 Y105.259 E1.91627
G1 X102.288 Y104.963 E1.94032
G1 X103.301 Y105.976 E1.97954
G1 X104.078 Y105.630 E2.00284
G1 X103.065 Y104.617 E2.04206
G1 X103.842 Y104.271 E2.06535
G1 X104.855 Y105.284 E2.10457
G1 X105.609 Y104.916 E2.12757
G1 X104.619 Y103.925 E2.16592
G1 X105.303 Y103.486 E2.18818
G1 X106.260 Y104.443 E2.22525
G1 X106.910 Y103.971 E2.24726
G1 X105.953 Y103.013 E2.28433
G1 X106.603 Y102.541 E2.30635
G1 X107.561 Y103.498 E2.34342
G1 X108.211 Y103.025 E2.36544
G1 X107.254 Y102.068 E2.40251
G1 X107.835 Y101.527 E2.42427
G1 X108.782 Y102.473 E2.46093
G1 X109.314 Y101.882 E2.48271
G1 X108.367 Y100.936 E2.51937
G1 X108.899 Y100.345 E2.54114
G1 X109.846 Y101.291 E2.57781
G1 X110.378 Y100.701 E2.59958
G1 X109.431 Y99.754 E2.63625
G1 X109.917 Y99.116 E2.65819
G1 X110.896 Y100.095 E2.69610
G1 X111.307 Y99.383 E2.71861
G1 X110.328 Y98.404 E2.75652
G1 X110.739 Y97.692 E2.77903
G1 X111.718 Y98.671 E2.81694
G1 X112.129 Y97.959 E2.83945
G1 X111.150 Y96.981 E2.87736
G1 X111.517 Y96.225 E2.90037
G1 X112.540 Y97.247 E2.93997
G1 X112.854 Y96.438 E2.96373
G1 X111.793 Y95.377 E3.00483
G1 X112.068 Y94.530 E3.02923
G1 X113.129 Y95.591 E3.07033
G1 X113.405 Y94.743 E3.09473
G1 X112.344 Y93.682 E3.13583
G1 X112.522 Y92.738 E3.16215
G1 X113.680 Y93.896 E3.20699
G1 X113.846 Y92.938 E3.23360
G1 X112.629 Y91.721 E3.28072
G1 X112.736 Y90.705 E3.30870
G1 X113.952 Y91.922 E3.35581
G1 X114.059 Y90.906 E3.38379
G1 X112.770 Y89.616 E3.43374
G1 X112.638 Y88.361 E3.46829
G1 X114.140 Y89.864 E3.52648
G1 X114.008 Y88.609 E3.56103
G1 X112.506 Y87.106 E3.61922
G1 X112.105 Y85.582 E3.66238
G1 X113.876 Y87.354 E3.73099
G1 X113.647 Y86.001 E3.76856
G1 X111.564 Y83.919 E3.84921
G1 X113.106 Y84.338 F11700.000
G1 X110.279 Y81.510 F1500.000 E3.95871
G1 X110.864 Y79.849 F11700.000
G1 X107.399 Y76.385 F1500.000 E4.09288
G1 F1800.000 E3.09288
G92 E0
G1 X105.229 Y76.461 F11700.000
G1 F1800.000 E1.00000
G1 X102.385 Y73.616 F1500.000 E1.11016
G1 X102.999 Y75.353 F11700.000
G1 X100.900 Y73.255 F1500.000 E1.19143
G1 X99.474 Y72.952 E1.23136
G1 X101.210 Y74.688 E1.29859
G1 X99.784 Y74.384 E1.33852
G1 X98.175 Y72.775 E1.40083
G1 X98.389 Y74.112 E1.43792
G1 X97.052 Y72.775 E1.48970
G1 X95.929 Y72.775 E1.52045
G1 X97.266 Y74.112 E1.57224
G1 X96.143 Y74.112 E1.60299
G1 X94.844 Y72.814 E1.65329
G1 X93.918 Y73.011 E1.67922
G1 X95.045 Y74.138 E1.72288
G1 X94.119 Y74.335 E1.74881
G1 X92.992 Y73.207 E1.79247
G1 X92.066 Y73.404 E1.81839
G1 X93.193 Y74.532 E1.86205
G1 X92.267 Y74.728 E1.88798
G1 X91.195 Y73.656 E1.92950
G1 X90.418 Y74.002 E1.95280
G1 X91.431 Y75.015 E1.99202
G1 X90.654 Y75.361 E2.01531
G1 X89.641 Y74.348 E2.05453
G1 X88.864 Y74.694 E2.07782
G1 X89.877 Y75.707 E2.11704
G1 X89.099 Y76.053 E2.14034
G1 X88.101 Y75.055 E2.17900
G1 X87.451 Y75.527 E2.20102
G1 X88.408 Y76.484 E2.23809
G1 X87.758 Y76.957 E2.26011
G1 X86.800 Y76.000 E2.29718
G1 X86.150 Y76.472 E2.31919
G1 X87.107 Y77.429 E2.35626
G1 X86.457 Y77.902 E2.37828
G1 X85.499 Y76.945 E2.41535
G1 X84.921 Y77.490 E2.43710
G1 X85.868 Y78.436 E2.47377
G1 X85.336 Y79.027 E2.49554
G1 X84.389 Y78.081 E2.53221
G1 X83.857 Y78.671 E2.55398
G1 X84.804 Y79.618 E2.59065
G1 X84.272 Y80.209 E2.61242
G1 X83.325 Y79.262 E2.64909
G1 X82.800 Y79.860 E2.67088
G1 X83.779 Y80.839 E2.70879
G1 X83.368 Y81.551 E2.73130
G1 X82.389 Y80.572 E2.76921
G1 X81.978 Y81.284 E2.79172
G1 X82.957 Y82.263 E2.82963
G1 X82.545 Y82.975 E2.85214
G1 X81.567 Y81.996 E2.89005
G1 X81.156 Y82.708 E2.91256
G1 X82.170 Y83.722 E2.95183
G1 X81.894 Y84.570 E2.97623
G1 X80.833 Y83.508 E3.01733
G1 X80.558 Y84.356 E3.04173
G1 X81.619 Y85.417 E3.08283
G1 X81.343 Y86.265 E3.10723
G1 X80.282 Y85.204 E3.14833
G1 X80.007 Y86.051 E3.17273
G1 X81.154 Y87.199 E3.21717
G1 X81.047 Y88.215 E3.24515
G1 X79.831 Y86.998 E3.29226
G1 X79.724 Y88.014 E3.32025
G1 X80.941 Y89.231 E3.36736
G1 X80.892 Y90.305 E3.39681
G1 X79.617 Y89.031 E3.44617
G1 X79.521 Y90.058 E3.47442
G1 X81.024 Y91.560 E3.53261
G1 X81.156 Y92.815 E3.56716
G1 X79.653 Y91.313 E3.62534
G1 X79.785 Y92.568 E3.65990
G1 X81.531 Y94.314 E3.72752
G1 F1800.000 E2.72752
G92 E0
G1 X81.176 Y97.327 F11700.000
G1 F1800.000 E1.00000
G1 X89.388 Y105.539 F1500.000 E1.31802
G1 F1800.000 E0.31802
G92 E0
G1 X112.398 Y82.506 F11700.000
G1 F1800.000 E1.00000
G1 X104.409 Y74.518 F1500.000 E1.30938
M106 S255
M104 S200 ; set temperature
G1 F1800.000 E0.30938
G92 E0
G1 Z0.768 F11700.000
G1 X104.467 Y76.635
G1 F1800.000 E1.00000
G1 X104.534 Y76.665 F1568.746 E1.00225
G1 X107.138 Y78.557 E1.10133
G1 X109.292 Y80.949 E1.20041
G1 X110.902 Y83.737 E1.29949
G1 X111.896 Y86.799 E1.39857
G1 X112.233 Y90.000 E1.49765
G1 X111.896 Y93.201 E1.59673
G1 X110.902 Y96.263 E1.69581
G1 X109.292 Y99.051 E1.79489
G1 X107.138 Y101.443 E1.89396
G1 X104.534 Y103.335 E1.99304
G1 X101.593 Y104.644 E2.09212
G1 X98.444 Y105.314 E2.19120
G1 X95.225 Y105.314 E2.29028
G1 X92.077 Y104.644 E2.38936
G1 X89.136 Y103.335 E2.48844
G1 X86.532 Y101.443 E2.58752
G1 X84.378 Y99.051 E2.68660
G1 X82.768 Y96.263 E2.78567
G1 X81.773 Y93.201 E2.88475
G1 X81.437 Y90.000 E2.98383
G1 X81.773 Y86.799 E3.08291
G1 X82.768 Y83.737 E3.18199
G1 X84.378 Y80.949 E3.28107
G1 X86.532 Y78.557 E3.38015
G1 X89.136 Y76.665 E3.47923
G1 X92.077 Y75.356 E3.57830
G1 X95.225 Y74.686 E3.67738
G1 X98.444 Y74.686 E3.77646
G1 X101.593 Y75.356 E3.87554
G1 X104.359 Y76.587 E3.96871
G1 F1800.000 E2.96871
G92 E0
G1 X105.529 Y74.259 F11700.000
G1 F1800.000 E1.00000
G1 X105.842 Y74.398 F1568.746 E1.01055
G1 X108.889 Y76.612 E1.12647
G1 X111.409 Y79.411 E1.24238
G1 X113.293 Y82.673 E1.35830
G1 X114.456 Y86.254 E1.47422
G1 X114.850 Y90.000 E1.59014
G1 X114.456 Y93.745 E1.70606
G1 X113.293 Y97.328 E1.82198
G1 X111.409 Y100.589 E1.93790
G1 X108.889 Y103.388 E2.05382
G1 X105.843 Y105.601 E2.16972
G1 X102.402 Y107.133 E2.28564
G1 X98.718 Y107.916 E2.40157
G1 X94.952 Y107.916 E2.51749
G1 X91.268 Y107.133 E2.63340
G1 X87.827 Y105.602 E2.74932
G1 X84.781 Y103.388 E2.86524
G1 X82.260 Y100.589 E2.98117
G1 X80.377 Y97.327 E3.09708
G1 X79.213 Y93.746 E3.21300
G1 X78.820 Y90.000 E3.32892
G1 X79.213 Y86.255 E3.44483
G1 X80.377 Y82.672 E3.56076
G1 X82.260 Y79.411 E3.67667
G1 X84.781 Y76.612 E3.79259
G1 X87.827 Y74.399 E3.90850
G1 X91.268 Y72.867 E4.02442
G1 X94.952 Y72.084 E4.14035
G1 X98.718 Y72.084 E4.25626
G1 X102.402 Y72.867 E4.37218
G1 X105.421 Y74.211 E4.47390
G1 F1800.000 E3.47390
G92 E0
G1 X92.309 Y73.232 F11700.000
G1 F1800.000 E1.00000
G1 X89.800 Y75.741 F2241.065 E1.10953
G1 X88.623 Y74.673 F11700.000
G1 X81.610 Y81.685 F2241.065 E1.41568
G1 X82.517 Y83.024 F11700.000
G1 X80.072 Y85.469 F2241.065 E1.52242
G1 X80.613 Y83.806 F11700.000
G1 X84.839 Y79.580 F2241.065 E1.70691
G1 F1800.000 E0.70691
G92 E0
G1 X86.674 Y77.744 F11700.000
G1 F1800.000 E1.00000
G1 X90.647 Y73.771 F2241.065 E1.17344
G1 X91.824 Y74.840 F11700.000
G1 X93.735 Y72.929 F2241.065 E1.25686
G1 X95.130 Y72.657 E1.30072
G1 X93.272 Y74.515 E1.38180
G1 X94.699 Y74.212 E1.42681
G1 X96.253 Y72.657 E1.49466
G1 X97.376 Y72.657 E1.52933
G1 X95.921 Y74.112 E1.59285
G1 X97.044 Y74.112 E1.62752
G1 X98.499 Y72.657 E1.69104
G1 X99.453 Y72.826 E1.72095
G1 X98.167 Y74.112 E1.77709
G1 X99.152 Y74.250 E1.80781
G1 X100.379 Y73.023 E1.86136
