; generated by Slic3r 0.9.10b on 2013-11-21 at 15:33:19

; layer_height = 0.35
; perimeters = 3
; top_solid_layers = 3
; bottom_solid_layers = 3
; fill_density = 0.2
; perimeter_speed = 50
; infill_speed = 85
; travel_speed = 300
; nozzle_diameter = 0.5
; filament_diameter = 2.87
; extrusion_multiplier = 1
; perimeters extrusion width = 0.58mm
; infill extrusion width = 0.58mm
; solid infill extrusion width = 0.58mm
; top infill extrusion width = 0.58mm

G21 ; set units to millimeters
M107
G28 ; home all axes
G90 ; use absolute coordinates
G92 E0
M82 ; use absolute distances for extrusion
G1 F1800.000 E-1.00000
G92 E0
G1 Z0.350 F18000.000
G1 X85.070 Y83.406
G1 F1800.000 E1.00000
G1 X85.610 Y82.976 F1500.000 E1.02095
G1 X88.270 Y81.046 E1.12070
G1 X88.840 Y80.676 E1.14132
G1 X89.450 Y80.366 E1.16209
G1 X92.460 Y79.026 E1.26209
G1 X93.110 Y78.776 E1.28323
G1 X93.770 Y78.596 E1.30399
G1 X96.990 Y77.916 E1.40388
G1 X97.670 Y77.806 E1.42479
G1 X98.350 Y77.776 E1.44545
G1 X101.640 Y77.776 E1.54530
G1 X102.320 Y77.806 E1.56596
G1 X103.000 Y77.916 E1.58687
G1 X106.220 Y78.596 E1.68675
G1 X106.880 Y78.776 E1.70752
G1 X107.530 Y79.026 E1.72865
G1 X110.540 Y80.366 E1.82866
G1 X111.150 Y80.676 E1.84942
G1 X111.720 Y81.046 E1.87005
G1 X114.380 Y82.976 E1.96979
G1 X114.920 Y83.406 E1.99075
G1 X115.410 Y83.896 E2.01178
G1 X117.490 Y86.206 E2.10612
G1 X118.020 Y86.846 E2.13134
G1 X118.430 Y87.466 E2.15390
G1 X120.070 Y90.316 E2.25370
G1 X120.370 Y90.916 E2.27407
G1 X120.620 Y91.556 E2.29492
G1 X121.640 Y94.686 E2.39484
G1 X121.820 Y95.356 E2.41589
G1 X121.930 Y96.036 E2.43680
G1 X122.270 Y99.316 E2.53688
G1 X122.300 Y99.996 E2.55754
G1 X122.270 Y100.676 E2.57820
G1 X121.930 Y103.946 E2.67799
G1 X121.820 Y104.626 E2.69889
G1 X121.640 Y105.296 E2.71995
G1 X120.620 Y108.426 E2.81987
G1 X120.380 Y109.056 E2.84033
G1 X120.070 Y109.656 E2.86083
G1 X118.430 Y112.516 E2.96089
G1 X118.050 Y113.116 E2.98244
G1 X117.600 Y113.656 E3.00378
G1 X115.390 Y116.096 E3.10370
G1 X114.920 Y116.576 E3.12409
G1 X114.400 Y116.996 E3.14437
G1 X111.740 Y118.936 E3.24430
G1 X111.160 Y119.316 E3.26535
G1 X110.540 Y119.626 E3.28638
G1 X107.530 Y120.966 E3.38639
G1 X106.880 Y121.216 E3.40752
G1 X106.220 Y121.396 E3.42829
G1 X103.000 Y122.076 E3.52817
G1 X102.320 Y122.186 E3.54908
G1 X101.640 Y122.216 E3.56974
G1 X98.350 Y122.216 E3.66959
G1 X97.670 Y122.186 E3.69025
G1 X96.990 Y122.076 E3.71116
G1 X93.770 Y121.396 E3.81105
G1 X93.110 Y121.216 E3.83181
G1 X92.460 Y120.966 E3.85295
G1 X89.450 Y119.626 E3.95295
G1 X88.830 Y119.316 E3.97399
G1 X88.250 Y118.936 E3.99503
G1 X85.590 Y116.996 E4.09496
G1 X85.070 Y116.576 E4.11525
G1 X84.600 Y116.096 E4.13564
G1 X82.390 Y113.656 E4.23555
G1 X81.940 Y113.116 E4.25689
G1 X81.560 Y112.516 E4.27844
G1 X79.920 Y109.656 E4.37851
G1 X79.610 Y109.056 E4.39900
G1 X79.370 Y108.426 E4.41947
G1 X78.350 Y105.296 E4.51938
G1 X78.170 Y104.626 E4.54044
G1 X78.060 Y103.946 E4.56135
G1 X77.720 Y100.676 E4.66113
G1 X77.690 Y99.996 E4.68179
G1 X77.720 Y99.316 E4.70245
G1 X78.060 Y96.036 E4.80253
G1 X78.170 Y95.356 E4.82344
G1 X78.350 Y94.686 E4.84450
G1 X79.370 Y91.556 E4.94441
G1 X79.620 Y90.916 E4.96527
G1 X79.920 Y90.316 E4.98563
G1 X81.560 Y87.466 E5.08543
G1 X81.940 Y86.876 E5.10673
G1 X82.380 Y86.346 E5.12763
G1 X84.590 Y83.896 E5.22778
G1 X85.011 Y83.466 E5.24604
G1 F1800.000 E4.24604
G92 E0
G1 X91.194 Y90.220 F18000.000
G1 F1800.000 E1.00000
G1 X93.420 Y88.603 F1500.000 E1.08350
G1 X95.933 Y87.484 E1.16701
G1 X98.624 Y86.912 E1.25051
G1 X101.376 Y86.912 E1.33401
G1 X104.067 Y87.484 E1.41752
G1 X106.580 Y88.603 E1.50102
G1 X108.806 Y90.220 E1.58452
G1 X110.647 Y92.265 E1.66803
G1 X112.023 Y94.647 E1.75153
G1 X112.873 Y97.264 E1.83503
G1 X113.160 Y100.000 E1.91854
G1 X112.873 Y102.736 E2.00204
G1 X112.023 Y105.353 E2.08554
G1 X110.647 Y107.735 E2.16905
G1 X108.806 Y109.780 E2.25255
G1 X106.580 Y111.397 E2.33605
G1 X104.067 Y112.516 E2.41956
G1 X101.376 Y113.088 E2.50306
G1 X98.624 Y113.088 E2.58656
G1 X95.933 Y112.516 E2.67007
G1 X93.420 Y111.397 E2.75357
G1 X91.194 Y109.780 E2.83707
G1 X89.353 Y107.735 E2.92058
G1 X87.977 Y105.353 E3.00408
G1 X87.127 Y102.736 E3.08758
G1 X86.840 Y100.000 E3.17109
G1 X87.127 Y97.264 E3.25459
G1 X87.977 Y94.647 E3.33809
G1 X89.353 Y92.265 E3.42160
G1 X91.138 Y90.283 E3.50255
G1 X91.572 Y90.639 F18000.000
G1 X93.702 Y89.091 F1500.000 E3.58247
G1 X96.108 Y88.020 E3.66239
G1 X98.683 Y87.473 E3.74232
G1 X101.317 Y87.473 E3.82224
G1 X103.892 Y88.020 E3.90217
G1 X106.298 Y89.091 E3.98209
G1 X108.428 Y90.639 E4.06201
G1 X110.190 Y92.596 E4.14194
G1 X111.507 Y94.877 E4.22186
G1 X112.321 Y97.381 E4.30179
G1 X112.596 Y100.000 E4.38171
G1 X112.321 Y102.619 E4.46164
G1 X111.507 Y105.123 E4.54156
G1 X110.190 Y107.404 E4.62148
G1 X108.428 Y109.361 E4.70141
G1 X106.298 Y110.909 E4.78133
G1 X103.892 Y111.980 E4.86126
G1 X101.317 Y112.527 E4.94118
G1 X98.683 Y112.527 E5.02110
G1 X96.108 Y111.980 E5.10103
G1 X93.702 Y110.909 E5.18095
G1 X91.572 Y109.361 E5.26088
G1 X89.810 Y107.404 E5.34080
G1 X88.493 Y105.123 E5.42073
G1 X87.679 Y102.619 E5.50065
G1 X87.404 Y100.000 E5.58057
G1 X87.679 Y97.381 E5.66050
G1 X88.493 Y94.877 E5.74042
G1 X89.810 Y92.596 E5.82035
G1 X91.515 Y90.702 E5.89772
G1 X91.917 Y91.094 F18000.000
G1 X93.984 Y89.580 F1500.000 E5.97549
G1 X96.282 Y88.557 E6.05184
G1 X98.742 Y88.034 E6.12818
G1 X101.258 Y88.034 E6.20453
G1 X103.718 Y88.557 E6.28087
G1 X106.016 Y89.580 E6.35721
G1 X108.051 Y91.058 E6.43356
G1 X109.734 Y92.928 E6.50990
G1 X110.992 Y95.106 E6.58625
G1 X111.769 Y97.498 E6.66259
G1 X112.032 Y100.000 E6.73894
G1 X111.769 Y102.502 E6.81528
G1 X110.992 Y104.894 E6.89163
G1 X109.734 Y107.072 E6.96797
G1 X108.051 Y108.942 E7.04432
G1 X106.016 Y110.420 E7.12066
G1 X103.718 Y111.443 E7.19701
G1 X101.258 Y111.966 E7.27335
G1 X98.742 Y111.966 E7.34970
G1 X96.282 Y111.443 E7.42604
G1 X93.984 Y110.420 E7.50239
G1 X91.949 Y108.942 E7.57873
G1 X90.266 Y107.072 E7.65508
G1 X89.008 Y104.894 E7.73142
G1 X88.231 Y102.502 E7.80777
G1 X87.968 Y100.000 E7.88411
G1 X88.231 Y97.498 E7.96046
G1 X89.008 Y95.106 E8.03680
G1 X90.266 Y92.928 E8.11315
G1 X91.860 Y91.157 E8.18548
G1 X92.444 Y91.285 F18000.000
G1 F1800.000 E7.18548
G92 E0
G1 X90.375 Y89.377 F18000.000
G1 F1800.000 E1.00000
G1 X92.830 Y87.581 F1500.000 E1.09231
G1 X95.569 Y86.362 E1.18330
G1 X98.501 Y85.739 E1.27429
G1 X101.499 Y85.739 E1.36528
G1 X104.431 Y86.362 E1.45627
G1 X107.170 Y87.581 E1.54725
G1 X109.595 Y89.343 E1.63824
G1 X111.601 Y91.571 E1.72923
G1 X113.100 Y94.167 E1.82022
G1 X114.026 Y97.019 E1.91120
G1 X114.340 Y100.000 E2.00219
G1 X114.026 Y102.981 E2.09318
G1 X113.100 Y105.833 E2.18417
G1 X111.601 Y108.429 E2.27515
G1 X109.595 Y110.656 E2.36614
G1 X107.170 Y112.419 E2.45713
G1 X104.431 Y113.638 E2.54812
G1 X101.499 Y114.261 E2.63911
G1 X98.501 Y114.261 E2.73009
G1 X95.569 Y113.638 E2.82108
G1 X92.830 Y112.419 E2.91207
G1 X90.405 Y110.657 E3.00306
G1 X88.399 Y108.429 E3.09404
G1 X86.900 Y105.833 E3.18503
G1 X85.974 Y102.981 E3.27602
G1 X85.660 Y100.000 E3.36701
G1 X85.974 Y97.019 E3.45799
G1 X86.900 Y94.167 E3.54898
G1 X88.399 Y91.571 E3.63997
G1 X90.319 Y89.439 E3.72705
G1 X89.958 Y89.001 F18000.000
G1 X90.027 Y88.924 F1500.000 E3.73019
G1 X92.548 Y87.093 E3.82476
G1 X95.394 Y85.826 E3.91933
G1 X98.442 Y85.178 E4.01389
G1 X101.558 Y85.178 E4.10846
G1 X104.606 Y85.826 E4.20303
G1 X107.452 Y87.093 E4.29759
G1 X109.973 Y88.924 E4.39216
G1 X112.057 Y91.240 E4.48673
G1 X113.615 Y93.938 E4.58129
G1 X114.578 Y96.901 E4.67586
G1 X114.904 Y100.000 E4.77043
G1 X114.578 Y103.099 E4.86500
G1 X113.615 Y106.062 E4.95956
G1 X112.057 Y108.760 E5.05413
G1 X109.973 Y111.076 E5.14870
G1 X107.452 Y112.907 E5.24326
G1 X104.606 Y114.174 E5.33783
G1 X101.558 Y114.822 E5.43240
G1 X98.442 Y114.822 E5.52696
G1 X95.394 Y114.174 E5.62153
G1 X92.548 Y112.907 E5.71610
G1 X90.027 Y111.076 E5.81066
G1 X87.943 Y108.760 E5.90523
G1 X86.385 Y106.062 E5.99980
G1 X85.422 Y103.099 E6.09436
G1 X85.096 Y100.000 E6.18893
G1 X85.422 Y96.901 E6.28350
G1 X86.385 Y93.938 E6.37807
G1 X87.943 Y91.240 E6.47263
G1 X89.902 Y89.064 E6.56150
G1 X89.541 Y88.626 F18000.000
G1 X89.650 Y88.505 F1500.000 E6.56643
G1 X92.266 Y86.604 E6.66458
G1 X95.220 Y85.289 E6.76273
G1 X98.383 Y84.617 E6.86087
G1 X101.617 Y84.617 E6.95902
G1 X104.780 Y85.289 E7.05717
G1 X107.734 Y86.604 E7.15531
G1 X110.350 Y88.505 E7.25346
G1 X112.514 Y90.908 E7.35160
G1 X114.131 Y93.709 E7.44975
G1 X115.130 Y96.784 E7.54790
G1 X115.468 Y100.000 E7.64604
G1 X115.130 Y103.216 E7.74419
G1 X114.131 Y106.291 E7.84233
G1 X112.514 Y109.092 E7.94048
G1 X110.350 Y111.495 E8.03863
G1 X107.734 Y113.396 E8.13677
G1 X104.780 Y114.711 E8.23492
G1 X101.617 Y115.383 E8.33306
G1 X98.383 Y115.383 E8.43121
G1 X95.220 Y114.711 E8.52936
G1 X92.266 Y113.396 E8.62750
G1 X89.650 Y111.495 E8.72565
G1 X87.486 Y109.092 E8.82379
G1 X85.869 Y106.291 E8.92194
G1 X84.870 Y103.216 E9.02009
G1 X84.532 Y100.000 E9.11823
G1 X84.870 Y96.784 E9.21638
G1 X85.869 Y93.709 E9.31453
G1 X87.486 Y90.908 E9.41267
G1 X89.485 Y88.688 E9.50333
G1 X89.700 Y88.660 F18000.000
G1 F1800.000 E8.50333
G92 E0
G1 X93.173 Y111.948 F18000.000
G1 F1800.000 E1.00000
G1 X93.075 Y111.850 F600.000 E1.00425
G1 X94.548 Y112.522 E1.05381
G1 X94.616 Y112.591 E1.05677
G1 X95.921 Y113.096 E1.09963
G1 X95.966 Y113.140 E1.10158
G1 X96.938 Y113.312 E1.13179
G1 X96.983 Y113.357 E1.13373
G1 X97.954 Y113.528 E1.16394
G1 X97.999 Y113.573 E1.16589
G1 X98.885 Y113.657 E1.19312
G1 X98.919 Y113.692 E1.19462
G1 X99.685 Y113.657 E1.21810
G1 X99.720 Y113.692 E1.21960
G1 X100.485 Y113.657 E1.24307
G1 X100.520 Y113.692 E1.24457
G1 X101.286 Y113.657 E1.26805
G1 X101.321 Y113.692 E1.26955
G1 X101.972 Y113.543 E1.29002
G1 X102.001 Y113.572 E1.29128
G1 X102.632 Y113.403 E1.31129
G1 X102.662 Y113.432 E1.31256
G1 X103.293 Y113.263 E1.33256
G1 X103.322 Y113.292 E1.33383
G1 X103.953 Y113.122 E1.35383
G1 X103.982 Y113.151 E1.35510
G1 X104.553 Y112.923 E1.37395
G1 X104.580 Y112.949 E1.37509
G1 X105.107 Y112.676 E1.39328
G1 X105.134 Y112.702 E1.39441
G1 X105.661 Y112.429 E1.41260
G1 X105.687 Y112.456 E1.41374
G1 X106.215 Y112.183 E1.43193
G1 X106.241 Y112.209 E1.43306
G1 X106.769 Y111.936 E1.45125
G1 X106.795 Y111.962 E1.45239
G1 X107.248 Y111.615 E1.46987
G1 X107.273 Y111.640 E1.47095
G1 X107.712 Y111.278 E1.48836
G1 X107.737 Y111.303 E1.48943
G1 X108.176 Y110.941 E1.50685
G1 X108.200 Y110.966 E1.50792
G1 X108.639 Y110.605 E1.52533
G1 X108.664 Y110.629 E1.52640
G1 X109.103 Y110.268 E1.54382
G1 X109.128 Y110.293 E1.54489
G1 X109.522 Y109.887 E1.56223
G1 X109.498 Y109.862 E1.56329
G1 X109.902 Y109.466 E1.58062
G1 X109.877 Y109.441 E1.58168
G1 X110.281 Y109.044 E1.59901
G1 X110.256 Y109.020 E1.60008
G1 X110.660 Y108.623 E1.61741
G1 X110.636 Y108.599 E1.61847
G1 X111.039 Y108.202 E1.63580
G1 X111.015 Y108.177 E1.63687
G1 X111.355 Y107.717 E1.65439
G1 X111.329 Y107.692 E1.65549
G1 X111.648 Y107.209 E1.67318
G1 X111.622 Y107.184 E1.67428
G1 X111.941 Y106.702 E1.69197
G1 X111.915 Y106.677 E1.69307
G1 X112.234 Y106.194 E1.71076
G1 X112.208 Y106.169 E1.71186
G1 X112.527 Y105.687 E1.72955
G1 X112.501 Y105.662 E1.73064
G1 X112.740 Y105.099 E1.74934
G1 X112.712 Y105.072 E1.75053
G1 X112.936 Y104.495 E1.76947
G1 X112.909 Y104.468 E1.77066
G1 X113.132 Y103.891 E1.78961
G1 X113.105 Y103.864 E1.79080
G1 X113.329 Y103.287 E1.80974
G1 X113.301 Y103.259 E1.81093
G1 X113.489 Y102.647 E1.83055
G1 X113.458 Y102.616 E1.83191
G1 X113.565 Y101.923 E1.85338
G1 X113.534 Y101.891 E1.85475
G1 X113.641 Y101.198 E1.87622
G1 X113.610 Y101.167 E1.87758
G1 X113.718 Y100.474 E1.89905
G1 X113.686 Y100.443 E1.90042
G1 X113.735 Y99.691 E1.92348
G1 X113.696 Y99.652 E1.92517
G1 X113.641 Y98.797 E1.95142
G1 X113.602 Y98.758 E1.95311
G1 X113.547 Y97.902 E1.97936
G1 X113.508 Y97.863 E1.98104
G1 X113.411 Y96.965 E2.00870
G1 X113.357 Y96.911 E2.01104
G1 X113.025 Y95.779 E2.04715
G1 X112.971 Y95.726 E2.04948
G1 X112.640 Y94.594 E2.08560
G1 X112.586 Y94.540 E2.08793
G1 X111.662 Y92.815 E2.14784
G1 X111.568 Y92.721 E2.15194
G1 F1800.000 E1.15194
G92 E0
G1 X107.187 Y88.340 F18000.000
G1 F1800.000 E1.00000
G1 X107.030 Y88.184 F600.000 E1.00678
G1 X105.581 Y87.535 E1.05539
G1 X105.513 Y87.467 E1.05834
G1 X104.170 Y86.924 E1.10272
G1 X104.125 Y86.879 E1.10467
G1 X103.153 Y86.708 E1.13488
G1 X103.108 Y86.663 E1.13682
G1 X102.137 Y86.492 E1.16703
G1 X102.092 Y86.447 E1.16898
G1 X101.187 Y86.343 E1.19686
G1 X101.152 Y86.308 E1.19836
G1 X100.387 Y86.343 E1.22184
G1 X100.352 Y86.308 E1.22334
G1 X99.586 Y86.343 E1.24681
G1 X99.551 Y86.308 E1.24831
G1 X98.786 Y86.343 E1.27179
G1 X98.751 Y86.308 E1.27329
G1 X98.087 Y86.444 E1.29405
G1 X98.058 Y86.415 E1.29532
G1 X97.427 Y86.585 E1.31532
G1 X97.397 Y86.555 E1.31659
G1 X96.766 Y86.725 E1.33659
G1 X96.737 Y86.696 E1.33786
G1 X96.106 Y86.865 E1.35787
G1 X96.077 Y86.836 E1.35913
G1 X95.496 Y87.055 E1.37815
G1 X95.470 Y87.029 E1.37928
G1 X94.942 Y87.302 E1.39747
G1 X94.916 Y87.276 E1.39861
G1 X94.388 Y87.549 E1.41680
G1 X94.362 Y87.522 E1.41793
G1 X93.834 Y87.795 E1.43612
G1 X93.808 Y87.769 E1.43726
G1 X93.281 Y88.042 E1.45545
G1 X93.254 Y88.016 E1.45659
G1 X92.793 Y88.355 E1.47412
G1 X92.768 Y88.330 E1.47519
G1 X92.329 Y88.692 E1.49261
G1 X92.305 Y88.667 E1.49368
G1 X91.866 Y89.028 E1.51109
G1 X91.841 Y89.004 E1.51217
G1 X91.402 Y89.365 E1.52958
G1 X91.377 Y89.340 E1.53065
G1 X90.939 Y89.702 E1.54807
G1 X90.914 Y89.677 E1.54914
G1 X90.512 Y90.076 E1.56647
G1 X90.536 Y90.100 E1.56753
G1 X90.132 Y90.497 E1.58487
G1 X90.157 Y90.521 E1.58593
G1 X89.753 Y90.918 E1.60326
G1 X89.778 Y90.943 E1.60432
G1 X89.374 Y91.339 E1.62166
G1 X89.398 Y91.364 E1.62272
G1 X88.995 Y91.760 E1.64005
G1 X89.019 Y91.785 E1.64111
G1 X88.671 Y92.238 E1.65859
G1 X88.697 Y92.263 E1.65969
G1 X88.378 Y92.745 E1.67738
G1 X88.404 Y92.771 E1.67848
G1 X88.085 Y93.253 E1.69617
G1 X88.111 Y93.278 E1.69727
G1 X87.792 Y93.760 E1.71496
G1 X87.818 Y93.785 E1.71606
G1 X87.499 Y94.268 E1.73375
G1 X87.525 Y94.293 E1.73484
G1 X87.278 Y94.846 E1.75341
G1 X87.305 Y94.874 E1.75459
G1 X87.082 Y95.451 E1.77354
G1 X87.109 Y95.478 E1.77473
G1 X86.885 Y96.055 E1.79367
G1 X86.913 Y96.082 E1.79486
G1 X86.689 Y96.659 E1.81380
G1 X86.716 Y96.686 E1.81499
G1 X86.518 Y97.288 E1.83439
G1 X86.549 Y97.320 E1.83576
G1 X86.442 Y98.012 E1.85723
G1 X86.473 Y98.044 E1.85859
G1 X86.365 Y98.737 E1.88007
G1 X86.397 Y98.768 E1.88143
G1 X86.289 Y99.461 E1.90290
G1 X86.321 Y99.493 E1.90426
G1 X86.257 Y100.229 E1.92690
G1 X86.296 Y100.268 E1.92858
G1 X86.351 Y101.123 E1.95484
G1 X86.390 Y101.162 E1.95652
G1 X86.445 Y102.018 E1.98278
G1 X86.484 Y102.057 E1.98446
G1 X86.555 Y102.929 E2.01125
G1 X86.609 Y102.983 E2.01359
G1 X86.940 Y104.114 E2.04970
G1 X86.994 Y104.168 E2.05203
G1 X87.326 Y105.300 E2.08815
G1 X87.379 Y105.354 E2.09048
G1 X88.240 Y107.015 E2.14777
G1 X88.335 Y107.110 E2.15187
M106 S255
M104 S185 ; set temperature
M140 S60 ; set bed temperature
G1 F1800.000 E1.15187
G92 E0
G1 Z0.700 F18000.000
G1 X89.251 Y107.559
G1 F1800.000 E1.00000
G1 X87.977 Y105.353 F2830.462 E1.07733
G1 X87.127 Y102.736 E1.16083
G1 X86.840 Y100.000 E1.24434
G1 X87.127 Y97.264 E1.32784
G1 X87.977 Y94.647 E1.41134
G1 X89.353 Y92.265 E1.49485
G1 X91.194 Y90.220 E1.57835
G1 X93.420 Y88.603 E1.66185
G1 X95.933 Y87.484 E1.74536
G1 X98.624 Y86.912 E1.82886
G1 X101.376 Y86.912 E1.91236
G1 X104.067 Y87.484 E1.99586
G1 X106.580 Y88.603 E2.07937
G1 X108.806 Y90.220 E2.16287
G1 X110.647 Y92.265 E2.24638
G1 X112.023 Y94.647 E2.32988
G1 X112.873 Y97.264 E2.41338
G1 X113.160 Y100.000 E2.49689
G1 X112.873 Y102.736 E2.58039
G1 X112.023 Y105.353 E2.66389
G1 X110.647 Y107.735 E2.74740
G1 X108.806 Y109.780 E2.83090
G1 X106.580 Y111.397 E2.91440
G1 X104.067 Y112.516 E2.99791
G1 X101.376 Y113.088 E3.08141
G1 X98.624 Y113.088 E3.16491
G1 X95.933 Y112.516 E3.24841
G1 X93.420 Y111.397 E3.33192
G1 X91.194 Y109.780 E3.41542
G1 X89.353 Y107.735 E3.49892
G1 X89.294 Y107.632 E3.50255
G1 X89.810 Y107.404 F18000.000
G1 X88.493 Y105.123 F2830.462 E3.58247
G1 X87.679 Y102.619 E3.66239
G1 X87.404 Y100.000 E3.74232
G1 X87.679 Y97.381 E3.82224
G1 X88.493 Y94.877 E3.90217
G1 X89.810 Y92.596 E3.98209
G1 X91.572 Y90.639 E4.06202
