; generated by Slic3r 0.9.10b on 2013-11-21 at 17:20:03

; layer_height = 0.35
; perimeters = 3
; top_solid_layers = 3
; bottom_solid_layers = 3
; fill_density = 0.
; perimeter_speed = 50
; infill_speed = 85
; travel_speed = 300
; nozzle_diameter = 0.5
; filament_diameter = 2.87
; extrusion_multiplier = 1
; perimeters extrusion width = 0.58mm
; infill extrusion width = 0.58mm
; solid infill extrusion width = 0.58mm
; top infill extrusion width = 0.58mm

G21 ; set units to millimeters
M107
G28 ; home all axes
G90 ; use absolute coordinates
G92 E0
M82 ; use absolute distances for extrusion
G1 F1800.000 E-1.00000
G92 E0
G1 Z0.350 F18000.000
G1 X80.175 Y81.503
G1 F1800.000 E1.00000
G1 X80.715 Y81.063 F1500.000 E1.02114
G1 X83.815 Y78.813 E1.13740
G1 X84.385 Y78.443 E1.15803
G1 X84.995 Y78.133 E1.17879
G1 X88.495 Y76.573 E1.29510
G1 X89.135 Y76.323 E1.31595
G1 X89.795 Y76.143 E1.33672
G1 X93.545 Y75.343 E1.45309
G1 X94.225 Y75.243 E1.47395
G1 X94.915 Y75.203 E1.49493
G1 X98.745 Y75.203 E1.61118
G1 X99.435 Y75.243 E1.63215
G1 X100.115 Y75.343 E1.65302
G1 X103.865 Y76.143 E1.76939
G1 X104.525 Y76.323 E1.79016
G1 X105.165 Y76.573 E1.81101
G1 X108.665 Y78.133 E1.92731
G1 X109.275 Y78.443 E1.94808
G1 X109.845 Y78.813 E1.96871
G1 X112.945 Y81.063 E2.08497
G1 X113.485 Y81.503 E2.10611
G1 X113.975 Y81.993 E2.12714
G1 X116.535 Y84.843 E2.24342
G1 X116.965 Y85.363 E2.26389
G1 X117.335 Y85.943 E2.28478
G1 X119.255 Y89.263 E2.40118
G1 X119.565 Y89.873 E2.42195
G1 X119.815 Y90.523 E2.44308
G1 X120.995 Y94.163 E2.55922
G1 X121.175 Y94.823 E2.57999
G1 X121.285 Y95.493 E2.60059
G1 X121.685 Y99.303 E2.71687
G1 X121.715 Y99.993 E2.73783
G1 X121.685 Y100.683 E2.75879
G1 X121.285 Y104.493 E2.87506
G1 X121.175 Y105.163 E2.89567
G1 X120.995 Y105.823 E2.91644
G1 X119.815 Y109.473 E3.03286
G1 X119.565 Y110.123 E3.05400
G1 X119.255 Y110.743 E3.07504
G1 X117.335 Y114.053 E3.19118
G1 X116.965 Y114.623 E3.21181
G1 X116.535 Y115.143 E3.23229
G1 X113.975 Y117.993 E3.34856
G1 X113.485 Y118.483 E3.36959
G1 X112.945 Y118.923 E3.39073
G1 X109.845 Y121.173 E3.50699
G1 X109.275 Y121.543 E3.52762
G1 X108.665 Y121.853 E3.54839
G1 X105.165 Y123.413 E3.66469
G1 X104.525 Y123.663 E3.68554
G1 X103.865 Y123.843 E3.70631
G1 X100.115 Y124.643 E3.82268
G1 X99.435 Y124.743 E3.84355
G1 X98.745 Y124.783 E3.86452
G1 X94.915 Y124.783 E3.98077
G1 X94.225 Y124.743 E4.00175
G1 X93.545 Y124.643 E4.02261
G1 X89.795 Y123.843 E4.13898
G1 X89.135 Y123.663 E4.15975
G1 X88.495 Y123.413 E4.18060
G1 X84.995 Y121.853 E4.29691
G1 X84.385 Y121.543 E4.31767
G1 X83.815 Y121.173 E4.33830
G1 X80.715 Y118.923 E4.45456
G1 X80.175 Y118.483 E4.47570
G1 X79.685 Y117.993 E4.49673
G1 X77.125 Y115.143 E4.61301
G1 X76.695 Y114.623 E4.63349
G1 X76.325 Y114.053 E4.65411
G1 X74.405 Y110.743 E4.77025
G1 X74.095 Y110.123 E4.79129
G1 X73.845 Y109.473 E4.81243
G1 X72.665 Y105.823 E4.92886
G1 X72.485 Y105.163 E4.94962
G1 X72.375 Y104.493 E4.97023
G1 X71.975 Y100.683 E5.08650
G1 X71.945 Y99.993 E5.10746
G1 X71.975 Y99.303 E5.12842
G1 X72.375 Y95.493 E5.24470
G1 X72.485 Y94.823 E5.26531
G1 X72.665 Y94.163 E5.28607
G1 X73.845 Y90.523 E5.40221
G1 X74.095 Y89.873 E5.42334
G1 X74.405 Y89.263 E5.44411
G1 X76.325 Y85.943 E5.56052
G1 X76.695 Y85.363 E5.58140
G1 X77.125 Y84.843 E5.60188
G1 X79.685 Y81.993 E5.71815
G1 X80.115 Y81.563 E5.73663
G1 F1800.000 E4.73663
G92 E0
G1 X87.862 Y90.034 F18000.000
G1 F1800.000 E1.00000
G1 X90.130 Y88.386 F1500.000 E1.08509
G1 X92.691 Y87.246 E1.17018
G1 X95.433 Y86.663 E1.25527
G1 X98.237 Y86.663 E1.34036
G1 X100.979 Y87.246 E1.42545
G1 X103.540 Y88.386 E1.51054
G1 X105.808 Y90.034 E1.59563
G1 X107.684 Y92.118 E1.68072
G1 X109.086 Y94.546 E1.76580
G1 X109.952 Y97.212 E1.85089
G1 X110.245 Y100.000 E1.93598
G1 X109.952 Y102.788 E2.02107
G1 X109.086 Y105.454 E2.10617
G1 X107.684 Y107.882 E2.19125
G1 X105.808 Y109.966 E2.27634
G1 X103.540 Y111.614 E2.36143
G1 X100.979 Y112.754 E2.44652
G1 X98.237 Y113.337 E2.53161
G1 X95.433 Y113.337 E2.61670
G1 X92.691 Y112.754 E2.70179
G1 X90.130 Y111.614 E2.78688
G1 X87.862 Y109.966 E2.87197
G1 X85.986 Y107.882 E2.95706
G1 X84.584 Y105.454 E3.04215
G1 X83.718 Y102.788 E3.12724
G1 X83.425 Y100.000 E3.21233
G1 X83.718 Y97.212 E3.29742
G1 X84.584 Y94.546 E3.38251
G1 X85.986 Y92.118 E3.46760
G1 X87.805 Y90.097 E3.55014
G1 X88.239 Y90.453 F18000.000
G1 X90.412 Y88.875 F1500.000 E3.63165
G1 X92.865 Y87.783 E3.71316
G1 X95.492 Y87.224 E3.79467
G1 X98.178 Y87.224 E3.87618
G1 X100.805 Y87.783 E3.95769
G1 X103.258 Y88.875 E4.03920
G1 X105.431 Y90.453 E4.12071
G1 X107.228 Y92.449 E4.20222
G1 X108.570 Y94.775 E4.28373
G1 X109.400 Y97.329 E4.36524
G1 X109.681 Y100.000 E4.44675
G1 X109.400 Y102.671 E4.52826
G1 X108.570 Y105.225 E4.60977
G1 X107.228 Y107.551 E4.69128
G1 X105.431 Y109.547 E4.77279
G1 X103.258 Y111.125 E4.85430
G1 X100.805 Y112.217 E4.93581
G1 X98.178 Y112.776 E5.01732
G1 X95.492 Y112.776 E5.09883
G1 X92.865 Y112.217 E5.18034
G1 X90.412 Y111.125 E5.26186
G1 X88.239 Y109.547 E5.34337
G1 X86.442 Y107.551 E5.42488
G1 X85.099 Y105.225 E5.50639
G1 X84.269 Y102.671 E5.58790
G1 X83.989 Y100.000 E5.66941
G1 X84.269 Y97.329 E5.75092
G1 X85.099 Y94.775 E5.83243
G1 X86.442 Y92.449 E5.91394
G1 X88.183 Y90.516 E5.99290
G1 X88.591 Y90.901 F18000.000
G1 X90.694 Y89.363 F1500.000 E6.07197
G1 X93.040 Y88.319 E6.14990
G1 X95.551 Y87.785 E6.22783
G1 X98.119 Y87.785 E6.30576
G1 X100.630 Y88.319 E6.38370
G1 X102.976 Y89.363 E6.46163
G1 X105.053 Y90.873 E6.53956
G1 X106.771 Y92.781 E6.61749
G1 X108.055 Y95.004 E6.69542
G1 X108.849 Y97.446 E6.77335
G1 X109.117 Y100.000 E6.85128
G1 X108.849 Y102.554 E6.92921
G1 X108.055 Y104.996 E7.00715
G1 X106.771 Y107.219 E7.08508
G1 X105.053 Y109.127 E7.16301
G1 X102.976 Y110.637 E7.24094
G1 X100.630 Y111.681 E7.31887
G1 X98.119 Y112.215 E7.39680
G1 X95.551 Y112.215 E7.47473
G1 X93.040 Y111.681 E7.55266
G1 X90.694 Y110.637 E7.63060
G1 X88.617 Y109.127 E7.70853
G1 X86.899 Y107.219 E7.78646
G1 X85.615 Y104.996 E7.86439
G1 X84.821 Y102.554 E7.94232
G1 X84.553 Y100.000 E8.02025
G1 X84.821 Y97.446 E8.09818
G1 X85.615 Y95.004 E8.17611
G1 X86.899 Y92.781 E8.25405
G1 X88.535 Y90.964 E8.32825
G1 X89.118 Y91.092 F18000.000
G1 F1800.000 E7.32825
G92 E0
G1 X85.461 Y87.488 F18000.000
G1 F1800.000 E1.00000
G1 X85.515 Y87.428 F1500.000 E1.00244
G1 X88.376 Y85.349 E1.10977
G1 X91.607 Y83.911 E1.21712
G1 X95.067 Y83.175 E1.32447
G1 X98.603 Y83.175 E1.43181
G1 X102.063 Y83.911 E1.53916
G1 X105.294 Y85.349 E1.64650
G1 X108.155 Y87.428 E1.75384
G1 X110.521 Y90.056 E1.86118
G1 X112.290 Y93.119 E1.96852
G1 X113.383 Y96.483 E2.07587
G1 X113.752 Y100.000 E2.18321
G1 X113.383 Y103.517 E2.29055
G1 X112.290 Y106.881 E2.39790
G1 X110.521 Y109.944 E2.50524
G1 X108.155 Y112.572 E2.61258
G1 X105.294 Y114.651 E2.71992
G1 X102.063 Y116.089 E2.82726
G1 X98.603 Y116.825 E2.93461
G1 X95.067 Y116.825 E3.04195
G1 X91.607 Y116.089 E3.14929
G1 X88.376 Y114.651 E3.25663
G1 X85.515 Y112.572 E3.36398
G1 X83.148 Y109.944 E3.47133
G1 X81.380 Y106.881 E3.57867
G1 X80.287 Y103.517 E3.68601
G1 X79.918 Y100.000 E3.79335
G1 X80.287 Y96.483 E3.90069
G1 X81.380 Y93.119 E4.00804
G1 X83.148 Y90.056 E4.11538
G1 X85.405 Y87.550 E4.21773
G1 X85.044 Y87.112 F18000.000
G1 X85.138 Y87.009 F1500.000 E4.22196
G1 X88.094 Y84.861 E4.33287
G1 X91.433 Y83.374 E4.44379
G1 X95.008 Y82.614 E4.55473
G1 X98.662 Y82.614 E4.66565
G1 X102.237 Y83.374 E4.77657
G1 X105.576 Y84.861 E4.88749
G1 X108.532 Y87.009 E4.99841
G1 X110.978 Y89.725 E5.10933
G1 X112.805 Y92.890 E5.22026
G1 X113.934 Y96.365 E5.33118
G1 X114.316 Y100.000 E5.44210
G1 X113.934 Y103.634 E5.55302
G1 X112.805 Y107.110 E5.66395
G1 X110.978 Y110.275 E5.77487
G1 X108.532 Y112.991 E5.88579
G1 X105.576 Y115.139 E5.99670
G1 X102.237 Y116.626 E6.10762
G1 X98.662 Y117.386 E6.21856
G1 X95.008 Y117.386 E6.32948
G1 X91.433 Y116.626 E6.44040
G1 X88.094 Y115.139 E6.55132
G1 X85.138 Y112.991 E6.66224
G1 X82.692 Y110.275 E6.77317
G1 X80.865 Y107.110 E6.88409
G1 X79.736 Y103.635 E6.99501
G1 X79.353 Y100.000 E7.10593
G1 X79.735 Y96.365 E7.21685
G1 X80.865 Y92.890 E7.32778
G1 X82.692 Y89.725 E7.43870
G1 X84.988 Y87.175 E7.54283
G1 X84.627 Y86.737 F18000.000
G1 X84.760 Y86.590 F1500.000 E7.54885
G1 X87.812 Y84.372 E7.66335
G1 X91.258 Y82.838 E7.77785
G1 X94.949 Y82.053 E7.89236
G1 X98.721 Y82.053 E8.00686
G1 X102.411 Y82.838 E8.12136
G1 X105.858 Y84.372 E8.23586
G1 X108.910 Y86.590 E8.35036
G1 X111.434 Y89.393 E8.46486
G1 X113.320 Y92.660 E8.57936
G1 X114.486 Y96.248 E8.69386
G1 X114.880 Y100.000 E8.80837
G1 X114.486 Y103.752 E8.92287
G1 X113.320 Y107.340 E9.03737
G1 X111.434 Y110.607 E9.15187
G1 X108.910 Y113.410 E9.26637
G1 X105.858 Y115.628 E9.38087
G1 X102.442 Y117.149 E9.49434
G1 X98.721 Y117.947 E9.60985
G1 X94.949 Y117.947 E9.72435
G1 X91.259 Y117.162 E9.83885
G1 X87.812 Y115.628 E9.95335
G1 X84.760 Y113.410 E10.06785
G1 X82.236 Y110.607 E10.18236
G1 X80.349 Y107.340 E10.29686
G1 X79.184 Y103.752 E10.41136
G1 X78.789 Y100.000 E10.52586
G1 X79.184 Y96.248 E10.64036
G1 X80.349 Y92.660 E10.75487
G1 X82.236 Y89.393 E10.86937
G1 X84.571 Y86.800 E10.97529
G1 X84.821 Y86.778 F18000.000
G1 F1800.000 E9.97529
G92 E0
G1 X105.028 Y88.965 F18000.000
G1 F1800.000 E1.00000
G1 X99.938 Y83.875 F2250.000 E1.21882
G1 X98.928 Y83.660 E1.25019
G1 X102.944 Y87.676 E1.42284
G1 X101.512 Y87.038 E1.47051
G1 X98.056 Y83.582 E1.61911
G1 X97.261 Y83.582 E1.64326
G1 X100.383 Y86.704 E1.77747
G1 X99.374 Y86.489 E1.80884
G1 X96.466 Y83.582 E1.93383
G1 X95.672 Y83.582 E1.95798
G1 X98.364 Y86.275 E2.07375
G1 X97.552 Y86.257 E2.09846
G1 X94.918 Y83.623 E2.21170
G1 X94.262 Y83.762 E2.23207
G1 X96.757 Y86.257 E2.33931
G1 X95.962 Y86.257 E2.36347
G1 X93.607 Y83.901 E2.46473
G1 X92.952 Y84.041 E2.48510
G1 X95.207 Y86.296 E2.58205
G1 X94.552 Y86.435 E2.60242
G1 X92.296 Y84.180 E2.69937
G1 X91.656 Y84.334 E2.71939
G1 X93.896 Y86.574 E2.81570
G1 X93.241 Y86.714 E2.83607
G1 X91.106 Y84.579 E2.92785
G1 X90.556 Y84.824 E2.94614
G1 X92.585 Y86.853 E3.03338
G1 X92.032 Y87.094 E3.05173
G1 X90.006 Y85.068 E3.13883
G1 X89.457 Y85.313 E3.15712
G1 X91.482 Y87.339 E3.24422
G1 X90.933 Y87.584 E3.26251
G1 X88.907 Y85.558 E3.34961
G1 X88.393 Y85.839 E3.36740
G1 X90.383 Y87.829 E3.45293
G1 X89.848 Y88.089 E3.47100
G1 X87.933 Y86.174 E3.55333
G1 X87.473 Y86.508 E3.57062
G1 X89.388 Y88.423 E3.65295
G1 X88.928 Y88.757 E3.67024
G1 X87.013 Y86.842 E3.75256
G1 X86.552 Y87.177 E3.76986
G1 X88.467 Y89.092 E3.85218
G1 X88.007 Y89.426 E3.86948
G1 X86.092 Y87.511 E3.95180
G1 X85.660 Y87.874 E3.96894
G1 X87.554 Y89.768 E4.05036
G1 X87.178 Y90.186 E4.06747
G1 X85.284 Y88.292 E4.14889
G1 X84.907 Y88.710 E4.16599
G1 X86.801 Y90.604 E4.24741
G1 X86.425 Y91.022 E4.26452
G1 X84.531 Y89.129 E4.34594
G1 X84.154 Y89.547 E4.36305
G1 X86.048 Y91.441 E4.44447
G1 X85.672 Y91.859 E4.46157
G1 X83.778 Y89.965 E4.54299
G1 X83.419 Y90.401 E4.56016
G1 X85.377 Y92.359 E4.64434
G1 X85.086 Y92.862 E4.66202
G1 X83.128 Y90.904 E4.74620
G1 X82.837 Y91.408 E4.76388
G1 X84.795 Y93.366 E4.84806
G1 X84.505 Y93.870 E4.86575
G1 X82.547 Y91.912 E4.94993
G1 X82.256 Y92.416 E4.96761
G1 X84.214 Y94.374 E5.05179
G1 X84.018 Y94.973 E5.07094
G1 X81.965 Y92.920 E5.15920
G1 X81.700 Y93.450 E5.17721
G1 X83.823 Y95.572 E5.26847
G1 X83.628 Y96.172 E5.28764
G1 X81.505 Y94.049 E5.37890
G1 X81.311 Y94.649 E5.39807
G1 X83.433 Y96.772 E5.48932
G1 X83.287 Y97.420 E5.50953
G1 X81.116 Y95.249 E5.60288
G1 X80.921 Y95.849 E5.62205
G1 X83.211 Y98.139 E5.72052
G1 X83.136 Y98.858 E5.74250
G1 X80.726 Y96.448 E5.84611
G1 X80.627 Y97.144 E5.86746
G1 X83.060 Y99.577 E5.97208
G1 X83.054 Y100.366 E5.99606
G1 X80.551 Y97.863 E6.10368
G1 X80.475 Y98.582 E6.12566
G1 X83.148 Y101.254 E6.24054
G1 X83.241 Y102.142 E6.26768
G1 X80.400 Y99.301 E6.38982
G1 X80.329 Y100.025 E6.41193
G1 X83.385 Y103.081 E6.54333
G1 X83.768 Y104.258 E6.58095
G1 X80.422 Y100.913 E6.72478
G1 X80.516 Y101.801 E6.75192
G1 X84.150 Y105.435 E6.90818
G1 X85.125 Y107.205 E6.96959
G1 X80.609 Y102.689 E7.16375
G1 X80.749 Y103.624 E7.19248
G1 X93.121 Y115.995 E7.72438
G1 X92.112 Y115.781 E7.75574
G1 X81.132 Y104.801 E8.22780
G1 X81.514 Y105.978 E8.26543
G1 X90.839 Y115.302 E8.66629
G1 X89.406 Y114.664 E8.71396
G1 X82.159 Y107.418 E9.02550
G1 X83.245 Y109.298 E9.09150
G1 X87.349 Y113.402 E9.26795
G1 F1800.000 E8.26795
G92 E0
G1 X94.130 Y116.210 F18000.000
G1 F1800.000 E1.00000
G1 X89.789 Y111.869 F2250.000 E1.18665
G1 X91.290 Y112.575 E1.23710
G1 X95.133 Y116.418 E1.40230
G1 X95.928 Y116.418 E1.42646
G1 X92.676 Y113.166 E1.56625
G1 X93.685 Y113.381 E1.59761
G1 X96.722 Y116.418 E1.72818
G1 X97.517 Y116.418 E1.75234
G1 X94.694 Y113.595 E1.87369
G1 X95.637 Y113.743 E1.90269
G1 X98.312 Y116.418 E2.01768
G1 X99.011 Y116.322 E2.03913
G1 X96.432 Y113.743 E2.15000
G1 X97.226 Y113.743 E2.17416
G1 X99.666 Y116.183 E2.27904
G1 X100.321 Y116.044 E2.29941
G1 X98.021 Y113.743 E2.39831
G1 X98.722 Y113.649 E2.41980
G1 X100.977 Y115.904 E2.51675
G1 X101.632 Y115.765 E2.53711
G1 X99.377 Y113.510 E2.63406
G1 X100.032 Y113.371 E2.65443
G1 X102.231 Y115.569 E2.74895
G1 X102.781 Y115.325 E2.76724
G1 X100.688 Y113.232 E2.85723
G1 X101.305 Y113.054 E2.87675
G1 X103.330 Y115.080 E2.96384
G1 X103.880 Y114.835 E2.98214
G1 X101.854 Y112.809 E3.06923
G1 X102.404 Y112.564 E3.08753
G1 X104.430 Y114.590 E3.17462
G1 X104.980 Y114.345 E3.19292
G1 X102.954 Y112.320 E3.28001
G1 X103.504 Y112.075 E3.29831
G1 X105.458 Y114.029 E3.38232
G1 X105.918 Y113.694 E3.39961
G1 X104.003 Y111.780 E3.48194
G1 X104.464 Y111.445 E3.49923
G1 X106.378 Y113.360 E3.58155
G1 X106.839 Y113.026 E3.59885
G1 X104.924 Y111.111 E3.68117
G1 X105.384 Y110.776 E3.69846
G1 X107.299 Y112.691 E3.78079
G1 X107.759 Y112.357 E3.79808
G1 X105.844 Y110.442 E3.88040
G1 X106.264 Y110.067 E3.89751
G1 X108.158 Y111.961 E3.97893
G1 X108.534 Y111.543 E3.99603
G1 X106.641 Y109.649 E4.07746
G1 X107.017 Y109.231 E4.09456
G1 X108.911 Y111.125 E4.17598
G1 X109.287 Y110.706 E4.19309
G1 X107.394 Y108.813 E4.27451
G1 X107.770 Y108.394 E4.29161
G1 X109.664 Y110.288 E4.37303
G1 X110.040 Y109.870 E4.39014
G1 X108.117 Y107.946 E4.47285
G1 X108.407 Y107.443 E4.49053
G1 X110.365 Y109.401 E4.57471
G1 X110.656 Y108.897 E4.59239
G1 X108.698 Y106.939 E4.67657
G1 X108.989 Y106.435 E4.69426
G1 X110.947 Y108.393 E4.77844
G1 X111.238 Y107.889 E4.79612
G1 X109.280 Y105.931 E4.88030
G1 X109.534 Y105.391 E4.89846
G1 X111.529 Y107.385 E4.98422
G1 X111.820 Y106.882 E5.00191
G1 X109.729 Y104.791 E5.09180
G1 X109.924 Y104.191 E5.11097
G1 X112.046 Y106.314 E5.20222
G1 X112.241 Y105.714 E5.22140
G1 X110.119 Y103.591 E5.31265
G1 X110.314 Y102.992 E5.33182
G1 X112.436 Y105.114 E5.42308
G1 X112.631 Y104.514 E5.44225
G1 X110.413 Y102.296 E5.53762
G1 X110.488 Y101.577 E5.55960
G1 X112.826 Y103.915 E5.66010
G1 X112.997 Y103.292 E5.67974
G1 X110.564 Y100.858 E5.78437
G1 X110.639 Y100.139 E5.80635
G1 X113.073 Y102.572 E5.91097
G1 X113.149 Y101.853 E5.93295
G1 X110.579 Y99.284 E6.04344
G1 X110.485 Y98.396 E6.07058
G1 X113.224 Y101.134 E6.18832
G1 X113.300 Y100.415 E6.21030
G1 X110.392 Y97.508 E6.33531
G1 X110.134 Y96.454 E6.36827
G1 X113.304 Y99.625 E6.50458
G1 X113.211 Y98.737 E6.53172
G1 X109.751 Y95.277 E6.68045
G1 X109.202 Y93.934 E6.72458
G1 X113.117 Y97.849 E6.89291
G1 X113.024 Y96.961 E6.92006
G1 X108.116 Y92.053 E7.13104
G1 F1800.000 E6.13104
G92 E0
G1 X111.082 Y91.840 F18000.000
G1 F1800.000 E1.00000
G1 X104.829 Y85.587 F2250.000 E1.26883
G1 X103.396 Y84.950 E1.31649
G1 X112.005 Y93.558 E1.68657
G1 X112.387 Y94.735 E1.72420
G1 X101.964 Y84.312 E2.17230
G1 X100.947 Y84.089 E2.20396
G1 X112.770 Y95.912 E2.71224
G1 F1800.000 E1.71224
G92 E0
G1 X108.905 Y88.869 F18000.000
G1 F1800.000 E1.00000
G1 X107.467 Y87.431 F2250.000 E1.06183
M104 S200 ; set temperature
G1 F1800.000 E0.06183
G92 E0
G1 Z0.700 F18000.000
G1 X105.660 Y89.926
G1 F1800.000 E1.00000
G1 X105.808 Y90.034 F3000.000 E1.00557
G1 X107.684 Y92.118 E1.09066
G1 X109.086 Y94.546 E1.17576
G1 X109.952 Y97.212 E1.26083
G1 X110.245 Y100.000 E1.34592
G1 X109.952 Y102.788 E1.43101
G1 X109.086 Y105.454 E1.51610
G1 X107.684 Y107.882 E1.60119
G1 X105.808 Y109.966 E1.68628
G1 X103.540 Y111.614 E1.77137
G1 X100.979 Y112.754 E1.85646
G1 X98.237 Y113.337 E1.94155
