; generated by Slic3r 0.9.10b on 2013-11-21 at 17:22:15

; layer_height = 0.4
; perimeters = 3
; top_solid_layers = 3
; bottom_solid_layers = 3
; fill_density = 0.4
; perimeter_speed = 30
; infill_speed = 60
; travel_speed = 130
; nozzle_diameter = 0.5
; filament_diameter = 3
; extrusion_multiplier = 1
; perimeters extrusion width = 0.53mm
; infill extrusion width = 0.53mm
; solid infill extrusion width = 0.53mm
; top infill extrusion width = 0.53mm
; first layer extrusion width = 0.70mm

G21 ; set units to millimeters
M107
M104 S200 ; set temperature
G28 ; home all axes
G1 Z5 F5000 ; lift nozzle

M109 S200 ; wait for temperature to be reached
G90 ; use absolute coordinates
G92 E0
M82 ; use absolute distances for extrusion
G1 F1800.000 E-1.00000
G92 E0
G1 Z0.350 F7800.000
G1 X80.105 Y81.423
G1 F1800.000 E1.00000
G1 X80.655 Y80.983 F540.000 E1.02292
G1 X83.755 Y78.733 E1.14754
G1 X84.335 Y78.353 E1.17010
G1 X84.955 Y78.043 E1.19265
G1 X88.455 Y76.483 E1.31733
G1 X89.105 Y76.233 E1.33998
G1 X89.775 Y76.053 E1.36256
G1 X93.525 Y75.253 E1.48731
G1 X94.215 Y75.143 E1.51004
G1 X94.915 Y75.103 E1.53285
G1 X98.745 Y75.103 E1.65746
G1 X99.445 Y75.143 E1.68027
G1 X100.135 Y75.253 E1.70301
G1 X103.885 Y76.053 E1.82776
G1 X104.555 Y76.233 E1.85033
G1 X105.205 Y76.483 E1.87299
G1 X108.705 Y78.043 E1.99766
G1 X109.325 Y78.353 E2.02021
G1 X109.905 Y78.733 E2.04277
G1 X113.005 Y80.983 E2.16740
G1 X113.555 Y81.423 E2.19032
G1 X114.045 Y81.923 E2.21309
G1 X116.605 Y84.773 E2.33773
G1 X117.045 Y85.313 E2.36040
G1 X117.415 Y85.893 E2.38278
G1 X119.335 Y89.213 E2.50756
G1 X119.655 Y89.833 E2.53026
G1 X119.905 Y90.493 E2.55322
G1 X121.085 Y94.133 E2.67772
G1 X121.265 Y94.803 E2.70029
G1 X121.375 Y95.483 E2.72270
G1 X121.775 Y99.293 E2.84734
G1 X121.815 Y99.993 E2.87015
G1 X121.775 Y100.693 E2.89296
G1 X121.375 Y104.503 E3.01760
G1 X121.265 Y105.183 E3.04002
G1 X121.085 Y105.853 E3.06259
G1 X119.905 Y109.503 E3.18739
G1 X119.655 Y110.163 E3.21035
G1 X119.335 Y110.793 E3.23334
G1 X117.415 Y114.103 E3.35784
G1 X117.035 Y114.683 E3.38040
G1 X116.605 Y115.213 E3.40261
G1 X114.045 Y118.063 E3.52725
G1 X113.555 Y118.563 E3.55002
G1 X113.005 Y119.003 E3.57294
G1 X109.905 Y121.253 E3.69756
G1 X109.325 Y121.633 E3.72012
G1 X108.705 Y121.943 E3.74268
G1 X105.205 Y123.503 E3.86735
G1 X104.555 Y123.753 E3.89001
G1 X103.885 Y123.933 E3.91258
G1 X100.135 Y124.733 E4.03733
G1 X99.445 Y124.843 E4.06006
G1 X98.745 Y124.883 E4.08288
G1 X94.915 Y124.883 E4.20749
G1 X94.215 Y124.843 E4.23030
G1 X93.525 Y124.733 E4.25303
G1 X89.775 Y123.933 E4.37778
G1 X89.105 Y123.753 E4.40036
G1 X88.455 Y123.503 E4.42301
G1 X84.955 Y121.943 E4.54769
G1 X84.335 Y121.633 E4.57024
G1 X83.755 Y121.253 E4.59280
G1 X80.655 Y119.003 E4.71742
G1 X80.105 Y118.563 E4.74034
G1 X79.615 Y118.063 E4.76312
G1 X77.055 Y115.213 E4.88776
G1 X76.625 Y114.683 E4.90996
G1 X76.245 Y114.103 E4.93252
G1 X74.325 Y110.793 E5.05702
G1 X74.005 Y110.163 E5.08001
G1 X73.755 Y109.503 E5.10297
G1 X72.575 Y105.853 E5.22778
G1 X72.395 Y105.183 E5.25035
G1 X72.285 Y104.503 E5.27276
G1 X71.885 Y100.693 E5.39740
G1 X71.845 Y99.993 E5.42021
G1 X71.885 Y99.293 E5.44302
G1 X72.285 Y95.483 E5.56766
G1 X72.395 Y94.803 E5.59008
G1 X72.575 Y94.133 E5.61265
G1 X73.755 Y90.493 E5.73714
G1 X74.005 Y89.833 E5.76010
G1 X74.325 Y89.213 E5.78280
G1 X76.245 Y85.893 E5.90758
G1 X76.615 Y85.313 E5.92997
G1 X77.055 Y84.773 E5.95263
G1 X79.615 Y81.923 E6.07727
G1 X80.036 Y81.494 E6.09684
G1 F1800.000 E5.09684
G92 E0
G1 X87.700 Y89.855 F7800.000
G1 F1800.000 E1.00000
G1 X90.009 Y88.177 F540.000 E1.09286
G1 X92.616 Y87.016 E1.18571
G1 X95.408 Y86.423 E1.27857
G1 X98.262 Y86.423 E1.37142
G1 X101.054 Y87.016 E1.46428
G1 X103.661 Y88.177 E1.55713
G1 X105.970 Y89.855 E1.64999
G1 X107.879 Y91.976 E1.74284
G1 X109.306 Y94.447 E1.83570
G1 X110.188 Y97.162 E1.92855
G1 X110.487 Y100.000 E2.02141
G1 X110.188 Y102.838 E2.11426
G1 X109.306 Y105.553 E2.20712
G1 X107.879 Y108.024 E2.29997
G1 X105.970 Y110.145 E2.39283
G1 X103.661 Y111.823 E2.48568
G1 X101.054 Y112.984 E2.57854
G1 X98.262 Y113.577 E2.67140
G1 X95.408 Y113.577 E2.76425
G1 X92.616 Y112.984 E2.85711
G1 X90.009 Y111.823 E2.94996
G1 X87.700 Y110.145 E3.04282
G1 X85.790 Y108.024 E3.13567
G1 X84.363 Y105.553 E3.22853
G1 X83.481 Y102.838 E3.32138
G1 X83.183 Y100.000 E3.41424
G1 X83.481 Y97.162 E3.50709
G1 X84.363 Y94.447 E3.59995
G1 X85.790 Y91.976 E3.69280
G1 X87.634 Y89.928 E3.78245
G1 X88.142 Y90.346 F7800.000
G1 X90.339 Y88.749 F540.000 E3.87081
G1 X92.820 Y87.645 E3.95917
G1 X95.477 Y87.080 E4.04754
G1 X98.193 Y87.080 E4.13590
G1 X100.849 Y87.645 E4.22426
G1 X103.330 Y88.749 E4.31262
G1 X105.528 Y90.346 E4.40098
G1 X107.345 Y92.364 E4.48934
G1 X108.703 Y94.716 E4.57770
G1 X109.542 Y97.299 E4.66607
G1 X109.826 Y100.000 E4.75443
G1 X109.542 Y102.701 E4.84279
G1 X108.703 Y105.284 E4.93115
G1 X107.345 Y107.636 E5.01951
G1 X105.528 Y109.654 E5.10787
G1 X103.330 Y111.251 E5.19623
G1 X100.849 Y112.355 E5.28460
G1 X98.193 Y112.920 E5.37296
G1 X95.477 Y112.920 E5.46132
G1 X92.820 Y112.355 E5.54968
G1 X90.339 Y111.251 E5.63804
G1 X88.142 Y109.654 E5.72640
G1 X86.325 Y107.636 E5.81476
G1 X84.967 Y105.284 E5.90312
G1 X84.128 Y102.701 E5.99149
G1 X83.844 Y100.000 E6.07985
G1 X84.128 Y97.299 E6.16821
G1 X84.967 Y94.716 E6.25657
G1 X86.325 Y92.364 E6.34493
G1 X88.076 Y90.419 E6.43009
G1 X88.584 Y90.837 F7800.000
G1 X90.670 Y89.322 F378.000 E6.51395
G1 X93.025 Y88.273 E6.59782
G1 X95.546 Y87.737 E6.68169
G1 X98.124 Y87.737 E6.76556
G1 X100.645 Y88.273 E6.84942
G1 X103.000 Y89.322 E6.93329
G1 X105.086 Y90.837 E7.01716
G1 X106.810 Y92.752 E7.10103
G1 X108.099 Y94.985 E7.18489
G1 X108.896 Y97.436 E7.26876
G1 X109.165 Y100.000 E7.35263
G1 X108.896 Y102.564 E7.43650
G1 X108.099 Y105.015 E7.52037
G1 X106.810 Y107.248 E7.60423
G1 X105.086 Y109.163 E7.68810
G1 X103.000 Y110.678 E7.77197
G1 X100.645 Y111.727 E7.85584
G1 X98.124 Y112.263 E7.93970
G1 X95.546 Y112.263 E8.02357
G1 X93.025 Y111.727 E8.10744
G1 X90.670 Y110.678 E8.19131
G1 X88.584 Y109.163 E8.27517
G1 X86.859 Y107.248 E8.35904
G1 X85.571 Y105.015 E8.44291
G1 X84.774 Y102.564 E8.52678
G1 X84.505 Y100.000 E8.61064
G1 X84.774 Y97.436 E8.69451
G1 X85.571 Y94.985 E8.77838
G1 X86.859 Y92.752 E8.86225
G1 X88.518 Y90.910 E8.94291
G1 X89.202 Y91.061 F7800.000
G1 F1800.000 E7.94291
G92 E0
G1 X85.640 Y87.648 F7800.000
G1 F1800.000 E1.00000
G1 X88.497 Y85.558 F540.000 E1.11517
G1 X91.682 Y84.140 E1.22860
G1 X95.092 Y83.416 E1.34203
G1 X98.578 Y83.416 E1.45545
G1 X101.988 Y84.140 E1.56888
G1 X105.173 Y85.558 E1.68230
G1 X107.993 Y87.607 E1.79572
G1 X110.326 Y90.198 E1.90915
G1 X112.069 Y93.217 E2.02257
G1 X113.146 Y96.533 E2.13600
G1 X113.511 Y100.000 E2.24942
G1 X113.146 Y103.467 E2.36284
G1 X112.069 Y106.783 E2.47627
G1 X110.326 Y109.802 E2.58969
G1 X107.993 Y112.393 E2.70312
G1 X105.173 Y114.442 E2.81653
G1 X101.988 Y115.860 E2.92996
G1 X98.578 Y116.584 E3.04339
G1 X95.092 Y116.584 E3.15681
G1 X91.682 Y115.860 E3.27024
G1 X88.497 Y114.442 E3.38366
G1 X85.677 Y112.393 E3.49708
G1 X83.344 Y109.802 E3.61052
G1 X81.601 Y106.783 E3.72393
G1 X80.524 Y103.467 E3.83736
G1 X80.159 Y100.000 E3.95078
G1 X80.523 Y96.533 E4.06420
G1 X81.601 Y93.217 E4.17763
G1 X83.344 Y90.198 E4.29106
G1 X85.574 Y87.722 E4.39948
G1 X85.151 Y87.209 F7800.000
G1 X85.235 Y87.116 F540.000 E4.40352
G1 X88.166 Y84.986 E4.52143
G1 X91.477 Y83.512 E4.63935
G1 X95.023 Y82.758 E4.75727
G1 X98.647 Y82.758 E4.87519
G1 X102.192 Y83.512 E4.99311
G1 X105.503 Y84.986 E5.11103
G1 X108.435 Y87.116 E5.22894
G1 X110.860 Y89.810 E5.34686
G1 X112.673 Y92.949 E5.46478
G1 X113.793 Y96.396 E5.58270
G1 X114.171 Y100.000 E5.70062
G1 X113.793 Y103.604 E5.81853
G1 X112.673 Y107.052 E5.93646
G1 X110.860 Y110.190 E6.05437
G1 X108.435 Y112.884 E6.17229
G1 X105.503 Y115.014 E6.29020
G1 X102.192 Y116.488 E6.40811
G1 X98.647 Y117.242 E6.52604
G1 X95.023 Y117.242 E6.64396
G1 X91.478 Y116.488 E6.76187
G1 X88.167 Y115.014 E6.87979
G1 X85.235 Y112.884 E6.99771
G1 X82.809 Y110.190 E7.11564
G1 X80.997 Y107.051 E7.23355
G1 X79.877 Y103.604 E7.35147
G1 X79.498 Y100.000 E7.46938
G1 X79.877 Y96.396 E7.58730
G1 X80.997 Y92.948 E7.70522
G1 X82.809 Y89.810 E7.82314
G1 X85.085 Y87.282 E7.93381
G1 X84.663 Y86.769 F7800.000
G1 X84.792 Y86.625 F378.000 E7.94010
G1 X87.836 Y84.414 E8.06250
G1 X91.273 Y82.884 E8.18491
G1 X94.954 Y82.101 E8.30733
G1 X98.716 Y82.101 E8.42974
G1 X102.396 Y82.884 E8.55216
G1 X105.834 Y84.414 E8.67457
G1 X108.877 Y86.626 E8.79698
G1 X111.395 Y89.421 E8.91939
G1 X113.276 Y92.680 E9.04180
G1 X114.439 Y96.258 E9.16421
G1 X114.832 Y100.000 E9.28663
G1 X114.439 Y103.742 E9.40904
G1 X113.276 Y107.320 E9.53145
G1 X111.395 Y110.579 E9.65386
G1 X108.877 Y113.375 E9.77627
G1 X105.834 Y115.586 E9.89868
G1 X102.423 Y117.105 E10.02016
G1 X98.716 Y117.899 E10.14349
G1 X94.954 Y117.899 E10.26590
G1 X91.273 Y117.116 E10.38831
G1 X87.836 Y115.586 E10.51072
G1 X84.792 Y113.375 E10.63313
G1 X82.275 Y110.578 E10.75555
G1 X80.394 Y107.320 E10.87796
G1 X79.231 Y103.742 E11.00037
G1 X78.838 Y100.000 E11.12278
G1 X79.231 Y96.258 E11.24519
G1 X80.394 Y92.680 E11.36761
G1 X82.275 Y89.421 E11.49002
G1 X84.597 Y86.842 E11.60294
G1 X84.852 Y86.809 F7800.000
G1 X102.431 Y87.108
G1 X99.400 Y84.077 F1080.000 E11.74263
G1 X98.284 Y83.892 E11.77950
G1 X100.886 Y86.494 E11.89941
G1 X99.704 Y86.243 E11.93878
G1 X97.353 Y83.892 E12.04712
G1 X96.422 Y83.892 E12.07745
G1 X98.522 Y85.991 E12.17420
G1 X97.547 Y85.947 E12.20602
G1 X95.492 Y83.892 E12.30072
G1 X94.663 Y83.994 E12.32793
G1 X96.616 Y85.947 E12.41794
G1 X95.685 Y85.947 E12.44827
G1 X93.895 Y84.157 E12.53076
G1 X93.128 Y84.320 E12.55633
G1 X94.860 Y86.052 E12.63617
G1 X94.093 Y86.216 E12.66174
G1 X92.360 Y84.483 E12.74158
G1 X91.631 Y84.684 E12.76624
G1 X93.325 Y86.379 E12.84433
G1 X92.558 Y86.542 E12.86990
G1 X90.987 Y84.971 E12.94229
G1 X90.343 Y85.258 E12.96526
G1 X91.899 Y86.814 E13.03699
G1 X91.255 Y87.101 E13.05996
G1 X89.699 Y85.545 E13.13168
G1 X89.055 Y85.831 E13.15465
G1 X90.611 Y87.388 E13.22638
G1 X89.967 Y87.674 E13.24935
G1 X88.464 Y86.171 E13.31864
G1 X87.925 Y86.563 E13.34035
G1 X89.396 Y88.034 E13.40815
G1 X88.857 Y88.426 E13.42986
G1 X87.386 Y86.954 E13.49766
G1 X86.847 Y87.346 E13.51937
G1 X88.318 Y88.817 E13.58717
G1 X87.779 Y89.209 E13.60888
G1 X86.308 Y87.738 E13.67668
G1 X85.810 Y88.171 E13.69817
G1 X87.265 Y89.626 E13.76523
G1 X86.824 Y90.116 E13.78670
G1 X85.369 Y88.661 E13.85376
G1 X84.928 Y89.150 E13.87523
G1 X86.383 Y90.605 E13.94229
G1 X85.942 Y91.095 E13.96376
G1 X84.487 Y89.640 E14.03082
G1 X84.046 Y90.130 E14.05229
G1 X85.501 Y91.585 E14.11935
G1 X85.138 Y92.153 E14.14130
G1 X83.634 Y90.648 E14.21063
G1 X83.293 Y91.238 E14.23283
G1 X84.798 Y92.743 E14.30216
G1 X84.457 Y93.333 E14.32436
G1 X82.953 Y91.828 E14.39369
G1 X82.612 Y92.418 E14.41589
G1 X84.116 Y93.923 E14.48522
G1 X83.825 Y94.562 E14.50812
G1 X82.271 Y93.008 E14.57973
G1 X81.966 Y93.634 E14.60241
G1 X83.597 Y95.265 E14.67757
G1 X83.369 Y95.967 E14.70164
G1 X81.738 Y94.336 E14.77679
G1 X81.510 Y95.039 E14.80086
G1 X83.141 Y96.670 E14.87601
G1 X82.974 Y97.434 E14.90150
G1 X81.281 Y95.741 E14.97949
G1 X81.053 Y96.444 E15.00356
G1 X82.885 Y98.276 E15.08800
G1 X82.797 Y99.118 E15.11559
G1 X80.927 Y97.248 E15.20176
G1 X80.839 Y98.091 E15.22935
G1 X82.708 Y99.960 E15.31552
G1 X82.808 Y100.991 E15.34926
G1 X80.750 Y98.933 E15.44411
G1 X80.662 Y99.775 E15.47171
G1 X82.918 Y102.031 E15.57568
G1 X83.070 Y103.114 E15.61133
G1 X80.718 Y100.762 E15.71973
G1 X80.827 Y101.802 E15.75381
G1 X83.518 Y104.493 E15.87782
G1 X84.041 Y105.946 E15.92813
G1 X80.937 Y102.842 E16.07117
G1 X81.214 Y104.050 E16.11154
G1 X85.312 Y108.148 E16.30041
G1 X83.512 Y109.140 F7800.000
G1 X87.501 Y113.130 F1080.000 E16.48427
G1 X88.423 Y111.259 F7800.000
G1 X92.767 Y115.603 F1080.000 E16.68447
G1 X91.483 Y115.250 E16.72789
G1 X81.661 Y105.428 E17.18049
G1 X82.240 Y106.938 E17.23317
G1 X89.805 Y114.503 E17.58179
G1 X90.783 Y112.689 F7800.000
G1 X93.949 Y115.855 F1080.000 E17.72769
G1 X95.131 Y116.106 E17.76706
G1 X92.461 Y113.436 E17.89011
G1 X93.645 Y113.689 E17.92957
G1 X96.064 Y116.108 E18.04104
G1 X96.995 Y116.108 E18.07137
G1 X94.827 Y113.940 E18.17127
G1 X95.871 Y114.053 E18.20547
G1 X97.926 Y116.108 E18.30017
G1 X98.799 Y116.051 E18.32868
G1 X96.801 Y114.053 E18.42073
G1 X97.732 Y114.053 E18.45106
G1 X99.566 Y115.887 E18.53559
G1 X100.334 Y115.724 E18.56116
G1 X98.601 Y113.992 E18.64100
G1 X99.369 Y113.829 E18.66657
G1 X101.101 Y115.561 E18.74641
G1 X101.864 Y115.393 E18.77187
G1 X100.136 Y113.665 E18.85150
G1 X100.904 Y113.502 E18.87707
G1 X102.508 Y115.107 E18.95101
G1 X103.152 Y114.820 E18.97398
G1 X101.596 Y113.263 E19.04570
G1 X102.240 Y112.977 E19.06867
G1 X103.796 Y114.533 E19.14040
G1 X104.440 Y114.246 E19.16337
G1 X102.884 Y112.690 E19.23510
G1 X103.528 Y112.403 E19.25807
G1 X105.060 Y113.935 E19.32867
G1 X105.599 Y113.544 E19.35038
G1 X104.127 Y112.072 E19.41818
G1 X104.667 Y111.681 E19.43989
G1 X106.138 Y113.152 E19.50769
G1 X106.677 Y112.760 E19.52940
G1 X105.206 Y111.289 E19.59720
G1 X105.745 Y110.897 E19.61891
G1 X107.216 Y112.369 E19.68671
G1 X107.740 Y111.962 E19.70832
G1 X106.284 Y110.506 E19.77543
G1 X106.726 Y110.017 E19.79690
G1 X108.181 Y111.472 E19.86396
G1 X108.622 Y110.983 E19.88543
G1 X107.167 Y109.527 E19.95249
G1 X107.608 Y109.038 E19.97396
G1 X109.063 Y110.493 E20.04102
G1 X109.504 Y110.003 E20.06249
G1 X108.049 Y108.548 E20.12955
G1 X108.439 Y108.008 E20.15127
G1 X109.943 Y109.512 E20.22060
G1 X110.284 Y108.922 E20.24280
G1 X108.780 Y107.417 E20.31213
G1 X109.120 Y106.827 E20.33433
G1 X110.625 Y108.332 E20.40366
G1 X110.965 Y107.742 E20.42586
G1 X109.461 Y106.237 E20.49519
G1 X109.783 Y105.628 E20.51763
G1 X111.306 Y107.152 E20.58784
G1 X111.642 Y106.557 E20.61010
G1 X110.011 Y104.926 E20.68526
G1 X110.239 Y104.223 E20.70933
G1 X111.870 Y105.854 E20.78448
G1 X112.098 Y105.152 E20.80855
G1 X110.467 Y103.521 E20.88370
G1 X110.672 Y102.795 E20.90829
G1 X112.326 Y104.449 E20.98454
G1 X112.555 Y103.747 E21.00860
G1 X110.760 Y101.953 E21.09129
G1 X110.849 Y101.110 E21.11889
G1 X112.719 Y102.980 E21.20505
G1 X112.807 Y102.138 E21.23265
G1 X110.937 Y100.268 E21.31881
G1 X110.891 Y99.291 E21.35069
G1 X112.896 Y101.296 E21.44306
G1 X112.984 Y100.454 E21.47066
G1 X110.782 Y98.251 E21.57216
G1 X110.672 Y97.211 E21.60623
G1 X112.981 Y99.520 E21.71264
G1 X112.872 Y98.480 E21.74671
G1 X110.273 Y95.881 E21.86649
G1 X109.825 Y94.502 E21.91373
G1 X112.763 Y97.440 E22.04911
G1 X112.578 Y96.324 E22.08596
G1 X108.703 Y92.449 E22.26454
G1 X110.503 Y91.458 F7800.000
G1 X105.245 Y86.200 F1080.000 E22.50684
G1 X103.409 Y85.295 F7800.000
G1 X111.682 Y93.567 F1080.000 E22.88807
G1 X112.130 Y94.946 E22.93530
G1 X101.764 Y84.580 E23.41301
G1 X100.582 Y84.328 E23.45239
G1 X104.323 Y88.070 E23.62482
M106 S239
G1 F1800.000 E22.62482
G92 E0
G1 Z0.750 F7800.000
G1 X103.488 Y88.476
G1 F1800.000 E1.00000
G1 X105.739 Y90.112 F1800.000 E1.08180
G1 X107.600 Y92.179 E1.16360
G1 X108.991 Y94.588 E1.24539
G1 X109.850 Y97.233 E1.32719
G1 X110.141 Y100.000 E1.40899
G1 X109.850 Y102.767 E1.49079
G1 X108.991 Y105.412 E1.57259
G1 X107.600 Y107.821 E1.65439
G1 X105.739 Y109.888 E1.73619
G1 X103.488 Y111.524 E1.81799
G1 X100.947 Y112.655 E1.89978
G1 X98.226 Y113.233 E1.98158
G1 X95.444 Y113.233 E2.06338
G1 X92.723 Y112.655 E2.14518
G1 X90.182 Y111.524 E2.22698
G1 X87.931 Y109.888 E2.30878
G1 X86.070 Y107.821 E2.39058
G1 X84.679 Y105.412 E2.47237
G1 X83.819 Y102.767 E2.55417
G1 X83.529 Y100.000 E2.63597
G1 X83.819 Y97.233 E2.71777
G1 X84.679 Y94.588 E2.79957
G1 X86.070 Y92.179 E2.88137
G1 X87.931 Y90.112 E2.96317
G1 X90.182 Y88.476 E3.04497
G1 X92.723 Y87.345 E3.12676
G1 X95.444 Y86.767 E3.20856
G1 X98.226 Y86.767 E3.29036
G1 X100.947 Y87.345 E3.37216
G1 X103.417 Y88.445 E3.45167
G1 X103.227 Y88.929 F7800.000
G1 X105.389 Y90.500 F1800.000 E3.53025
G1 X107.177 Y92.486 E3.60884
G1 X108.513 Y94.800 E3.68743
G1 X109.339 Y97.342 E3.76601
G1 X109.619 Y100.000 E3.84460
G1 X109.339 Y102.658 E3.92319
G1 X108.513 Y105.200 E4.00177
G1 X107.177 Y107.514 E4.08036
G1 X105.389 Y109.500 E4.15895
G1 X103.227 Y111.071 E4.23753
