; generated by Slic3r 0.9.10b on 2013-11-21 at 17:41:05

; layer_height = 0.35
; perimeters = 3
; top_solid_layers = 3
; bottom_solid_layers = 3
; fill_density = 0.
; perimeter_speed = 50
; infill_speed = 85
; travel_speed = 300
; nozzle_diameter = 0.5
; filament_diameter = 2.87
; extrusion_multiplier = 1
; perimeters extrusion width = 0.58mm
; infill extrusion width = 0.58mm
; solid infill extrusion width = 0.58mm
; top infill extrusion width = 0.58mm

G21 ; set units to millimeters
M107
G28 ; home all axes
G90 ; use absolute coordinates
G92 E0
M82 ; use absolute distances for extrusion
G1 F1800.000 E-1.00000
G92 E0
G1 Z0.350 F18000.000
G1 X80.175 Y81.503
G1 F1800.000 E1.00000
G1 X80.715 Y81.063 F1500.000 E1.02114
G1 X83.815 Y78.813 E1.13740
G1 X84.385 Y78.443 E1.15803
G1 X84.995 Y78.133 E1.17879
G1 X88.495 Y76.573 E1.29510
G1 X89.135 Y76.323 E1.31595
G1 X89.795 Y76.143 E1.33672
G1 X93.545 Y75.343 E1.45309
G1 X94.225 Y75.243 E1.47395
G1 X94.915 Y75.203 E1.49493
G1 X98.745 Y75.203 E1.61118
G1 X99.435 Y75.243 E1.63215
G1 X100.115 Y75.343 E1.65302
G1 X103.865 Y76.143 E1.76939
G1 X104.525 Y76.323 E1.79016
G1 X105.165 Y76.573 E1.81101
G1 X108.665 Y78.133 E1.92731
G1 X109.275 Y78.443 E1.94808
G1 X109.845 Y78.813 E1.96871
G1 X112.945 Y81.063 E2.08497
G1 X113.485 Y81.503 E2.10611
G1 X113.975 Y81.993 E2.12714
G1 X116.535 Y84.843 E2.24342
G1 X116.965 Y85.363 E2.26389
G1 X117.335 Y85.943 E2.28478
G1 X119.255 Y89.263 E2.40118
G1 X119.565 Y89.873 E2.42195
G1 X119.815 Y90.523 E2.44308
G1 X120.995 Y94.163 E2.55922
G1 X121.175 Y94.823 E2.57999
G1 X121.285 Y95.493 E2.60059
G1 X121.685 Y99.303 E2.71687
G1 X121.715 Y99.993 E2.73783
G1 X121.685 Y100.683 E2.75879
G1 X121.285 Y104.493 E2.87506
G1 X121.175 Y105.163 E2.89567
G1 X120.995 Y105.823 E2.91644
G1 X119.815 Y109.473 E3.03286
G1 X119.565 Y110.123 E3.05400
G1 X119.255 Y110.743 E3.07504
G1 X117.335 Y114.053 E3.19118
G1 X116.965 Y114.623 E3.21181
G1 X116.535 Y115.143 E3.23229
G1 X113.975 Y117.993 E3.34856
G1 X113.485 Y118.483 E3.36959
G1 X112.945 Y118.923 E3.39073
G1 X109.845 Y121.173 E3.50699
G1 X109.275 Y121.543 E3.52762
G1 X108.665 Y121.853 E3.54839
G1 X105.165 Y123.413 E3.66469
G1 X104.525 Y123.663 E3.68554
G1 X103.865 Y123.843 E3.70631
G1 X100.115 Y124.643 E3.82268
G1 X99.435 Y124.743 E3.84355
G1 X98.745 Y124.783 E3.86452
G1 X94.915 Y124.783 E3.98077
G1 X94.225 Y124.743 E4.00175
G1 X93.545 Y124.643 E4.02261
G1 X89.795 Y123.843 E4.13898
G1 X89.135 Y123.663 E4.15975
G1 X88.495 Y123.413 E4.18060
G1 X84.995 Y121.853 E4.29691
G1 X84.385 Y121.543 E4.31767
G1 X83.815 Y121.173 E4.33830
G1 X80.715 Y118.923 E4.45456
G1 X80.175 Y118.483 E4.47570
G1 X79.685 Y117.993 E4.49673
G1 X77.125 Y115.143 E4.61301
G1 X76.695 Y114.623 E4.63349
G1 X76.325 Y114.053 E4.65411
G1 X74.405 Y110.743 E4.77025
G1 X74.095 Y110.123 E4.79129
G1 X73.845 Y109.473 E4.81243
G1 X72.665 Y105.823 E4.92886
G1 X72.485 Y105.163 E4.94962
G1 X72.375 Y104.493 E4.97023
G1 X71.975 Y100.683 E5.08650
G1 X71.945 Y99.993 E5.10746
G1 X71.975 Y99.303 E5.12842
G1 X72.375 Y95.493 E5.24470
G1 X72.485 Y94.823 E5.26531
G1 X72.665 Y94.163 E5.28607
G1 X73.845 Y90.523 E5.40221
G1 X74.095 Y89.873 E5.42334
G1 X74.405 Y89.263 E5.44411
G1 X76.325 Y85.943 E5.56052
G1 X76.695 Y85.363 E5.58140
G1 X77.125 Y84.843 E5.60188
G1 X79.685 Y81.993 E5.71815
G1 X80.115 Y81.563 E5.73663
G1 F1800.000 E4.73663
G92 E0
G1 X86.232 Y88.224 F18000.000
G1 F1800.000 E1.00000
G1 X88.912 Y86.277 F1500.000 E1.10055
G1 X91.938 Y84.929 E1.20109
G1 X95.179 Y84.241 E1.30164
G1 X98.491 Y84.241 E1.40218
G1 X101.732 Y84.929 E1.50273
G1 X104.758 Y86.277 E1.60327
G1 X107.438 Y88.224 E1.70382
G1 X109.655 Y90.686 E1.80437
G1 X111.311 Y93.555 E1.90491
G1 X112.335 Y96.705 E2.00546
G1 X112.681 Y100.000 E2.10601
G1 X112.335 Y103.295 E2.20655
G1 X111.311 Y106.445 E2.30710
G1 X109.655 Y109.314 E2.40764
G1 X107.438 Y111.776 E2.50819
G1 X104.758 Y113.723 E2.60873
G1 X101.732 Y115.071 E2.70928
G1 X98.491 Y115.759 E2.80982
G1 X95.179 Y115.759 E2.91037
G1 X91.938 Y115.071 E3.01091
G1 X88.912 Y113.723 E3.11146
G1 X86.232 Y111.776 E3.21201
G1 X84.015 Y109.314 E3.31256
G1 X82.359 Y106.445 E3.41310
G1 X81.335 Y103.295 E3.51365
G1 X80.989 Y100.000 E3.61419
G1 X81.335 Y96.705 E3.71474
G1 X82.359 Y93.555 E3.81528
G1 X84.015 Y90.686 E3.91583
G1 X86.175 Y88.287 E4.01382
G1 X86.579 Y88.677 F18000.000
G1 X89.194 Y86.765 F1500.000 E4.11214
G1 X92.112 Y85.466 E4.20911
G1 X95.237 Y84.802 E4.30607
G1 X98.432 Y84.802 E4.40304
G1 X101.557 Y85.466 E4.50001
G1 X104.476 Y86.765 E4.59697
G1 X107.061 Y88.643 E4.69394
G1 X109.198 Y91.017 E4.79091
G1 X110.796 Y93.784 E4.88787
G1 X111.783 Y96.823 E4.98484
G1 X112.117 Y100.000 E5.08181
G1 X111.783 Y103.177 E5.17877
G1 X110.796 Y106.216 E5.27574
G1 X109.198 Y108.983 E5.37271
G1 X107.061 Y111.357 E5.46967
G1 X104.476 Y113.235 E5.56664
G1 X101.557 Y114.534 E5.66361
G1 X98.432 Y115.198 E5.76057
G1 X95.237 Y115.198 E5.85754
G1 X92.113 Y114.534 E5.95451
G1 X89.194 Y113.235 E6.05147
G1 X86.609 Y111.357 E6.14844
G1 X84.471 Y108.983 E6.24541
G1 X82.874 Y106.216 E6.34237
G1 X81.887 Y103.177 E6.43934
G1 X81.553 Y100.000 E6.53631
G1 X81.887 Y96.823 E6.63327
G1 X82.874 Y93.784 E6.73024
G1 X84.471 Y91.017 E6.82721
G1 X86.522 Y88.740 E6.92024
G1 X87.106 Y88.868 F18000.000
G1 F1800.000 E5.92024
G92 E0
G1 X85.138 Y87.009 F18000.000
G1 F1800.000 E1.00000
G1 X88.094 Y84.861 F1500.000 E1.11091
G1 X91.433 Y83.374 E1.22183
G1 X95.008 Y82.614 E1.33277
G1 X98.662 Y82.614 E1.44369
G1 X102.237 Y83.374 E1.55461
G1 X105.576 Y84.861 E1.66553
G1 X108.532 Y87.009 E1.77645
G1 X110.978 Y89.725 E1.88737
G1 X112.805 Y92.890 E1.99830
G1 X113.934 Y96.365 E2.10922
G1 X114.316 Y100.000 E2.22014
G1 X113.934 Y103.634 E2.33106
G1 X112.805 Y107.110 E2.44199
G1 X111.047 Y110.155 E2.54868
G1 X110.978 Y110.275 E2.55291
G1 X108.532 Y112.991 E2.66383
G1 X105.576 Y115.139 E2.77474
G1 X102.237 Y116.626 E2.88566
G1 X98.662 Y117.386 E2.99660
G1 X95.008 Y117.386 E3.10751
G1 X91.433 Y116.626 E3.21843
G1 X88.094 Y115.139 E3.32936
G1 X85.138 Y112.991 E3.44028
G1 X82.692 Y110.275 E3.55121
G1 X80.865 Y107.110 E3.66212
G1 X79.736 Y103.635 E3.77305
G1 X79.353 Y100.000 E3.88397
G1 X79.735 Y96.365 E3.99489
G1 X80.865 Y92.890 E4.10582
G1 X82.692 Y89.725 E4.21674
G1 X85.081 Y87.071 E4.32511
G1 X84.627 Y86.737 F18000.000
G1 X84.760 Y86.590 F1500.000 E4.33113
G1 X87.812 Y84.372 E4.44562
G1 X91.258 Y82.838 E4.56012
G1 X94.949 Y82.053 E4.67463
G1 X98.721 Y82.053 E4.78913
G1 X102.411 Y82.838 E4.90363
G1 X105.858 Y84.372 E5.01813
G1 X108.910 Y86.590 E5.13263
G1 X111.434 Y89.393 E5.24713
G1 X113.320 Y92.660 E5.36164
G1 X114.486 Y96.248 E5.47614
G1 X114.880 Y100.000 E5.59064
G1 X114.486 Y103.752 E5.70514
G1 X113.320 Y107.340 E5.81964
G1 X111.434 Y110.607 E5.93414
G1 X108.910 Y113.410 E6.04864
G1 X105.858 Y115.628 E6.16314
G1 X102.442 Y117.149 E6.27662
G1 X98.721 Y117.947 E6.39212
G1 X94.949 Y117.947 E6.50662
G1 X91.259 Y117.162 E6.62112
G1 X87.812 Y115.628 E6.73563
G1 X84.760 Y113.410 E6.85013
G1 X82.236 Y110.607 E6.96463
G1 X80.349 Y107.340 E7.07913
G1 X79.184 Y103.752 E7.19363
G1 X78.789 Y100.000 E7.30813
G1 X79.184 Y96.248 E7.42263
G1 X80.349 Y92.660 E7.53714
G1 X82.236 Y89.393 E7.65164
G1 X84.571 Y86.800 E7.75756
G1 X84.821 Y86.778 F18000.000
M106 S255
M104 S200 ; set temperature
G1 F1800.000 E6.75756
G92 E0
G1 Z0.700 F18000.000
G1 X85.854 Y87.805
G1 F1800.000 E1.00000
G1 X88.630 Y85.788 F2519.572 E1.10413
G1 X91.764 Y84.393 E1.20825
G1 X95.120 Y83.680 E1.31237
G1 X98.550 Y83.680 E1.41650
G1 X101.906 Y84.393 E1.52062
G1 X104.861 Y85.709 E1.61881
G1 X105.040 Y85.788 E1.62475
G1 X107.816 Y87.805 E1.72888
G1 X110.111 Y90.354 E1.83300
G1 X111.826 Y93.325 E1.93712
G1 X112.886 Y96.588 E2.04125
G1 X113.245 Y100.000 E2.14537
G1 X112.886 Y103.412 E2.24951
G1 X111.826 Y106.675 E2.35363
G1 X110.111 Y109.646 E2.45775
G1 X107.816 Y112.195 E2.56188
G1 X105.040 Y114.212 E2.66600
G1 X101.906 Y115.607 E2.77012
G1 X98.550 Y116.320 E2.87425
G1 X95.120 Y116.320 E2.97838
G1 X91.764 Y115.607 E3.08250
G1 X88.630 Y114.212 E3.18662
G1 X85.854 Y112.195 E3.29075
G1 X83.559 Y109.646 E3.39488
G1 X81.843 Y106.675 E3.49900
G1 X80.783 Y103.412 E3.60313
G1 X80.425 Y100.000 E3.70725
G1 X80.783 Y96.588 E3.81138
G1 X81.843 Y93.325 E3.91550
G1 X83.559 Y90.354 E4.01963
G1 X85.798 Y87.867 E4.12120
G1 X86.232 Y88.224 F18000.000
G1 X88.912 Y86.277 F2519.572 E4.22175
G1 X91.938 Y84.929 E4.32229
G1 X95.179 Y84.241 E4.42283
G1 X98.491 Y84.241 E4.52338
G1 X101.732 Y84.929 E4.62393
G1 X104.633 Y86.221 E4.72032
G1 X104.758 Y86.277 E4.72447
G1 X107.438 Y88.224 E4.82502
G1 X109.655 Y90.686 E4.92557
G1 X111.311 Y93.555 E5.02611
G1 X112.335 Y96.705 E5.12666
G1 X112.681 Y100.000 E5.22720
G1 X112.335 Y103.295 E5.32775
G1 X111.311 Y106.445 E5.42829
G1 X109.655 Y109.314 E5.52884
G1 X107.438 Y111.776 E5.62939
G1 X104.758 Y113.723 E5.72993
G1 X101.732 Y115.071 E5.83048
G1 X98.491 Y115.759 E5.93102
G1 X95.179 Y115.759 E6.03157
G1 X91.938 Y115.071 E6.13211
G1 X88.912 Y113.723 E6.23266
G1 X86.232 Y111.776 E6.33321
G1 X84.015 Y109.314 E6.43375
G1 X82.359 Y106.445 E6.53430
G1 X81.335 Y103.295 E6.63484
G1 X80.989 Y100.000 E6.73539
G1 X81.335 Y96.705 E6.83594
G1 X82.359 Y93.555 E6.93648
G1 X84.015 Y90.686 E7.03703
G1 X86.175 Y88.287 E7.13502
G1 X86.609 Y88.643 F18000.000
G1 X89.194 Y86.765 F2519.572 E7.23199
G1 X92.112 Y85.466 E7.32895
G1 X95.237 Y84.802 E7.42592
G1 X98.432 Y84.802 E7.52289
G1 X101.557 Y85.466 E7.61985
G1 X104.405 Y86.734 E7.71446
G1 X104.476 Y86.765 E7.71682
G1 X107.061 Y88.643 E7.81379
G1 X109.198 Y91.017 E7.91075
G1 X110.796 Y93.784 E8.00772
G1 X111.783 Y96.823 E8.10469
G1 X112.117 Y100.000 E8.20165
G1 X111.783 Y103.177 E8.29862
G1 X110.796 Y106.216 E8.39559
G1 X109.198 Y108.983 E8.49255
G1 X107.061 Y111.357 E8.58952
G1 X104.476 Y113.235 E8.68649
G1 X101.557 Y114.534 E8.78345
G1 X98.432 Y115.198 E8.88042
G1 X95.237 Y115.198 E8.97739
G1 X92.113 Y114.534 E9.07435
G1 X89.194 Y113.235 E9.17132
G1 X86.609 Y111.357 E9.26829
G1 X84.471 Y108.983 E9.36525
G1 X82.874 Y106.216 E9.46222
G1 X81.887 Y103.177 E9.55919
G1 X81.553 Y100.000 E9.65615
G1 X81.887 Y96.823 E9.75312
G1 X82.874 Y93.784 E9.85008
G1 X84.471 Y91.017 E9.94705
G1 X86.553 Y88.706 E10.04146
G1 X87.136 Y88.835 F18000.000
G1 F1800.000 E9.04146
G92 E0
G1 X85.396 Y87.296 F18000.000
G1 F1800.000 E1.00000
G1 X88.287 Y85.196 F2519.572 E1.10846
G1 X91.552 Y83.742 E1.21693
G1 X95.048 Y82.999 E1.32540
G1 X98.622 Y82.999 E1.43387
G1 X102.117 Y83.742 E1.54234
G1 X105.382 Y85.196 E1.65081
G1 X108.273 Y87.296 E1.75927
G1 X110.665 Y89.952 E1.86774
G1 X112.452 Y93.047 E1.97621
G1 X113.556 Y96.446 E2.08468
G1 X113.930 Y100.000 E2.19314
G1 X113.598 Y103.152 E2.28934
G1 X113.556 Y103.554 E2.30161
G1 X112.452 Y106.953 E2.41008
G1 X110.665 Y110.048 E2.51855
G1 X108.273 Y112.704 E2.62702
G1 X105.382 Y114.804 E2.73548
G1 X102.118 Y116.258 E2.84394
G1 X98.622 Y117.001 E2.95242
G1 X95.048 Y117.001 E3.06089
G1 X91.552 Y116.258 E3.16935
G1 X88.288 Y114.804 E3.27782
G1 X85.396 Y112.704 E3.38629
G1 X83.005 Y110.048 E3.49477
G1 X81.218 Y106.953 E3.60323
G1 X80.114 Y103.554 E3.71169
G1 X79.740 Y100.000 E3.82016
G1 X80.114 Y96.446 E3.92863
G1 X81.218 Y93.047 E4.03710
G1 X83.005 Y89.952 E4.14557
G1 X85.340 Y87.359 E4.25148
G1 X85.019 Y86.877 F18000.000
G1 X88.005 Y84.707 F2519.572 E4.36352
G1 X91.378 Y83.206 E4.47557
G1 X94.989 Y82.438 E4.58762
G1 X98.681 Y82.438 E4.69967
G1 X102.292 Y83.206 E4.81172
G1 X105.664 Y84.707 E4.92376
G1 X108.651 Y86.877 E5.03581
G1 X111.121 Y89.620 E5.14786
G1 X112.967 Y92.818 E5.25990
G1 X114.108 Y96.329 E5.37195
G1 X114.494 Y100.000 E5.48400
G1 X114.156 Y103.211 E5.58198
G1 X114.108 Y103.671 E5.59604
G1 X112.967 Y107.183 E5.70810
G1 X111.121 Y110.380 E5.82014
G1 X108.651 Y113.123 E5.93219
G1 X105.664 Y115.293 E6.04423
G1 X102.292 Y116.794 E6.15627
G1 X98.681 Y117.562 E6.26833
G1 X94.989 Y117.562 E6.38038
G1 X91.378 Y116.794 E6.49242
G1 X88.006 Y115.293 E6.60447
G1 X85.019 Y113.123 E6.71651
G1 X82.549 Y110.379 E6.82857
G1 X80.703 Y107.182 E6.94061
G1 X79.562 Y103.671 E7.05266
G1 X79.176 Y100.000 E7.16471
G1 X79.562 Y96.329 E7.27675
G1 X80.703 Y92.817 E7.38880
G1 X82.549 Y89.620 E7.50085
G1 X84.963 Y86.939 E7.61034
G1 X84.622 Y86.479 F18000.000
G1 X87.723 Y84.219 F2519.572 E7.72682
G1 X91.204 Y82.669 E7.84244
G1 X94.930 Y81.877 E7.95807
G1 X98.740 Y81.877 E8.07370
G1 X102.466 Y82.669 E8.18933
G1 X105.946 Y84.219 E8.30495
G1 X109.028 Y86.458 E8.42058
G1 X111.578 Y89.289 E8.53620
G1 X113.482 Y92.588 E8.65183
G1 X114.659 Y96.211 E8.76746
G1 X115.058 Y100.000 E8.88308
G1 X114.660 Y103.789 E8.99871
G1 X113.482 Y107.412 E9.11434
G1 X111.577 Y110.711 E9.22996
G1 X109.028 Y113.542 E9.34559
G1 X105.946 Y115.781 E9.46121
G1 X102.943 Y117.119 E9.56099
G1 X102.466 Y117.331 E9.57684
G1 X98.740 Y118.123 E9.69247
G1 X94.930 Y118.123 E9.80809
G1 X91.204 Y117.331 E9.92372
G1 X87.724 Y115.781 E10.03935
G1 X84.642 Y113.542 E10.15497
G1 X82.092 Y110.711 E10.27060
G1 X80.187 Y107.412 E10.38623
G1 X79.010 Y103.789 E10.50185
G1 X78.612 Y100.000 E10.61748
G1 X79.010 Y96.211 E10.73310
G1 X80.188 Y92.588 E10.84873
G1 X82.092 Y89.289 E10.96436
G1 X84.566 Y86.542 E11.07656
G1 X85.150 Y86.670 F18000.000
G1 F1800.000 E10.07656
G92 E0
G1 Z1.050 F18000.000
G1 X85.854 Y87.805
G1 F1800.000 E1.00000
G1 X88.630 Y85.788 F2533.518 E1.10413
G1 X91.764 Y84.393 E1.20825
G1 X95.120 Y83.680 E1.31237
G1 X98.550 Y83.680 E1.41650
G1 X101.906 Y84.393 E1.52062
G1 X105.040 Y85.788 E1.62475
G1 X107.816 Y87.805 E1.72888
G1 X110.111 Y90.354 E1.83300
G1 X111.826 Y93.325 E1.93713
G1 X112.887 Y96.588 E2.04125
G1 X113.245 Y100.000 E2.14537
G1 X112.886 Y103.412 E2.24950
G1 X111.826 Y106.675 E2.35363
G1 X110.111 Y109.646 E2.45775
G1 X107.816 Y112.195 E2.56188
G1 X105.040 Y114.212 E2.66600
G1 X101.906 Y115.607 E2.77013
G1 X98.550 Y116.320 E2.87425
G1 X95.120 Y116.320 E2.97838
G1 X91.764 Y115.607 E3.08250
G1 X88.630 Y114.212 E3.18663
G1 X85.854 Y112.195 E3.29075
G1 X83.559 Y109.646 E3.39488
G1 X81.843 Y106.675 E3.49900
G1 X80.996 Y104.065 E3.58228
G1 X80.852 Y104.065 E3.58663
G1 X80.425 Y100.000 E3.71070
G1 X80.783 Y96.588 E3.81482
G1 X81.843 Y93.325 E3.91895
G1 X83.559 Y90.354 E4.02307
G1 X85.798 Y87.867 E4.12465
G1 X86.232 Y88.224 F18000.000
G1 X88.912 Y86.277 F2533.518 E4.22519
G1 X91.938 Y84.929 E4.32574
G1 X95.179 Y84.241 E4.42628
G1 X98.491 Y84.241 E4.52683
G1 X101.732 Y84.929 E4.62737
G1 X104.758 Y86.277 E4.72792
G1 X107.438 Y88.224 E4.82847
G1 X109.655 Y90.686 E4.92901
G1 X111.311 Y93.555 E5.02956
G1 X112.335 Y96.705 E5.13010
G1 X112.681 Y100.000 E5.23065
G1 X112.335 Y103.295 E5.33120
G1 X111.311 Y106.445 E5.43174
G1 X109.655 Y109.314 E5.53229
G1 X107.438 Y111.776 E5.63283
G1 X104.758 Y113.723 E5.73338
G1 X101.732 Y115.071 E5.83392
G1 X98.491 Y115.759 E5.93447
G1 X95.179 Y115.759 E6.03502
G1 X91.938 Y115.071 E6.13556
G1 X88.912 Y113.723 E6.23611
G1 X86.232 Y111.776 E6.33665
G1 X84.015 Y109.314 E6.43720
G1 X82.359 Y106.445 E6.53775
G1 X81.403 Y103.504 E6.63160
G1 X81.357 Y103.504 E6.63300
G1 X80.989 Y100.000 E6.73994
G1 X81.335 Y96.705 E6.84049
G1 X82.359 Y93.555 E6.94104
G1 X84.015 Y90.686 E7.04158
G1 X86.175 Y88.287 E7.13957
G1 X86.609 Y88.643 F18000.000
G1 X89.194 Y86.765 F2533.518 E7.23654
G1 X92.112 Y85.466 E7.33351
G1 X95.237 Y84.802 E7.43047
G1 X98.432 Y84.802 E7.52744
G1 X101.557 Y85.466 E7.62441
G1 X104.476 Y86.765 E7.72137
G1 X107.061 Y88.643 E7.81834
G1 X109.198 Y91.017 E7.91531
G1 X110.796 Y93.784 E8.01227
G1 X111.783 Y96.823 E8.10924
G1 X112.117 Y100.000 E8.20621
G1 X111.783 Y103.177 E8.30317
G1 X110.796 Y106.216 E8.40014
G1 X109.198 Y108.983 E8.49711
G1 X107.061 Y111.357 E8.59407
G1 X104.476 Y113.235 E8.69104
G1 X101.557 Y114.534 E8.78801
G1 X98.432 Y115.198 E8.88497
G1 X95.237 Y115.198 E8.98194
G1 X92.112 Y114.534 E9.07891
G1 X89.194 Y113.235 E9.17587
G1 X86.609 Y111.357 E9.27284
G1 X84.471 Y108.983 E9.36981
G1 X82.874 Y106.216 E9.46677
G1 X81.887 Y103.177 E9.56374
G1 X81.553 Y100.000 E9.66071
G1 X81.887 Y96.823 E9.75767
G1 X82.874 Y93.784 E9.85464
G1 X84.471 Y91.017 E9.95161
G1 X86.553 Y88.706 E10.04602
G1 X87.136 Y88.835 F18000.000
G1 F1800.000 E9.04602
G92 E0
G1 X85.278 Y87.164 F18000.000
G1 F1800.000 E1.00000
