; generated by Slic3r 0.9.10b on 2013-11-18 at 10:04:05

; layer_height = 0.248
; perimeters = 2
; top_solid_layers = 4
; bottom_solid_layers = 3
; fill_density = 0.2
; perimeter_speed = 35
; infill_speed = 60
; travel_speed = 195
; nozzle_diameter = 0.5
; filament_diameter = 2.85
; extrusion_multiplier = 1
; perimeters extrusion width = 0.84mm
; infill extrusion width = 0.84mm
; solid infill extrusion width = 0.84mm
; top infill extrusion width = 0.84mm

G21 ; set units to millimeters
M107
G28 ; home all axes
M106 S255; 
G90 ; use absolute coordinates
G92 E0
M82 ; use absolute distances for extrusion
G1 F1800.000 E-1.00000
G92 E0
G1 Z0.520 F11700.000
G1 X83.300 Y72.670
G1 F1800.000 E1.00000
G1 X83.870 Y72.100 F1050.000 E1.02201
G1 X84.500 Y71.590 E1.04414
G1 X87.290 Y69.570 E1.13819
G1 X87.950 Y69.140 E1.15970
G1 X88.640 Y68.790 E1.18082
G1 X91.680 Y67.430 E1.27175
G1 X91.980 Y67.300 E1.28068
G1 X92.650 Y67.060 E1.30011
G1 X93.340 Y66.880 E1.31958
G1 X96.710 Y66.170 E1.41361
G1 X97.480 Y66.050 E1.43489
G1 X98.270 Y66.010 E1.45649
G1 X101.720 Y66.010 E1.55069
G1 X102.510 Y66.050 E1.57228
G1 X103.280 Y66.170 E1.59356
G1 X106.650 Y66.880 E1.68759
G1 X107.430 Y67.090 E1.70965
G1 X108.190 Y67.380 E1.73186
G1 X111.340 Y68.790 E1.82609
G1 X112.030 Y69.140 E1.84721
G1 X112.680 Y69.560 E1.86834
G1 X115.480 Y71.580 E1.96261
G1 X116.110 Y72.090 E1.98474
G1 X116.690 Y72.670 E2.00714
G1 X118.990 Y75.240 E2.10131
G1 X119.480 Y75.840 E2.12246
G1 X119.900 Y76.490 E2.14359
G1 X121.630 Y79.470 E2.23767
G1 X122.000 Y80.190 E2.25977
G1 X122.290 Y80.950 E2.28198
G1 X123.350 Y84.230 E2.37610
G1 X123.550 Y84.990 E2.39756
G1 X123.670 Y85.770 E2.41910
G1 X124.030 Y89.200 E2.51327
G1 X124.070 Y89.990 E2.53487
G1 X124.030 Y90.780 E2.55647
G1 X123.670 Y94.220 E2.65090
G1 X123.550 Y95.000 E2.67245
G1 X123.350 Y95.760 E2.69391
G1 X122.290 Y99.040 E2.78802
G1 X122.000 Y99.800 E2.81023
G1 X121.630 Y100.520 E2.83234
G1 X119.900 Y103.500 E2.92642
G1 X119.480 Y104.150 E2.94755
G1 X118.990 Y104.750 E2.96870
G1 X116.690 Y107.320 E3.06287
G1 X116.110 Y107.900 E3.08526
G1 X115.480 Y108.410 E3.10739
G1 X112.680 Y110.430 E3.20166
G1 X111.870 Y110.940 E3.22780
G1 X111.210 Y111.270 E3.24795
G1 X108.170 Y112.620 E3.33876
G1 X107.420 Y112.910 E3.36072
G1 X106.650 Y113.110 E3.38244
G1 X103.280 Y113.820 E3.47647
G1 X102.510 Y113.940 E3.49775
G1 X101.720 Y113.980 E3.51935
G1 X98.270 Y113.980 E3.61355
G1 X97.480 Y113.940 E3.63515
G1 X96.710 Y113.820 E3.65642
G1 X93.340 Y113.110 E3.75046
G1 X92.560 Y112.900 E3.77251
G1 X91.810 Y112.620 E3.79437
G1 X88.650 Y111.210 E3.88885
G1 X87.950 Y110.850 E3.91034
G1 X87.290 Y110.420 E3.93185
G1 X84.500 Y108.400 E4.02590
G1 X83.870 Y107.890 E4.04803
G1 X83.300 Y107.320 E4.07004
G1 X81.000 Y104.750 E4.16420
G1 X80.510 Y104.150 E4.18536
G1 X80.090 Y103.500 E4.20649
G1 X78.360 Y100.520 E4.30057
G1 X77.990 Y99.800 E4.32267
G1 X77.700 Y99.040 E4.34488
G1 X76.640 Y95.760 E4.43900
G1 X76.440 Y95.000 E4.46045
G1 X76.320 Y94.220 E4.48200
G1 X75.960 Y90.780 E4.57644
G1 X75.920 Y89.990 E4.59804
G1 X75.960 Y89.200 E4.61963
G1 X76.320 Y85.770 E4.71380
G1 X76.440 Y84.990 E4.73535
G1 X76.640 Y84.230 E4.75680
G1 X77.700 Y80.950 E4.85092
G1 X77.990 Y80.190 E4.87313
G1 X78.360 Y79.470 E4.89523
G1 X80.090 Y76.490 E4.98932
G1 X80.510 Y75.840 E5.01045
G1 X81.000 Y75.240 E5.03160
G1 X83.221 Y72.759 E5.12252
G1 X83.890 Y73.200 F11700.000
G1 X84.400 Y72.690 F1050.000 E5.14221
G1 X84.970 Y72.230 E5.16221
G1 X87.760 Y70.210 E5.25626
G1 X88.340 Y69.830 E5.27519
G1 X88.970 Y69.510 E5.29449
G1 X92.010 Y68.150 E5.38542
G1 X92.890 Y67.810 E5.41118
G1 X93.500 Y67.650 E5.42839
G1 X96.870 Y66.940 E5.52243
G1 X97.570 Y66.830 E5.54177
G1 X98.270 Y66.800 E5.56090
G1 X101.720 Y66.800 E5.65510
G1 X102.420 Y66.830 E5.67423
G1 X103.120 Y66.940 E5.69358
G1 X106.490 Y67.650 E5.78761
G1 X107.190 Y67.840 E5.80742
G1 X107.860 Y68.100 E5.82704
G1 X111.010 Y69.510 E5.92127
G1 X111.630 Y69.830 E5.94032
G1 X112.210 Y70.200 E5.95910
G1 X115.010 Y72.220 E6.05337
G1 X115.580 Y72.680 E6.07337
G1 X116.100 Y73.200 E6.09345
G1 X118.400 Y75.770 E6.18762
G1 X118.840 Y76.310 E6.20664
G1 X119.210 Y76.890 E6.22542
G1 X120.940 Y79.870 E6.31950
G1 X121.270 Y80.520 E6.33941
G1 X121.530 Y81.190 E6.35903
G1 X122.590 Y84.470 E6.45315
G1 X122.770 Y85.150 E6.47235
G1 X122.880 Y85.850 E6.49170
G1 X123.240 Y89.280 E6.58586
G1 X123.280 Y89.990 E6.60528
G1 X123.240 Y90.700 E6.62470
G1 X122.880 Y94.140 E6.71913
G1 X122.770 Y94.840 E6.73848
G1 X122.590 Y95.520 E6.75769
G1 X121.530 Y98.800 E6.85180
G1 X121.270 Y99.470 E6.87143
G1 X120.940 Y100.120 E6.89133
G1 X119.210 Y103.100 E6.98541
G1 X118.840 Y103.680 E7.00420
G1 X118.400 Y104.220 E7.02322
G1 X116.100 Y106.790 E7.11738
G1 X115.580 Y107.310 E7.13746
G1 X115.010 Y107.770 E7.15746
G1 X112.210 Y109.790 E7.25173
G1 X111.490 Y110.240 E7.27491
G1 X110.890 Y110.550 E7.29335
G1 X107.850 Y111.900 E7.38417
G1 X107.180 Y112.150 E7.40370
G1 X106.490 Y112.340 E7.42324
G1 X103.120 Y113.050 E7.51727
G1 X102.420 Y113.160 E7.53662
G1 X101.720 Y113.190 E7.55575
G1 X98.270 Y113.190 E7.64995
G1 X97.570 Y113.160 E7.66908
G1 X96.870 Y113.050 E7.68842
G1 X93.500 Y112.340 E7.78246
G1 X92.800 Y112.150 E7.80226
G1 X92.130 Y111.890 E7.82188
G1 X88.970 Y110.480 E7.91636
G1 X88.350 Y110.160 E7.93541
G1 X87.760 Y109.780 E7.95457
G1 X84.970 Y107.760 E8.04862
G1 X84.400 Y107.300 E8.06862
G1 X83.890 Y106.790 E8.08831
G1 X81.590 Y104.220 E8.18248
G1 X81.150 Y103.680 E8.20150
G1 X80.780 Y103.100 E8.22028
G1 X79.050 Y100.120 E8.31436
G1 X78.720 Y99.470 E8.33427
G1 X78.460 Y98.800 E8.35389
G1 X77.400 Y95.520 E8.44801
G1 X77.220 Y94.840 E8.46721
G1 X77.110 Y94.140 E8.48656
G1 X76.750 Y90.700 E8.58100
G1 X76.710 Y89.990 E8.60041
G1 X76.750 Y89.280 E8.61983
G1 X77.110 Y85.850 E8.71400
G1 X77.220 Y85.150 E8.73334
G1 X77.400 Y84.470 E8.75255
G1 X78.460 Y81.190 E8.84667
G1 X78.720 Y80.520 E8.86629
G1 X79.050 Y79.870 E8.88619
G1 X80.780 Y76.890 E8.98027
G1 X81.150 Y76.310 E8.99906
G1 X81.590 Y75.770 E9.01808
G1 X83.811 Y73.289 E9.10900
G1 F1800.000 E8.10900
G92 E0
G1 X90.837 Y79.823 F11700.000
G1 F1800.000 E1.00000
G1 X93.153 Y78.141 F1050.000 E1.07816
G1 X95.768 Y76.976 E1.15633
G1 X98.569 Y76.381 E1.23450
G1 X101.431 Y76.381 E1.31266
G1 X104.232 Y76.976 E1.39083
G1 X106.847 Y78.141 E1.46900
G1 X109.163 Y79.823 E1.54716
G1 X110.987 Y81.849 E1.62158
G1 X111.079 Y81.951 E1.62533
G1 X112.510 Y84.430 E1.70350
G1 X113.395 Y87.153 E1.78166
G1 X113.694 Y90.000 E1.85983
G1 X113.395 Y92.847 E1.93799
G1 X112.510 Y95.570 E2.01616
G1 X111.079 Y98.049 E2.09433
G1 X109.163 Y100.177 E2.17249
G1 X106.847 Y101.859 E2.25066
G1 X104.232 Y103.024 E2.32883
G1 X101.431 Y103.619 E2.40699
G1 X98.569 Y103.619 E2.48516
G1 X95.768 Y103.024 E2.56333
G1 X93.153 Y101.859 E2.64149
G1 X90.837 Y100.177 E2.71966
G1 X88.921 Y98.049 E2.79783
G1 X87.490 Y95.570 E2.87599
G1 X86.605 Y92.847 E2.95416
G1 X86.306 Y90.000 E3.03232
G1 X86.605 Y87.153 E3.11049
G1 X87.490 Y84.430 E3.18866
G1 X88.921 Y81.951 E3.26682
G1 X90.757 Y79.911 E3.34175
G1 X91.333 Y80.455 F11700.000
G1 X93.551 Y78.830 F1050.000 E3.41682
G1 X96.014 Y77.733 E3.49044
G1 X98.652 Y77.173 E3.56406
G1 X101.348 Y77.173 E3.63768
G1 X103.986 Y77.733 E3.71131
G1 X106.449 Y78.830 E3.78493
G1 X108.630 Y80.415 E3.85855
G1 X110.435 Y82.419 E3.93217
G1 X111.783 Y84.754 E4.00579
G1 X112.616 Y87.318 E4.07942
G1 X112.898 Y90.000 E4.15304
G1 X112.616 Y92.682 E4.22666
G1 X111.783 Y95.246 E4.30028
G1 X110.435 Y97.581 E4.37391
G1 X108.630 Y99.585 E4.44753
G1 X106.449 Y101.170 E4.52115
G1 X103.986 Y102.267 E4.59477
G1 X101.348 Y102.827 E4.66839
G1 X98.652 Y102.827 E4.74202
G1 X96.014 Y102.267 E4.81564
G1 X93.551 Y101.170 E4.88926
G1 X91.370 Y99.585 E4.96288
G1 X89.565 Y97.581 E5.03651
G1 X88.217 Y95.246 E5.11013
G1 X87.384 Y92.682 E5.18375
G1 X87.102 Y90.000 E5.25737
G1 X87.384 Y87.318 E5.33100
G1 X88.217 Y84.754 E5.40462
G1 X89.565 Y82.419 E5.47824
G1 X91.254 Y80.543 E5.54714
G1 X92.078 Y80.724 F11700.000
G1 F1800.000 E4.54714
G92 E0
G1 X89.758 Y78.626 F11700.000
G1 F1800.000 E1.00000
G1 X92.347 Y76.745 F1050.000 E1.08737
G1 X95.270 Y75.443 E1.17473
G1 X98.400 Y74.778 E1.26210
G1 X101.600 Y74.778 E1.34947
G1 X104.730 Y75.443 E1.43683
G1 X107.653 Y76.745 E1.52420
G1 X110.242 Y78.626 E1.61156
G1 X112.383 Y81.003 E1.69893
G1 X113.983 Y83.775 E1.78630
G1 X114.971 Y86.818 E1.87366
G1 X115.306 Y90.000 E1.96103
G1 X114.971 Y93.182 E2.04840
G1 X113.983 Y96.225 E2.13576
G1 X112.383 Y98.997 E2.22313
G1 X110.242 Y101.374 E2.31049
G1 X107.653 Y103.255 E2.39786
G1 X104.730 Y104.557 E2.48523
G1 X101.600 Y105.222 E2.57259
G1 X98.400 Y105.222 E2.65996
G1 X95.270 Y104.557 E2.74732
G1 X92.347 Y103.255 E2.83469
G1 X89.758 Y101.374 E2.92206
G1 X87.617 Y98.997 E3.00942
G1 X86.017 Y96.225 E3.09679
G1 X85.029 Y93.182 E3.18416
G1 X84.694 Y90.000 E3.27152
G1 X85.029 Y86.818 E3.35889
G1 X86.017 Y83.775 E3.44625
G1 X87.617 Y81.003 E3.53362
G1 X89.679 Y78.714 E3.61774
G1 X89.169 Y78.097 F11700.000
G1 X89.226 Y78.034 F1050.000 E3.62006
G1 X91.949 Y76.055 E3.71197
G1 X95.024 Y74.686 E3.80388
G1 X98.317 Y73.986 E3.89579
G1 X101.683 Y73.986 E3.98770
G1 X104.976 Y74.686 E4.07961
G1 X108.051 Y76.055 E4.17152
G1 X110.774 Y78.034 E4.26343
G1 X113.027 Y80.536 E4.35534
G1 X114.710 Y83.451 E4.44725
G1 X115.750 Y86.652 E4.53916
G1 X116.102 Y90.000 E4.63107
G1 X115.750 Y93.348 E4.72299
G1 X114.710 Y96.549 E4.81490
G1 X113.027 Y99.464 E4.90681
G1 X110.774 Y101.966 E4.99872
G1 X108.051 Y103.945 E5.09063
G1 X104.976 Y105.314 E5.18254
G1 X101.683 Y106.014 E5.27445
G1 X98.317 Y106.014 E5.36636
G1 X95.024 Y105.314 E5.45827
G1 X91.949 Y103.945 E5.55018
G1 X89.226 Y101.966 E5.64209
G1 X86.973 Y99.464 E5.73400
G1 X85.290 Y96.549 E5.82591
G1 X84.250 Y93.348 E5.91782
G1 X83.898 Y90.000 E6.00973
G1 X84.250 Y86.652 E6.10164
G1 X85.290 Y83.451 E6.19355
G1 X86.973 Y80.536 E6.28546
G1 X89.089 Y78.185 E6.37181
G1 X89.252 Y78.115 F11700.000
G1 F1800.000 E5.37181
G92 E0
G1 X90.963 Y101.551 F11700.000
G1 F1800.000 E1.00000
G1 X88.100 Y98.689 F600.000 E1.05220
G1 X89.715 Y99.775 F11700.000
G1 X87.358 Y97.418 F600.000 E1.09520
G1 X87.929 Y97.460 F11700.000
G1 X86.635 Y96.166 F600.000 E1.11879
G1 X87.206 Y96.208 E1.12617
G1 X86.317 Y95.319 E1.14240
G1 X86.799 Y95.273 E1.14865
G1 X86.062 Y94.535 E1.16210
G1 X86.545 Y94.489 E1.16835
G1 X85.808 Y93.752 E1.18180
G1 X86.290 Y93.706 E1.18806
G1 X85.576 Y92.992 E1.20108
G1 X86.046 Y92.933 E1.20718
G1 X85.514 Y92.401 E1.21688
G1 X85.984 Y92.342 E1.22299
G1 X85.452 Y91.810 E1.23269
G1 X85.922 Y91.751 E1.23880
G1 X85.390 Y91.219 E1.24850
G1 X85.860 Y91.160 E1.25461
G1 X85.328 Y90.628 E1.26431
G1 X85.798 Y90.569 E1.27041
G1 X85.266 Y90.037 E1.28012
G1 X85.740 Y89.982 E1.28627
G1 X85.309 Y89.551 E1.29412
G1 X85.359 Y89.073 E1.30033
G1 X85.790 Y89.503 E1.30819
G1 X85.840 Y89.025 E1.31439
G1 X85.410 Y88.594 E1.32225
G1 X85.460 Y88.116 E1.32845
G1 X85.891 Y88.546 E1.33631
G1 X85.941 Y88.068 E1.34252
G1 X85.510 Y87.637 E1.35037
G1 X85.561 Y87.158 E1.35658
G1 X85.991 Y87.589 E1.36443
G1 X86.042 Y87.111 E1.37064
G1 X85.653 Y86.722 E1.37772
G1 X85.783 Y86.323 E1.38314
G1 X86.159 Y86.699 E1.38999
G1 X86.289 Y86.300 E1.39540
G1 X85.913 Y85.924 E1.40225
G1 X86.043 Y85.525 E1.40767
G1 X86.418 Y85.900 E1.41452
G1 X86.548 Y85.501 E1.41993
G1 X86.172 Y85.126 E1.42678
G1 X86.302 Y84.726 E1.43220
G1 X86.678 Y85.102 E1.43905
G1 X86.807 Y84.703 E1.44446
G1 X86.432 Y84.327 E1.45131
G1 X86.574 Y83.940 E1.45663
G1 X86.937 Y84.304 E1.46325
G1 X87.114 Y83.952 E1.46834
G1 X86.767 Y83.605 E1.47466
G1 X86.961 Y83.270 E1.47965
G1 X87.307 Y83.616 E1.48597
G1 X87.501 Y83.281 E1.49096
G1 X87.154 Y82.935 E1.49728
G1 X87.348 Y82.599 E1.50228
G1 X87.695 Y82.946 E1.50860
G1 X87.888 Y82.611 E1.51359
G1 X87.542 Y82.264 E1.51991
G1 X87.735 Y81.929 E1.52491
G1 X88.082 Y82.275 E1.53123
G1 X88.275 Y81.940 E1.53622
G1 X87.929 Y81.593 E1.54254
G1 X88.136 Y81.272 E1.54748
G1 X88.471 Y81.607 E1.55359
G1 X88.722 Y81.328 E1.55842
G1 X88.386 Y80.993 E1.56453
G1 X88.637 Y80.715 E1.56936
G1 X88.972 Y81.050 E1.57548
G1 X89.223 Y80.772 E1.58031
G1 X88.888 Y80.437 E1.58642
G1 X89.138 Y80.158 E1.59125
G1 X89.473 Y80.494 E1.59736
G1 X89.724 Y80.215 E1.60219
G1 X89.389 Y79.880 E1.60831
G1 X89.639 Y79.602 E1.61314
G1 X89.975 Y79.937 E1.61925
G1 X90.225 Y79.659 E1.62408
G1 X89.890 Y79.323 E1.63019
G1 X90.141 Y79.046 E1.63502
G1 X90.480 Y79.385 E1.64121
G1 X90.786 Y79.162 E1.64609
G1 X90.447 Y78.823 E1.65227
G1 X90.754 Y78.601 E1.65715
G1 X91.092 Y78.939 E1.66334
G1 X91.399 Y78.717 E1.66822
G1 X91.060 Y78.378 E1.67440
G1 X91.366 Y78.155 E1.67928
G1 X91.705 Y78.494 E1.68546
G1 X92.011 Y78.272 E1.69035
G1 X91.673 Y77.933 E1.69653
G1 X91.979 Y77.710 E1.70141
G1 X92.318 Y78.049 E1.70759
G1 X92.624 Y77.827 E1.71248
G1 X92.285 Y77.488 E1.71866
G1 X92.592 Y77.265 E1.72354
G1 X92.942 Y77.616 E1.72994
G1 X93.308 Y77.453 E1.73511
G1 X92.950 Y77.095 E1.74165
G1 X93.316 Y76.932 E1.74681
G1 X93.674 Y77.290 E1.75335
G1 X94.040 Y77.127 E1.75852
G1 X93.682 Y76.769 E1.76506
G1 X94.048 Y76.606 E1.77022
G1 X94.406 Y76.964 E1.77676
G1 X94.772 Y76.801 E1.78193
G1 X94.414 Y76.443 E1.78847
G1 X94.780 Y76.280 E1.79363
G1 X95.138 Y76.638 E1.80017
G1 X95.504 Y76.476 E1.80534
G1 X95.145 Y76.117 E1.81188
G1 X95.524 Y75.967 E1.81713
G1 X95.923 Y76.366 E1.82441
G1 X96.359 Y76.273 E1.83016
G1 X95.960 Y75.874 E1.83744
G1 X96.396 Y75.781 E1.84319
G1 X96.796 Y76.180 E1.85047
G1 X97.232 Y76.088 E1.85622
G1 X96.833 Y75.689 E1.86350
G1 X97.269 Y75.596 E1.86925
G1 X97.668 Y75.995 E1.87653
G1 X98.104 Y75.902 E1.88228
G1 X97.705 Y75.503 E1.88956
G1 X98.141 Y75.410 E1.89531
G1 X98.547 Y75.816 E1.90271
G1 X98.602 Y75.343 E1.90886
G1 X99.076 Y75.816 E1.91750
G1 X99.131 Y75.343 E1.92364
G1 X99.605 Y75.816 E1.93228
G1 X99.660 Y75.343 E1.93842
G1 X100.133 Y75.816 E1.94706
G1 X100.189 Y75.343 E1.95320
G1 X100.662 Y75.816 E1.96184
G1 X100.718 Y75.343 E1.96799
G1 X101.191 Y75.816 E1.97662
G1 X101.247 Y75.343 E1.98277
G1 X101.782 Y75.878 E1.99253
G1 X101.839 Y75.406 E1.99866
G1 X102.454 Y76.021 E2.00987
G1 X102.511 Y75.549 E2.01600
G1 X103.125 Y76.164 E2.02721
G1 X103.182 Y75.692 E2.03334
G1 X103.797 Y76.306 E2.04455
G1 X103.854 Y75.834 E2.05068
G1 X104.494 Y76.475 E2.06235
G1 X104.526 Y75.977 E2.06878
G1 X105.447 Y76.899 E2.08560
G1 X105.467 Y76.390 E2.09217
G1 X106.401 Y77.324 E2.10921
G1 X106.420 Y76.814 E2.11579
G1 X107.584 Y77.978 E2.13701
G1 X107.378 Y77.243 E2.14685
G1 X109.518 Y79.383 E2.18587
G1 X109.606 Y79.471 F11700.000
G1 X112.540 Y82.405 F600.000 E2.23938
G1 X111.969 Y82.363 E2.24676
G1 X113.262 Y83.656 E2.27035
G1 X112.691 Y83.614 E2.27773
G1 X113.647 Y84.570 E2.29517
G1 X113.164 Y84.616 E2.30143
G1 X113.902 Y85.353 E2.31487
G1 X113.419 Y85.400 E2.32113
G1 X114.156 Y86.137 E2.33458
G1 X113.674 Y86.183 E2.34083
G1 X114.411 Y86.920 E2.35428
G1 X113.928 Y86.966 E2.36053
G1 X114.477 Y87.515 E2.37054
G1 X114.007 Y87.574 E2.37665
G1 X114.539 Y88.106 E2.38635
G1 X114.069 Y88.165 E2.39246
G1 X114.601 Y88.697 E2.40216
G1 X114.131 Y88.756 E2.40826
G1 X114.663 Y89.288 E2.41797
G1 X114.193 Y89.347 E2.42407
G1 X114.725 Y89.879 E2.43377
G1 X114.256 Y89.938 E2.43988
G1 X114.698 Y90.381 E2.44795
G1 X114.648 Y90.859 E2.45416
G1 X114.217 Y90.429 E2.46201
G1 X114.167 Y90.907 E2.46822
G1 X114.597 Y91.338 E2.47607
G1 X114.547 Y91.816 E2.48228
G1 X114.116 Y91.386 E2.49014
G1 X114.066 Y91.864 E2.49634
G1 X114.497 Y92.295 E2.50420
G1 X114.446 Y92.774 E2.51040
G1 X114.016 Y92.343 E2.51826
G1 X113.965 Y92.821 E2.52447
G1 X114.365 Y93.221 E2.53175
G1 X114.235 Y93.620 E2.53717
G1 X113.860 Y93.244 E2.54402
G1 X113.730 Y93.644 E2.54943
G1 X114.106 Y94.019 E2.55628
G1 X113.976 Y94.419 E2.56170
G1 X113.600 Y94.043 E2.56855
G1 X113.470 Y94.442 E2.57396
G1 X113.846 Y94.818 E2.58081
G1 X113.716 Y95.217 E2.58623
G1 X113.341 Y94.841 E2.59308
G1 X113.211 Y95.240 E2.59849
G1 X113.587 Y95.616 E2.60534
G1 X113.454 Y96.012 E2.61073
G1 X113.081 Y95.640 E2.61752
G1 X112.914 Y96.001 E2.62266
G1 X113.260 Y96.347 E2.62898
G1 X113.067 Y96.683 E2.63397
G1 X112.720 Y96.336 E2.64029
G1 X112.526 Y96.671 E2.64528
G1 X112.873 Y97.018 E2.65160
G1 X112.679 Y97.353 E2.65660
G1 X112.333 Y97.007 E2.66292
G1 X112.139 Y97.342 E2.66791
