; generated by Slic3r 0.9.10b on 2013-12-15 at 11:57:34

; layer_height = 0.25
; perimeters = 3
; top_solid_layers = 3
; bottom_solid_layers = 3
; fill_density = 0.2
; perimeter_speed = 30
; infill_speed = 60
; travel_speed = 200
; nozzle_diameter = 0.35
; filament_diameter = 2.85
; extrusion_multiplier = 1
; perimeters extrusion width = 0.39mm
; infill extrusion width = 0.39mm
; solid infill extrusion width = 0.39mm
; top infill extrusion width = 0.39mm

G21 ; set units to millimeters
M190 S60 ; wait for bed temperature to be reached
M104 S190 ; set temperature
G28 ; home all axes
M106 S255; 
M109 S190 ; wait for temperature to be reached
G90 ; use absolute coordinates
G92 E0
M82 ; use absolute distances for extrusion
G1 F1800.000 E-1.00000
G92 E0
G1 Z0.250 F12000.000
G1 X51.810 Y63.697
G1 F1800.000 E1.00000
G1 X52.390 Y63.227 F900.000 E1.01126
G1 X58.300 Y58.927 E1.12149
G1 X58.930 Y58.517 E1.13282
G1 X59.600 Y58.177 E1.14415
G1 X66.280 Y55.207 E1.25441
G1 X66.980 Y54.947 E1.26567
G1 X67.700 Y54.747 E1.27694
G1 X74.850 Y53.227 E1.38718
G1 X75.590 Y53.107 E1.39849
G1 X76.340 Y53.077 E1.40981
G1 X83.650 Y53.077 E1.52005
G1 X84.400 Y53.107 E1.53138
G1 X85.130 Y53.227 E1.54253
G1 X92.300 Y54.747 E1.65307
G1 X93.030 Y54.947 E1.66449
G1 X93.730 Y55.217 E1.67580
G1 X100.530 Y58.247 E1.78808
G1 X154.960 Y83.906 E2.69561
G1 X155.880 Y84.427 E2.71155
G1 X157.500 Y85.507 E2.74091
G1 X158.600 Y86.406 E2.76235
G1 X159.490 Y87.507 E2.78369
G1 X160.570 Y89.137 E2.81318
G1 X161.230 Y90.357 E2.83410
G1 X161.630 Y91.686 E2.85504
G1 X162.010 Y93.597 E2.88441
G1 X162.140 Y94.996 E2.90562
G1 X162.010 Y96.397 E2.92682
G1 X161.630 Y98.306 E2.95619
G1 X161.220 Y99.637 E2.97718
G1 X160.560 Y100.876 E2.99837
G1 X159.480 Y102.496 E3.02773
G1 X158.600 Y103.577 E3.04874
G1 X157.520 Y104.466 E3.06985
G1 X155.900 Y105.556 E3.09930
G1 X154.960 Y106.087 E3.11557
G1 X100.390 Y131.816 E4.02547
G1 X93.710 Y134.786 E4.13572
G1 X93.010 Y135.047 E4.14698
G1 X92.290 Y135.246 E4.15825
G1 X85.140 Y136.767 E4.26850
G1 X84.400 Y136.887 E4.27980
G1 X83.650 Y136.917 E4.29112
G1 X76.340 Y136.917 E4.40137
G1 X75.590 Y136.887 E4.41269
G1 X74.850 Y136.767 E4.42400
G1 X67.700 Y135.246 E4.53424
G1 X66.980 Y135.047 E4.54551
G1 X66.280 Y134.786 E4.55677
G1 X59.600 Y131.816 E4.66702
G1 X58.930 Y131.476 E4.67836
G1 X58.300 Y131.066 E4.68969
G1 X52.390 Y126.767 E4.79992
G1 X51.810 Y126.297 E4.81118
G1 X51.280 Y125.767 E4.82248
G1 X46.390 Y120.337 E4.93269
G1 X45.920 Y119.756 E4.94395
G1 X45.520 Y119.126 E4.95520
G1 X41.860 Y112.797 E5.06548
G1 X41.510 Y112.126 E5.07688
G1 X41.240 Y111.416 E5.08833
G1 X38.990 Y104.466 E5.19851
G1 X38.800 Y103.757 E5.20959
G1 X38.690 Y103.017 E5.22087
G1 X37.920 Y95.746 E5.33113
G1 X37.880 Y94.996 E5.34246
G1 X37.920 Y94.246 E5.35379
G1 X38.690 Y86.977 E5.46404
G1 X38.800 Y86.237 E5.47532
G1 X38.990 Y85.526 E5.48641
G1 X41.240 Y78.577 E5.59658
G1 X41.510 Y77.867 E5.60804
G1 X41.860 Y77.197 E5.61944
G1 X45.520 Y70.867 E5.72971
G1 X45.920 Y70.237 E5.74097
G1 X46.390 Y69.657 E5.75223
G1 X51.280 Y64.227 E5.86243
G1 X51.769 Y63.737 E5.87287
G1 X52.070 Y63.987 F12000.000
G1 X52.620 Y63.547 F900.000 E5.88349
G1 X58.530 Y59.247 E5.99372
G1 X59.120 Y58.857 E6.00438
G1 X59.760 Y58.527 E6.01524
G1 X66.440 Y55.557 E6.12550
G1 X67.100 Y55.307 E6.13614
G1 X67.780 Y55.127 E6.14675
G1 X74.930 Y53.607 E6.25699
G1 X75.630 Y53.497 E6.26768
G1 X76.340 Y53.457 E6.27840
G1 X83.650 Y53.457 E6.38865
G1 X84.360 Y53.497 E6.39938
G1 X85.050 Y53.607 E6.40991
G1 X92.220 Y55.127 E6.52045
G1 X92.910 Y55.307 E6.53121
G1 X93.580 Y55.567 E6.54204
G1 X100.370 Y58.597 E6.65418
G1 X154.800 Y84.257 E7.56172
G1 X155.670 Y84.746 E7.57678
G1 X157.290 Y85.827 E7.60614
G1 X158.320 Y86.677 E7.62628
G1 X159.170 Y87.716 E7.64654
G1 X160.250 Y89.347 E7.67603
G1 X160.870 Y90.507 E7.69587
G1 X161.250 Y91.767 E7.71571
G1 X161.630 Y93.677 E7.74508
G1 X161.760 Y94.996 E7.76509
G1 X161.630 Y96.317 E7.78509
G1 X161.250 Y98.227 E7.81446
G1 X160.870 Y99.496 E7.83445
G1 X160.240 Y100.666 E7.85450
G1 X159.160 Y102.287 E7.88386
G1 X158.330 Y103.306 E7.90369
G1 X157.310 Y104.147 E7.92362
G1 X155.690 Y105.237 E7.95307
G1 X154.800 Y105.737 E7.96846
G1 X100.230 Y131.466 E8.87836
G1 X93.550 Y134.436 E8.98861
G1 X92.890 Y134.686 E8.99926
G1 X92.210 Y134.867 E9.00987
G1 X85.060 Y136.387 E9.12011
G1 X84.360 Y136.496 E9.13080
G1 X83.650 Y136.536 E9.14152
G1 X76.340 Y136.536 E9.25177
G1 X75.630 Y136.496 E9.26249
G1 X74.930 Y136.387 E9.27318
G1 X67.780 Y134.867 E9.38342
G1 X67.100 Y134.686 E9.39403
G1 X66.440 Y134.436 E9.40467
G1 X59.760 Y131.466 E9.51493
G1 X59.120 Y131.137 E9.52579
G1 X58.530 Y130.746 E9.53645
G1 X52.620 Y126.447 E9.64668
G1 X52.070 Y126.006 E9.65730
G1 X51.570 Y125.506 E9.66797
G1 X46.680 Y120.077 E9.77817
G1 X46.230 Y119.526 E9.78889
G1 X45.850 Y118.936 E9.79948
G1 X42.190 Y112.607 E9.90975
G1 X41.860 Y111.966 E9.92061
G1 X41.610 Y111.306 E9.93126
G1 X39.360 Y104.357 E10.04143
G1 X39.180 Y103.677 E10.05204
G1 X39.070 Y102.977 E10.06272
G1 X38.300 Y95.707 E10.17298
G1 X38.260 Y94.996 E10.18370
G1 X38.300 Y94.287 E10.19443
G1 X39.070 Y87.017 E10.30469
G1 X39.180 Y86.317 E10.31537
G1 X39.360 Y85.637 E10.32598
G1 X41.610 Y78.686 E10.43615
G1 X41.860 Y78.026 E10.44680
G1 X42.190 Y77.386 E10.45766
G1 X45.850 Y71.056 E10.56793
G1 X46.230 Y70.466 E10.57852
G1 X46.680 Y69.916 E10.58923
G1 X51.570 Y64.487 E10.69944
G1 X52.029 Y64.027 E10.70923
G1 X52.330 Y64.276 F12000.000
G1 X52.840 Y63.857 F900.000 E10.71920
G1 X58.750 Y59.556 E10.82943
G1 X59.320 Y59.187 E10.83968
G1 X59.920 Y58.887 E10.84979
G1 X66.600 Y55.917 E10.96005
G1 X67.220 Y55.677 E10.97007
G1 X67.860 Y55.497 E10.98010
G1 X75.010 Y53.977 E11.09034
G1 X75.670 Y53.877 E11.10041
G1 X76.340 Y53.847 E11.11052
G1 X83.650 Y53.847 E11.22077
G1 X84.320 Y53.877 E11.23089
G1 X84.970 Y53.977 E11.24080
G1 X92.140 Y55.497 E11.35134
G1 X92.790 Y55.677 E11.36151
G1 X93.420 Y55.917 E11.37168
G1 X100.200 Y58.937 E11.48362
G1 X154.630 Y84.597 E12.39116
G1 X155.450 Y85.067 E12.40541
G1 X157.070 Y86.147 E12.43477
G1 X158.050 Y86.947 E12.45385
G1 X158.850 Y87.927 E12.47293
G1 X159.930 Y89.556 E12.50242
G1 X160.510 Y90.656 E12.52118
G1 X160.870 Y91.837 E12.53978
G1 X161.250 Y93.746 E12.56915
G1 X161.370 Y94.996 E12.58809
G1 X161.250 Y96.246 E12.60703
G1 X160.870 Y98.156 E12.63640
G1 X160.510 Y99.346 E12.65515
G1 X159.920 Y100.447 E12.67398
G1 X158.840 Y102.067 E12.70334
G1 X158.050 Y103.037 E12.72221
G1 X157.090 Y103.827 E12.74096
G1 X155.470 Y104.916 E12.77041
G1 X154.630 Y105.397 E12.78500
G1 X100.200 Y131.056 E13.69253
G1 X93.390 Y134.077 E13.80488
G1 X92.770 Y134.316 E13.81491
G1 X92.130 Y134.496 E13.82494
G1 X84.980 Y136.017 E13.93518
G1 X84.320 Y136.117 E13.94525
G1 X83.650 Y136.147 E13.95536
G1 X76.340 Y136.147 E14.06561
G1 X75.670 Y136.117 E14.07572
G1 X75.010 Y136.017 E14.08579
G1 X67.860 Y134.496 E14.19603
G1 X67.220 Y134.316 E14.20606
G1 X66.600 Y134.077 E14.21609
G1 X59.920 Y131.107 E14.32634
G1 X59.320 Y130.806 E14.33646
G1 X58.750 Y130.436 E14.34671
G1 X52.840 Y126.137 E14.45693
G1 X52.330 Y125.716 E14.46690
G1 X51.860 Y125.246 E14.47692
G1 X46.970 Y119.816 E14.58713
G1 X46.550 Y119.297 E14.59721
G1 X46.180 Y118.746 E14.60721
G1 X42.520 Y112.416 E14.71748
G1 X42.220 Y111.817 E14.72760
G1 X41.980 Y111.186 E14.73777
G1 X39.730 Y104.237 E14.84794
G1 X39.550 Y103.596 E14.85797
G1 X39.450 Y102.936 E14.86803
G1 X38.680 Y95.666 E14.97829
G1 X38.650 Y94.996 E14.98841
G1 X38.680 Y94.327 E14.99852
G1 X39.450 Y87.056 E15.10878
G1 X39.550 Y86.397 E15.11884
G1 X39.730 Y85.757 E15.12887
G1 X41.980 Y78.806 E15.23904
G1 X42.220 Y78.177 E15.24921
G1 X42.520 Y77.577 E15.25933
G1 X46.180 Y71.246 E15.36960
G1 X46.550 Y70.697 E15.37960
G1 X46.970 Y70.177 E15.38968
G1 X51.860 Y64.746 E15.49989
G1 X52.289 Y64.317 E15.50904
G1 F1800.000 E14.50904
G92 E0
G1 X77.236 Y93.669 F12000.000
G1 F1800.000 E1.00000
G1 X79.317 Y92.009 F900.000 E1.04015
G1 X81.913 Y92.601 E1.08030
G1 X83.068 Y95.000 E1.12045
G1 X81.913 Y97.399 E1.16060
G1 X79.317 Y97.991 E1.20075
G1 X77.236 Y96.331 E1.24090
G1 X77.236 Y93.727 E1.28018
G1 X77.621 Y93.854 F12000.000
G1 X79.412 Y92.425 F900.000 E1.31474
G1 X81.646 Y92.935 E1.34930
G1 X82.641 Y95.000 E1.38386
G1 X81.646 Y97.065 E1.41842
G1 X79.412 Y97.575 E1.45298
G1 X77.621 Y96.146 E1.48754
G1 X77.621 Y93.912 E1.52123
G1 X78.006 Y94.040 F12000.000
G1 X79.507 Y92.842 F900.000 E1.55020
G1 X81.380 Y93.269 E1.57917
G1 X82.214 Y95.000 E1.60814
G1 X81.380 Y96.731 E1.63711
G1 X79.507 Y97.158 E1.66608
G1 X78.006 Y95.960 E1.69505
G1 X78.006 Y94.097 E1.72315
G1 X78.389 Y94.068 F12000.000
G1 F1800.000 E0.72315
G92 E0
G1 X52.497 Y75.018 F12000.000
G1 F1800.000 E1.00000
G1 X57.252 Y69.736 F900.000 E1.10719
G1 X63.002 Y65.559 E1.21437
G1 X69.495 Y62.668 E1.32156
G1 X76.446 Y61.190 E1.42874
G1 X83.554 Y61.190 E1.53593
G1 X90.505 Y62.668 E1.64311
G1 X96.998 Y65.559 E1.75030
G1 X102.748 Y69.736 E1.85749
G1 X107.503 Y75.018 E1.96467
G1 X111.057 Y81.173 E2.07186
G1 X113.253 Y87.932 E2.17904
G1 X113.996 Y95.000 E2.28623
G1 X113.253 Y102.068 E2.39341
G1 X111.057 Y108.827 E2.50060
G1 X107.503 Y114.982 E2.60779
G1 X102.748 Y120.264 E2.71497
G1 X96.998 Y124.441 E2.82216
G1 X90.505 Y127.332 E2.92934
G1 X83.554 Y128.810 E3.03653
G1 X76.446 Y128.810 E3.14371
G1 X69.495 Y127.332 E3.25090
G1 X63.002 Y124.441 E3.35808
G1 X57.252 Y120.264 E3.46527
G1 X52.497 Y114.982 E3.57246
G1 X48.943 Y108.827 E3.67964
G1 X46.747 Y102.068 E3.78683
G1 X46.004 Y95.000 E3.89401
G1 X46.747 Y87.932 E4.00120
G1 X48.943 Y81.173 E4.10838
G1 X52.468 Y75.068 E4.21470
G1 F1800.000 E3.21470
G92 E0
G1 X111.410 Y108.985 F12000.000
G1 F1800.000 E1.00000
G1 X107.816 Y115.210 F900.000 E1.10841
G1 X103.007 Y120.551 E1.21681
G1 X97.191 Y124.776 E1.32522
G1 X90.625 Y127.700 E1.43362
G1 X83.594 Y129.194 E1.54203
G1 X76.406 Y129.194 E1.65043
G1 X69.375 Y127.700 E1.75884
G1 X62.809 Y124.776 E1.86725
G1 X56.993 Y120.551 E1.97565
G1 X52.184 Y115.210 E2.08406
G1 X48.590 Y108.985 E2.19246
G1 X46.369 Y102.149 E2.30087
G1 X45.617 Y95.000 E2.40927
G1 X46.369 Y87.851 E2.51768
G1 X48.590 Y81.015 E2.62609
G1 X52.184 Y74.790 E2.73449
G1 X56.993 Y69.449 E2.84290
G1 X62.809 Y65.224 E2.95130
G1 X69.375 Y62.300 E3.05971
G1 X76.406 Y60.806 E3.16811
G1 X83.594 Y60.806 E3.27652
G1 X90.625 Y62.300 E3.38493
G1 X97.191 Y65.224 E3.49333
G1 X103.007 Y69.449 E3.60174
G1 X107.816 Y74.790 E3.71014
G1 X111.410 Y81.015 E3.81855
G1 X113.631 Y87.851 E3.92696
G1 X114.383 Y95.000 E4.03536
G1 X113.631 Y102.149 E4.14377
G1 X111.428 Y108.930 E4.25130
G1 X111.777 Y109.101 F12000.000
G1 X108.129 Y115.437 F900.000 E4.36157
G1 X103.266 Y120.839 E4.47120
G1 X97.385 Y125.112 E4.58082
G1 X90.744 Y128.068 E4.69045
G1 X83.634 Y129.579 E4.80007
G1 X76.366 Y129.579 E4.90970
G1 X69.256 Y128.068 E5.01932
G1 X62.615 Y125.112 E5.12895
G1 X56.734 Y120.839 E5.23858
G1 X51.871 Y115.437 E5.34820
G1 X48.236 Y109.142 E5.45783
G1 X45.990 Y102.229 E5.56745
G1 X45.230 Y95.000 E5.67708
G1 X45.990 Y87.771 E5.78670
G1 X48.236 Y80.858 E5.89633
G1 X51.871 Y74.563 E6.00596
G1 X56.734 Y69.161 E6.11558
G1 X62.615 Y64.888 E6.22521
G1 X69.232 Y61.943 E6.33444
G1 X76.366 Y60.421 E6.44445
G1 X83.634 Y60.421 E6.55408
G1 X90.744 Y61.932 E6.66370
G1 X97.385 Y64.888 E6.77333
G1 X103.266 Y69.161 E6.88295
G1 X108.129 Y74.563 E6.99258
G1 X111.764 Y80.858 E7.10221
G1 X114.010 Y87.771 E7.21183
G1 X114.770 Y95.000 E7.32146
G1 X114.010 Y102.229 E7.43108
G1 X111.795 Y109.046 E7.53918
G1 X111.393 Y109.128 F12000.000
G1 F1800.000 E6.53918
G92 E0
G1 X146.287 Y96.538 F12000.000
G1 F1800.000 E1.00000
G1 X145.981 Y95.000 F900.000 E1.02365
G1 X146.287 Y93.462 E1.04730
G1 X147.158 Y92.158 E1.07095
G1 X148.462 Y91.287 E1.09460
G1 X150.000 Y90.981 E1.11825
G1 X151.538 Y91.287 E1.14190
G1 X152.842 Y92.158 E1.16555
G1 X153.713 Y93.462 E1.18920
G1 X154.019 Y95.000 E1.21285
G1 X153.713 Y96.538 E1.23650
G1 X152.842 Y97.842 E1.26015
G1 X151.538 Y98.713 E1.28380
G1 X150.000 Y99.019 E1.30745
G1 X148.462 Y98.713 E1.33110
G1 X147.158 Y97.842 E1.35475
G1 X146.319 Y96.586 E1.37753
G1 X145.589 Y95.000 F12000.000
G1 X145.924 Y93.312 F900.000 E1.40349
G1 X146.881 Y91.881 E1.42945
G1 X148.312 Y90.924 E1.45541
G1 X150.000 Y90.589 E1.48137
G1 X151.688 Y90.924 E1.50733
G1 X153.119 Y91.881 E1.53329
G1 X154.076 Y93.312 E1.55925
G1 X154.411 Y95.000 E1.58520
G1 X154.076 Y96.688 E1.61116
G1 X153.119 Y98.119 E1.63712
G1 X151.688 Y99.076 E1.66308
G1 X150.000 Y99.411 E1.68904
G1 X148.312 Y99.076 E1.71500
G1 X146.881 Y98.119 E1.74096
G1 X145.924 Y96.688 E1.76692
G1 X145.600 Y95.057 E1.79201
G1 X145.196 Y95.000 F12000.000
G1 X145.562 Y93.162 F900.000 E1.82028
G1 X146.603 Y91.603 E1.84854
G1 X148.162 Y90.562 E1.87681
G1 X150.000 Y90.196 E1.90508
G1 X151.838 Y90.562 E1.93335
G1 X153.397 Y91.603 E1.96162
G1 X154.438 Y93.162 E1.98988
G1 X154.804 Y95.000 E2.01815
G1 X154.438 Y96.838 E2.04642
G1 X153.397 Y98.397 E2.07469
G1 X151.838 Y99.438 E2.10296
G1 X150.000 Y99.804 E2.13122
G1 X148.162 Y99.438 E2.15949
G1 X146.603 Y98.397 E2.18776
G1 X145.562 Y96.838 E2.21603
G1 X145.207 Y95.057 E2.24343
G1 X145.541 Y94.830 F12000.000
G1 F1800.000 E1.24343
G92 E0
G1 X107.522 Y75.609 F12000.000
G1 F1800.000 E1.00000
G1 X99.994 Y68.080 F1800.000 E1.16069
G1 F1800.000 E0.16069
G92 E0
G1 X98.002 Y66.633 F12000.000
G1 F1800.000 E1.00000
G1 X108.266 Y76.897 F1800.000 E1.21908
G1 X109.010 Y78.186 E1.24153
G1 X96.440 Y65.616 E1.50983
G1 X95.458 Y65.179 E1.52605
G1 X109.754 Y79.474 E1.83118
G1 X110.498 Y80.763 E1.85364
G1 X94.477 Y64.741 E2.19560
G1 X93.495 Y64.304 E2.21182
G1 X110.956 Y81.766 E2.58452
G1 X111.218 Y82.572 E2.59732
G1 X92.513 Y63.867 E2.99656
G1 X91.531 Y63.430 E3.01278
G1 X111.480 Y83.379 E3.43858
G1 X111.743 Y84.186 E3.45138
G1 X90.550 Y62.993 E3.90372
G1 X89.819 Y62.807 E3.91510
G1 X112.005 Y84.993 E4.38862
G1 X112.267 Y85.800 E4.40143
G1 X89.128 Y62.660 E4.89531
G1 X88.436 Y62.513 E4.90598
G1 X112.529 Y86.606 E5.42023
G1 X112.791 Y87.413 E5.43303
G1 X87.744 Y62.366 E5.96763
G1 X87.053 Y62.219 E5.97830
G1 X112.997 Y88.164 E6.53206
G1 X113.061 Y88.772 E6.54129
G1 X86.361 Y62.072 E7.11118
G1 X85.669 Y61.925 E7.12185
G1 X113.125 Y89.381 E7.70786
G1 X113.189 Y89.989 E7.71710
G1 X84.978 Y61.778 E8.31923
G1 X84.286 Y61.631 E8.32991
G1 X113.253 Y90.598 E8.94817
G1 X113.317 Y91.207 E8.95741
G1 X83.594 Y61.484 E9.59180
G1 X83.035 Y61.469 E9.60025
G1 X113.381 Y91.815 E10.24796
G1 X113.445 Y92.424 E10.25719
G1 X82.490 Y61.469 E10.91788
G1 X81.945 Y61.469 E10.92610
G1 X113.509 Y93.032 E11.59979
G1 X113.573 Y93.641 E11.60902
G1 X81.401 Y61.469 E12.29570
G1 X80.856 Y61.469 E12.30392
G1 X113.637 Y94.250 E13.00358
G1 X113.700 Y94.858 E13.01282
G1 X80.311 Y61.469 E13.72547
G1 X79.767 Y61.469 E13.73369
G1 X113.676 Y95.378 E14.45744
G1 X113.624 Y95.871 E14.46492
G1 X79.222 Y61.469 E15.19919
G1 X78.678 Y61.469 E15.20741
G1 X113.572 Y96.364 E15.95220
G1 X113.520 Y96.857 E15.95967
G1 X78.133 Y61.469 E16.71498
G1 X77.588 Y61.469 E16.72320
G1 X113.468 Y97.349 E17.48903
G1 X113.417 Y97.842 E17.49651
G1 X77.044 Y61.469 E18.27285
G1 X76.499 Y61.469 E18.28107
G1 X113.365 Y98.335 E19.06794
G1 X113.313 Y98.828 E19.07542
G1 X76.046 Y61.561 E19.87085
G1 X75.597 Y61.656 E19.87778
G1 X113.261 Y99.321 E20.68169
G1 X113.209 Y99.814 E20.68917
G1 X75.147 Y61.752 E21.50157
G1 X74.698 Y61.847 E21.50850
G1 X113.158 Y100.307 E22.32938
G1 X113.106 Y100.799 E22.33686
G1 X74.249 Y61.943 E23.16622
G1 X73.800 Y62.038 E23.17315
G1 X113.054 Y101.292 E24.01099
G1 X113.002 Y101.785 E24.01847
G1 X73.351 Y62.134 E24.86479
G1 X72.902 Y62.229 E24.87172
G1 X112.906 Y102.233 E25.72557
G1 X112.772 Y102.645 E25.73210
G1 X72.452 Y62.324 E26.59269
G1 X72.003 Y62.420 E26.59962
G1 X112.639 Y103.056 E27.46694
G1 X112.505 Y103.467 E27.47347
G1 X71.554 Y62.515 E28.34753
G1 X71.105 Y62.611 E28.35446
G1 X112.372 Y103.878 E29.23526
G1 X112.238 Y104.289 E29.24178
G1 X70.656 Y62.706 E30.12932
G1 X70.206 Y62.802 E30.13625
G1 X112.105 Y104.700 E31.03052
G1 X111.971 Y105.111 E31.03704
G1 X69.757 Y62.897 E31.93805
G1 X69.352 Y63.037 E31.94452
G1 X111.837 Y105.522 E32.85132
G1 X111.704 Y105.933 E32.85785
G1 X68.975 Y63.205 E33.76985
G1 X68.598 Y63.372 E33.77607
G1 X111.570 Y106.344 E34.69326
