; generated by Slic3r 0.9.10b on 2013-12-09 at 16:03:24

; layer_height = 0.25
; perimeters = 3
; top_solid_layers = 3
; bottom_solid_layers = 3
; fill_density = 0.2
; perimeter_speed = 30
; infill_speed = 60
; travel_speed = 200
; nozzle_diameter = 0.35
; filament_diameter = 2.85
; extrusion_multiplier = 1
; perimeters extrusion width = 0.39mm
; infill extrusion width = 0.39mm
; solid infill extrusion width = 0.39mm
; top infill extrusion width = 0.39mm

G21 ; set units to millimeters
M190 S60 ; wait for bed temperature to be reached
M104 S190 ; set temperature
G28 ; home all axes
M106 S255; 
M109 S190 ; wait for temperature to be reached
G90 ; use absolute coordinates
G92 E0
M82 ; use absolute distances for extrusion
G1 F1800.000 E-1.00000
G92 E0
G1 Z0.250 F12000.000
G1 X68.458 Y46.100
G1 F1800.000 E1.00000
G1 X70.088 Y43.730 F900.000 E1.04338
G1 X71.928 Y41.510 E1.08687
G1 X73.958 Y39.480 E1.13016
G1 X76.178 Y37.640 E1.17365
G1 X78.548 Y36.010 E1.21703
G1 X81.058 Y34.610 E1.26038
G1 X83.698 Y33.450 E1.30387
G1 X86.418 Y32.530 E1.34717
G1 X89.228 Y31.880 E1.39067
G1 X92.078 Y31.480 E1.43407
G1 X94.948 Y31.350 E1.47740
G1 X99.948 Y31.350 E1.55281
G1 X102.818 Y31.480 E1.59614
G1 X105.668 Y31.880 E1.63954
G1 X108.478 Y32.530 E1.68304
G1 X111.198 Y33.450 E1.72634
G1 X113.838 Y34.610 E1.76983
G1 X116.348 Y36.010 E1.81318
G1 X118.718 Y37.640 E1.85656
G1 X120.938 Y39.480 E1.90005
G1 X122.968 Y41.510 E1.94334
G1 X124.808 Y43.730 E1.98683
G1 X126.438 Y46.100 E2.03021
G1 X127.838 Y48.610 E2.07355
G1 X128.998 Y51.250 E2.11704
G1 X129.918 Y53.970 E2.16035
G1 X130.568 Y56.780 E2.20385
G1 X130.968 Y59.630 E2.24725
G1 X131.098 Y62.500 E2.29058
G1 X131.098 Y127.500 E3.27088
G1 X130.968 Y130.370 E3.31421
G1 X130.568 Y133.220 E3.35761
G1 X129.918 Y136.030 E3.40111
G1 X128.998 Y138.750 E3.44442
G1 X127.838 Y141.390 E3.48791
G1 X126.438 Y143.900 E3.53125
G1 X124.808 Y146.270 E3.57463
G1 X122.968 Y148.490 E3.61812
G1 X120.938 Y150.520 E3.66141
G1 X118.718 Y152.360 E3.70490
G1 X116.348 Y153.990 E3.74828
G1 X113.838 Y155.390 E3.79163
G1 X111.198 Y156.550 E3.83512
G1 X108.478 Y157.470 E3.87842
G1 X105.668 Y158.120 E3.92192
G1 X102.818 Y158.520 E3.96532
G1 X99.948 Y158.650 E4.00865
G1 X94.948 Y158.650 E4.08406
G1 X92.078 Y158.520 E4.12739
G1 X89.228 Y158.120 E4.17079
G1 X86.418 Y157.470 E4.21429
G1 X83.698 Y156.550 E4.25759
G1 X81.058 Y155.390 E4.30108
G1 X78.548 Y153.990 E4.34443
G1 X76.178 Y152.360 E4.38781
G1 X73.958 Y150.520 E4.43130
G1 X71.928 Y148.490 E4.47459
G1 X70.088 Y146.270 E4.51808
G1 X68.458 Y143.900 E4.56146
G1 X67.058 Y141.390 E4.60480
G1 X65.898 Y138.750 E4.64829
G1 X64.978 Y136.030 E4.69160
G1 X64.328 Y133.220 E4.73510
G1 X63.928 Y130.370 E4.77850
G1 X63.798 Y127.500 E4.82183
G1 X63.798 Y62.500 E5.80213
G1 X63.928 Y59.630 E5.84546
G1 X64.328 Y56.780 E5.88886
G1 X64.978 Y53.970 E5.93236
G1 X65.898 Y51.250 E5.97567
G1 X67.058 Y48.610 E6.01916
G1 X68.430 Y46.150 E6.06163
G1 X68.788 Y46.300 F12000.000
G1 X70.398 Y43.960 F900.000 E6.10447
G1 X72.208 Y41.770 E6.14732
G1 X74.218 Y39.760 E6.19019
G1 X76.408 Y37.950 E6.23304
G1 X78.748 Y36.340 E6.27587
G1 X81.228 Y34.960 E6.31868
G1 X83.828 Y33.810 E6.36155
G1 X86.528 Y32.900 E6.40452
G1 X89.298 Y32.250 E6.44743
G1 X92.108 Y31.860 E6.49022
G1 X94.948 Y31.730 E6.53310
G1 X99.948 Y31.730 E6.60850
G1 X102.788 Y31.860 E6.65138
G1 X105.598 Y32.250 E6.69417
G1 X108.368 Y32.900 E6.73708
G1 X111.068 Y33.810 E6.78005
G1 X113.668 Y34.960 E6.82292
G1 X116.148 Y36.340 E6.86573
G1 X118.488 Y37.950 E6.90856
G1 X120.678 Y39.760 E6.95141
G1 X122.688 Y41.770 E6.99428
G1 X124.498 Y43.960 E7.03713
G1 X126.108 Y46.300 E7.07997
G1 X127.488 Y48.780 E7.12277
G1 X128.638 Y51.380 E7.16565
G1 X129.548 Y54.080 E7.20862
G1 X130.198 Y56.850 E7.25153
G1 X130.588 Y59.660 E7.29432
G1 X130.718 Y62.500 E7.33719
G1 X130.718 Y127.500 E8.31749
G1 X130.588 Y130.340 E8.36037
G1 X130.198 Y133.150 E8.40316
G1 X129.548 Y135.920 E8.44607
G1 X128.638 Y138.620 E8.48904
G1 X127.488 Y141.220 E8.53191
G1 X126.108 Y143.700 E8.57472
G1 X124.498 Y146.040 E8.61755
G1 X122.688 Y148.230 E8.66040
G1 X120.678 Y150.240 E8.70327
G1 X118.488 Y152.050 E8.74612
G1 X116.148 Y153.660 E8.78896
G1 X113.668 Y155.040 E8.83176
G1 X111.068 Y156.190 E8.87464
G1 X108.368 Y157.100 E8.91761
G1 X105.598 Y157.750 E8.96052
G1 X102.788 Y158.140 E9.00331
G1 X99.948 Y158.270 E9.04618
G1 X94.948 Y158.270 E9.12159
G1 X92.108 Y158.140 E9.16447
G1 X89.298 Y157.750 E9.20725
G1 X86.528 Y157.100 E9.25016
G1 X83.828 Y156.190 E9.29313
G1 X81.228 Y155.040 E9.33601
G1 X78.748 Y153.660 E9.37881
G1 X76.408 Y152.050 E9.42165
G1 X74.218 Y150.240 E9.46450
G1 X72.208 Y148.230 E9.50737
G1 X70.398 Y146.040 E9.55022
G1 X68.788 Y143.700 E9.59306
G1 X67.408 Y141.220 E9.63586
G1 X66.258 Y138.620 E9.67874
G1 X65.348 Y135.920 E9.72171
G1 X64.698 Y133.150 E9.76462
G1 X64.308 Y130.340 E9.80740
G1 X64.178 Y127.500 E9.85028
G1 X64.178 Y62.500 E10.83058
G1 X64.308 Y59.660 E10.87346
G1 X64.698 Y56.850 E10.91624
G1 X65.348 Y54.080 E10.95915
G1 X66.258 Y51.380 E11.00212
G1 X67.408 Y48.780 E11.04500
G1 X68.760 Y46.350 E11.08693
G1 X69.118 Y46.500 F12000.000
G1 X70.698 Y44.190 F900.000 E11.12914
G1 X72.498 Y42.030 E11.17155
G1 X74.478 Y40.050 E11.21378
G1 X76.638 Y38.250 E11.25618
G1 X78.948 Y36.670 E11.29839
G1 X81.408 Y35.300 E11.34086
G1 X83.968 Y34.170 E11.38306
G1 X86.628 Y33.280 E11.42536
G1 X89.368 Y32.630 E11.46783
G1 X92.148 Y32.240 E11.51017
G1 X94.948 Y32.120 E11.55244
G1 X99.948 Y32.120 E11.62784
G1 X102.748 Y32.240 E11.67011
G1 X105.528 Y32.630 E11.71245
G1 X108.268 Y33.280 E11.75492
G1 X110.928 Y34.170 E11.79722
G1 X113.488 Y35.300 E11.83942
G1 X115.948 Y36.670 E11.88189
G1 X118.258 Y38.250 E11.92410
G1 X120.418 Y40.050 E11.96650
G1 X122.398 Y42.030 E12.00873
G1 X124.198 Y44.190 E12.05114
G1 X125.778 Y46.500 E12.09335
G1 X127.148 Y48.960 E12.13581
G1 X128.278 Y51.520 E12.17802
G1 X129.168 Y54.180 E12.22032
G1 X129.818 Y56.920 E12.26279
G1 X130.208 Y59.700 E12.30513
G1 X130.328 Y62.500 E12.34739
G1 X130.328 Y127.500 E13.32770
G1 X130.208 Y130.300 E13.36996
G1 X129.818 Y133.080 E13.41230
G1 X129.168 Y135.820 E13.45477
G1 X128.278 Y138.480 E13.49707
G1 X127.148 Y141.040 E13.53928
G1 X125.778 Y143.500 E13.58174
G1 X124.198 Y145.810 E13.62395
G1 X122.398 Y147.970 E13.66635
G1 X120.418 Y149.950 E13.70859
G1 X118.258 Y151.750 E13.75099
G1 X115.948 Y153.330 E13.79320
G1 X113.488 Y154.700 E13.83566
G1 X110.928 Y155.830 E13.87787
G1 X108.268 Y156.720 E13.92017
G1 X105.528 Y157.370 E13.96264
G1 X102.748 Y157.760 E14.00498
G1 X99.948 Y157.880 E14.04724
G1 X94.948 Y157.880 E14.12265
G1 X92.148 Y157.760 E14.16492
G1 X89.368 Y157.370 E14.20726
G1 X86.628 Y156.720 E14.24973
G1 X83.968 Y155.830 E14.29203
G1 X81.408 Y154.700 E14.33423
G1 X78.948 Y153.330 E14.37670
G1 X76.638 Y151.750 E14.41891
G1 X74.478 Y149.950 E14.46131
G1 X72.498 Y147.970 E14.50354
G1 X70.698 Y145.810 E14.54595
G1 X69.118 Y143.500 E14.58816
G1 X67.748 Y141.040 E14.63062
G1 X66.618 Y138.480 E14.67282
G1 X65.728 Y135.820 E14.71513
G1 X65.078 Y133.080 E14.75760
G1 X64.688 Y130.300 E14.79993
G1 X64.568 Y127.500 E14.84220
G1 X64.568 Y62.500 E15.82250
G1 X64.688 Y59.700 E15.86477
G1 X65.078 Y56.920 E15.90711
G1 X65.728 Y54.180 E15.94958
G1 X66.618 Y51.520 E15.99188
G1 X67.748 Y48.960 E16.03408
G1 X69.090 Y46.550 E16.07568
G1 F1800.000 E15.07568
G92 E0
G1 X95.914 Y123.462 F12000.000
G1 F1800.000 E1.00000
G1 X98.990 Y123.462 F900.000 E1.04639
G1 X98.990 Y126.538 E1.09277
G1 X95.914 Y126.538 E1.13916
G1 X95.914 Y123.520 E1.18468
G1 X95.529 Y123.077 F12000.000
G1 X99.375 Y123.077 F900.000 E1.24267
G1 X99.375 Y126.923 E1.30067
G1 X95.529 Y126.923 E1.35867
G1 X95.529 Y123.135 E1.41579
G1 X95.144 Y122.692 F12000.000
G1 X99.760 Y122.692 F900.000 E1.48539
G1 X99.760 Y127.308 E1.55500
G1 X95.144 Y127.308 E1.62460
G1 X95.144 Y122.750 E1.69334
G1 X95.478 Y122.885 F12000.000
G1 F1800.000 E0.69334
G92 E0
G1 X95.914 Y66.538 F12000.000
G1 F1800.000 E1.00000
G1 X95.914 Y63.462 F900.000 E1.04639
G1 X98.990 Y63.462 E1.09277
G1 X98.990 Y66.538 E1.13916
G1 X95.972 Y66.538 E1.18468
G1 X95.529 Y66.923 F12000.000
G1 X95.529 Y63.077 F900.000 E1.24267
G1 X99.375 Y63.077 E1.30067
G1 X99.375 Y66.923 E1.35867
G1 X95.587 Y66.923 E1.41579
G1 X95.144 Y67.308 F12000.000
G1 X95.144 Y62.692 F900.000 E1.48539
G1 X99.760 Y62.692 E1.55500
G1 X99.760 Y67.308 E1.62460
G1 X95.202 Y67.308 E1.69334
G1 X95.337 Y66.974 F12000.000
G1 F1800.000 E0.69334
G92 E0
G1 X98.711 Y123.773 F12000.000
G1 F1800.000 E1.00000
G1 X98.679 Y123.741 F1800.000 E1.00067
G1 X98.133 Y123.741 E1.00894
G1 X98.711 Y124.319 E1.02129
G1 X98.711 Y124.865 E1.02956
G1 X97.587 Y123.741 E1.05360
G1 X97.041 Y123.741 E1.06186
G1 X98.711 Y125.411 E1.09759
G1 X98.711 Y125.957 E1.10585
G1 X96.495 Y123.741 E1.15326
G1 X96.193 Y123.985 E1.15914
G1 X98.467 Y126.259 E1.20780
G1 X97.921 Y126.259 E1.21606
G1 X96.193 Y124.531 E1.25305
G1 X96.193 Y125.077 E1.26131
G1 X97.375 Y126.259 E1.28661
G1 X96.829 Y126.259 E1.29487
G1 X96.193 Y125.623 E1.30848
G1 X96.193 Y126.169 E1.31674
G1 X96.283 Y126.259 E1.31867
G1 F1800.000 E0.31867
G92 E0
G1 X96.347 Y66.259 F12000.000
G1 F1800.000 E1.00000
G1 X96.193 Y66.105 F1800.000 E1.00328
G1 X96.193 Y65.559 F12000.000
G1 X96.893 Y66.259 F1800.000 E1.01820
G1 X97.439 Y66.259 F12000.000
G1 X96.193 Y65.013 F1800.000 E1.04477
G1 X96.193 Y64.467 F12000.000
G1 X97.985 Y66.259 F1800.000 E1.08299
G1 X98.531 Y66.259 F12000.000
G1 X96.193 Y63.921 F1800.000 E1.13285
G1 X96.559 Y63.741 F12000.000
G1 X98.711 Y65.893 F1800.000 E1.17875
G1 X98.711 Y65.347 F12000.000
G1 X97.105 Y63.741 F1800.000 E1.21301
G1 X97.651 Y63.741 F12000.000
G1 X98.711 Y64.801 F1800.000 E1.23562
G1 X98.711 Y64.255 F12000.000
G1 X98.197 Y63.741 F1800.000 E1.24658
G1 F1800.000 E0.24658
G92 E0
G1 Z0.500 F12000.000
G1 X98.990 Y123.462
G1 F1800.000 E1.00000
G1 X98.990 Y126.538 F1800.000 E1.04639
G1 X95.914 Y126.538 E1.09277
G1 X95.914 Y123.462 E1.13916
G1 X98.932 Y123.462 E1.18468
G1 F1800.000 E0.18468
G92 E0
G1 X95.529 Y123.077 F12000.000
G1 F1800.000 E1.00000
G1 X99.375 Y123.077 F1800.000 E1.05800
G1 X99.375 Y126.923 E1.11599
G1 X95.529 Y126.923 E1.17399
G1 X95.529 Y123.135 E1.23111
G1 X95.144 Y122.692 F12000.000
G1 X99.760 Y122.692 F1800.000 E1.30072
G1 X99.760 Y127.308 E1.37032
G1 X95.144 Y127.308 E1.43992
G1 X95.144 Y122.750 E1.50866
G1 X95.478 Y122.885 F12000.000
G1 F1800.000 E0.50866
G92 E0
G1 X95.914 Y66.538 F12000.000
G1 F1800.000 E1.00000
G1 X95.914 Y63.462 F1800.000 E1.04639
G1 X98.990 Y63.462 E1.09277
G1 X98.990 Y66.538 E1.13916
G1 X95.972 Y66.538 E1.18468
G1 X95.529 Y66.923 F12000.000
G1 X95.529 Y63.077 F1800.000 E1.24267
G1 X99.375 Y63.077 E1.30067
G1 X99.375 Y66.923 E1.35867
G1 X95.587 Y66.923 E1.41579
G1 X95.144 Y67.308 F12000.000
G1 X95.144 Y62.692 F1800.000 E1.48539
G1 X99.760 Y62.692 E1.55500
G1 X99.760 Y67.308 E1.62460
G1 X95.202 Y67.308 E1.69334
G1 X95.337 Y66.974 F12000.000
G1 F1800.000 E0.69334
G92 E0
G1 X96.193 Y124.063 F12000.000
G1 F1800.000 E1.00000
G1 X96.515 Y123.741 F3600.000 E1.00689
G1 X97.061 Y123.741 E1.01515
G1 X96.193 Y124.609 E1.03373
G1 X96.193 Y125.155 E1.04199
G1 X97.607 Y123.741 E1.07225
G1 X98.153 Y123.741 E1.08051
G1 X96.193 Y125.701 E1.12245
G1 X96.193 Y126.247 E1.13071
G1 X98.699 Y123.741 E1.18434
G1 X98.711 Y124.275 E1.19242
G1 X96.727 Y126.259 E1.23487
G1 X97.273 Y126.259 E1.24314
G1 X98.711 Y124.821 E1.27390
G1 X98.711 Y125.367 E1.28216
G1 X97.819 Y126.259 E1.30125
G1 X98.365 Y126.259 E1.30951
G1 X98.711 Y125.913 E1.31691
G1 F1800.000 E0.31691
G92 E0
G1 X98.302 Y66.259 F12000.000
G1 F1800.000 E1.00000
G1 X98.711 Y65.850 F3600.000 E1.00873
G1 X98.711 Y65.304 F12000.000
G1 X97.756 Y66.259 F3600.000 E1.02910
G1 X97.210 Y66.259 F12000.000
G1 X98.711 Y64.758 F3600.000 E1.06112
G1 X98.711 Y64.212 F12000.000
G1 X96.664 Y66.259 F3600.000 E1.10479
G1 X96.193 Y66.184 F12000.000
G1 X98.636 Y63.741 F3600.000 E1.15689
G1 X98.090 Y63.741 F12000.000
G1 X96.193 Y65.638 F3600.000 E1.19734
G1 X96.193 Y65.092 F12000.000
G1 X97.544 Y63.741 F3600.000 E1.22614
G1 X96.997 Y63.741 F12000.000
G1 X96.193 Y64.546 F3600.000 E1.24330
G1 X96.193 Y63.999 F12000.000
G1 X96.451 Y63.741 F3600.000 E1.24882
G1 F1800.000 E0.24882
G92 E0
G1 Z0.750 F12000.000
G1 X95.914 Y123.462
G1 F1800.000 E1.00000
G1 X98.990 Y123.462 F1800.000 E1.04639
G1 X98.990 Y126.538 E1.09277
G1 X95.914 Y126.538 E1.13916
G1 X95.914 Y123.520 E1.18468
G1 F1800.000 E0.18468
G92 E0
G1 X99.375 Y126.923 F12000.000
G1 F1800.000 E1.00000
G1 X95.529 Y126.923 F1800.000 E1.05800
G1 X95.529 Y123.077 E1.11599
G1 X99.375 Y123.077 E1.17399
G1 X99.375 Y126.865 E1.23111
G1 X99.760 Y127.308 F12000.000
G1 X95.144 Y127.308 F1800.000 E1.30072
G1 X95.144 Y122.692 E1.37032
G1 X99.760 Y122.692 E1.43992
G1 X99.760 Y127.250 E1.50866
G1 X99.426 Y127.115 F12000.000
G1 F1800.000 E0.50866
G92 E0
G1 X98.990 Y66.538 F12000.000
G1 F1800.000 E1.00000
G1 X95.914 Y66.538 F1800.000 E1.04639
G1 X95.914 Y63.462 E1.09277
G1 X98.990 Y63.462 E1.13916
G1 X98.990 Y66.480 E1.18468
G1 F1800.000 E0.18468
G92 E0
G1 X99.375 Y63.077 F12000.000
G1 F1800.000 E1.00000
G1 X99.375 Y66.923 F1800.000 E1.05800
G1 X95.529 Y66.923 E1.11599
G1 X95.529 Y63.077 E1.17399
G1 X99.317 Y63.077 E1.23111
G1 X99.760 Y62.692 F12000.000
G1 X99.760 Y67.308 F1800.000 E1.30072
G1 X95.144 Y67.308 E1.37032
G1 X95.144 Y62.692 E1.43992
G1 X99.702 Y62.692 E1.50866
G1 X99.567 Y63.026 F12000.000
G1 F1800.000 E0.50866
G92 E0
G1 X98.679 Y123.741 F12000.000
G1 F1800.000 E1.00000
G1 X98.711 Y123.773 F3600.000 E1.00067
G1 X98.711 Y124.319 F12000.000
G1 X98.133 Y123.741 F3600.000 E1.01299
G1 X97.587 Y123.741 F12000.000
G1 X98.711 Y124.865 F3600.000 E1.03695
G1 X98.711 Y125.411 F12000.000
G1 X97.041 Y123.741 F3600.000 E1.07256
G1 X96.495 Y123.741 F12000.000
G1 X98.711 Y125.957 F3600.000 E1.11982
G1 X98.467 Y126.259 F12000.000
G1 X96.193 Y123.985 F3600.000 E1.16833
G1 X96.193 Y124.531 F12000.000
G1 X97.921 Y126.259 F3600.000 E1.20519
G1 X97.375 Y126.259 F12000.000
G1 X96.193 Y125.077 F3600.000 E1.23041
G1 X96.193 Y125.623 F12000.000
G1 X96.829 Y126.259 F3600.000 E1.24398
G1 X96.283 Y126.259 F12000.000
G1 X96.193 Y126.169 F3600.000 E1.24590
G1 F1800.000 E0.24590
G92 E0
G1 X96.347 Y66.259 F12000.000
G1 F1800.000 E1.00000
G1 X96.193 Y66.105 F3600.000 E1.00328
G1 X96.193 Y65.559 F12000.000
G1 X96.893 Y66.259 F3600.000 E1.01820
G1 X97.439 Y66.259 F12000.000
G1 X96.193 Y65.013 F3600.000 E1.04477
G1 X96.193 Y64.467 F12000.000
G1 X97.985 Y66.259 F3600.000 E1.08299
G1 X98.531 Y66.259 F12000.000
G1 X96.193 Y63.921 F3600.000 E1.13285
G1 X96.559 Y63.741 F12000.000
G1 X98.711 Y65.893 F3600.000 E1.17875
G1 X98.711 Y65.347 F12000.000
G1 X97.105 Y63.741 F3600.000 E1.21301
G1 X97.651 Y63.741 F12000.000
G1 X98.711 Y64.801 F3600.000 E1.23562
G1 X98.711 Y64.255 F12000.000
G1 X98.197 Y63.741 F3600.000 E1.24658
G1 F1800.000 E0.24658
G92 E0
G1 Z1.000 F12000.000
G1 X98.990 Y123.462
G1 F1800.000 E1.00000
G1 X98.990 Y126.538 F1800.000 E1.04639
G1 X95.914 Y126.538 E1.09277
G1 X95.914 Y123.462 E1.13916
G1 X98.932 Y123.462 E1.18468
G1 F1800.000 E0.18468
G92 E0
G1 X95.529 Y123.077 F12000.000
G1 F1800.000 E1.00000
G1 X99.375 Y123.077 F1800.000 E1.05800
G1 X99.375 Y126.923 E1.11599
G1 X95.529 Y126.923 E1.17399
G1 X95.529 Y123.135 E1.23111
G1 X95.144 Y122.692 F12000.000
G1 X99.760 Y122.692 F1800.000 E1.30072
G1 X99.760 Y127.308 E1.37032
G1 X95.144 Y127.308 E1.43992
G1 X95.144 Y122.750 E1.50866
G1 X95.478 Y122.885 F12000.000
G1 F1800.000 E0.50866
G92 E0
G1 X95.914 Y66.538 F12000.000
G1 F1800.000 E1.00000
G1 X95.914 Y63.462 F1800.000 E1.04639
G1 X98.990 Y63.462 E1.09277
G1 X98.990 Y66.538 E1.13916
G1 X95.972 Y66.538 E1.18468
G1 X95.529 Y66.923 F12000.000
G1 X95.529 Y63.077 F1800.000 E1.24267
G1 X99.375 Y63.077 E1.30067
G1 X99.375 Y66.923 E1.35867
G1 X95.587 Y66.923 E1.41579
G1 X95.144 Y67.308 F12000.000
G1 X95.144 Y62.692 F1800.000 E1.48539
G1 X99.760 Y62.692 E1.55500
G1 X99.760 Y67.308 E1.62460
G1 X95.202 Y67.308 E1.69334
G1 X95.337 Y66.974 F12000.000
G1 F1800.000 E0.69334
G92 E0
G1 X96.515 Y123.741 F12000.000
G1 F1800.000 E1.00000
G1 X96.193 Y124.063 F3600.000 E1.00687
G1 X96.193 Y124.609 F12000.000
G1 X97.061 Y123.741 F3600.000 E1.02538
