; generated by Slic3r 0.9.10b on 2013-12-09 at 15:42:13

; layer_height = 0.25
; perimeters = 3
; top_solid_layers = 3
; bottom_solid_layers = 3
; fill_density = 0.2
; perimeter_speed = 30
; infill_speed = 60
; travel_speed = 200
; nozzle_diameter = 0.35
; filament_diameter = 2.85
; extrusion_multiplier = 1
; perimeters extrusion width = 0.39mm
; infill extrusion width = 0.39mm
; solid infill extrusion width = 0.39mm
; top infill extrusion width = 0.39mm

G21 ; set units to millimeters
M190 S60 ; wait for bed temperature to be reached
M104 S190 ; set temperature
G28 ; home all axes
M106 S255; 
M109 S190 ; wait for temperature to be reached
G90 ; use absolute coordinates
G92 E0
M82 ; use absolute distances for extrusion
G1 F1800.000 E-1.00000
G92 E0
G1 Z0.250 F12000.000
G1 X76.290 Y75.340
G1 F1800.000 E1.00000
G1 X76.820 Y74.820 F900.000 E1.01120
G1 X77.400 Y74.350 E1.02246
G1 X80.780 Y71.890 E1.08550
G1 X81.410 Y71.480 E1.09684
G1 X82.080 Y71.130 E1.10824
G1 X85.900 Y69.430 E1.17130
G1 X86.610 Y69.160 E1.18276
G1 X87.340 Y68.970 E1.19413
G1 X91.430 Y68.110 E1.25716
G1 X92.160 Y67.990 E1.26832
G1 X92.900 Y67.960 E1.27949
G1 X97.090 Y67.960 E1.34268
G1 X97.830 Y67.990 E1.35385
G1 X98.560 Y68.110 E1.36501
G1 X102.650 Y68.970 E1.42804
G1 X103.390 Y69.160 E1.43956
G1 X104.100 Y69.440 E1.45108
G1 X107.910 Y71.140 E1.51400
G1 X108.570 Y71.470 E1.52513
G1 X109.190 Y71.880 E1.53634
G1 X112.580 Y74.340 E1.59950
G1 X113.170 Y74.810 E1.61088
G1 X113.700 Y75.340 E1.62219
G1 X116.500 Y78.450 E1.68530
G1 X116.970 Y79.030 E1.69656
G1 X117.380 Y79.660 E1.70789
G1 X119.470 Y83.280 E1.77093
G1 X119.810 Y83.950 E1.78227
G1 X120.080 Y84.650 E1.79358
G1 X121.370 Y88.630 E1.85668
G1 X121.560 Y89.360 E1.86806
G1 X121.680 Y90.100 E1.87936
G1 X122.110 Y94.260 E1.94244
G1 X122.140 Y95.000 E1.95360
G1 X122.110 Y95.740 E1.96477
G1 X121.680 Y99.890 E2.02770
G1 X121.560 Y100.630 E2.03900
G1 X121.370 Y101.360 E2.05038
G1 X120.080 Y105.340 E2.11348
G1 X119.810 Y106.040 E2.12479
G1 X119.470 Y106.710 E2.13613
G1 X117.380 Y110.330 E2.19917
G1 X116.970 Y110.960 E2.21050
G1 X116.500 Y111.540 E2.22176
G1 X113.700 Y114.650 E2.28487
G1 X113.170 Y115.180 E2.29618
G1 X112.580 Y115.650 E2.30755
G1 X109.190 Y118.110 E2.37072
G1 X108.570 Y118.520 E2.38193
G1 X107.910 Y118.850 E2.39306
G1 X104.100 Y120.550 E2.45598
G1 X103.390 Y120.820 E2.46744
G1 X102.670 Y121.020 E2.47871
G1 X98.580 Y121.890 E2.54177
G1 X97.840 Y122.010 E2.55308
G1 X97.090 Y122.040 E2.56440
G1 X92.900 Y122.040 E2.62759
G1 X92.150 Y122.010 E2.63891
G1 X91.410 Y121.890 E2.65022
G1 X87.320 Y121.020 E2.71328
G1 X86.600 Y120.820 E2.72455
G1 X85.900 Y120.560 E2.73581
G1 X82.080 Y118.860 E2.79887
G1 X81.410 Y118.510 E2.81027
G1 X80.780 Y118.100 E2.82161
G1 X77.400 Y115.640 E2.88466
G1 X76.820 Y115.170 E2.89592
G1 X76.290 Y114.650 E2.90711
G1 X73.490 Y111.540 E2.97023
G1 X73.020 Y110.960 E2.98148
G1 X72.610 Y110.330 E2.99282
G1 X70.520 Y106.710 E3.05586
G1 X70.180 Y106.040 E3.06719
G1 X69.910 Y105.340 E3.07851
G1 X68.620 Y101.360 E3.14161
G1 X68.430 Y100.630 E3.15298
G1 X68.310 Y99.890 E3.16429
G1 X67.880 Y95.740 E3.22721
G1 X67.850 Y95.000 E3.23838
G1 X67.880 Y94.260 E3.24955
G1 X68.310 Y90.100 E3.31263
G1 X68.430 Y89.360 E3.32393
G1 X68.620 Y88.630 E3.33531
G1 X69.910 Y84.650 E3.39841
G1 X70.180 Y83.950 E3.40972
G1 X70.520 Y83.280 E3.42105
G1 X72.610 Y79.660 E3.48410
G1 X73.020 Y79.030 E3.49543
G1 X73.490 Y78.450 E3.50669
G1 X76.251 Y75.383 E3.56893
G1 X76.580 Y75.600 F12000.000
G1 X77.080 Y75.100 F900.000 E3.57960
G1 X77.630 Y74.660 E3.59022
G1 X81.010 Y72.200 E3.65327
G1 X81.600 Y71.810 E3.66393
G1 X82.240 Y71.490 E3.67472
G1 X86.060 Y69.790 E3.73778
G1 X86.730 Y69.530 E3.74862
G1 X87.420 Y69.350 E3.75938
G1 X91.510 Y68.490 E3.82241
G1 X92.200 Y68.380 E3.83295
G1 X92.900 Y68.340 E3.84352
G1 X97.090 Y68.340 E3.90671
G1 X97.790 Y68.380 E3.91729
G1 X98.480 Y68.490 E3.92782
G1 X102.570 Y69.350 E3.99086
G1 X103.270 Y69.530 E4.00176
G1 X103.940 Y69.790 E4.01260
G1 X107.750 Y71.490 E4.07552
G1 X108.380 Y71.810 E4.08617
G1 X108.970 Y72.190 E4.09676
G1 X112.360 Y74.650 E4.15993
G1 X112.910 Y75.100 E4.17065
G1 X113.410 Y75.600 E4.18131
G1 X116.210 Y78.710 E4.24442
G1 X116.660 Y79.260 E4.25514
G1 X117.040 Y79.860 E4.26585
G1 X119.130 Y83.480 E4.32889
G1 X119.460 Y84.110 E4.33962
G1 X119.710 Y84.770 E4.35026
G1 X121.000 Y88.750 E4.41336
G1 X121.180 Y89.440 E4.42412
G1 X121.290 Y90.140 E4.43480
G1 X121.720 Y94.300 E4.49788
G1 X121.760 Y95.000 E4.50845
G1 X121.720 Y95.700 E4.51902
G1 X121.290 Y99.850 E4.58195
G1 X121.180 Y100.550 E4.59263
G1 X121.000 Y101.240 E4.60339
G1 X119.710 Y105.220 E4.66649
G1 X119.460 Y105.880 E4.67713
G1 X119.130 Y106.510 E4.68786
G1 X117.040 Y110.130 E4.75090
G1 X116.660 Y110.730 E4.76161
G1 X116.210 Y111.280 E4.77233
G1 X113.410 Y114.390 E4.83544
G1 X112.910 Y114.890 E4.84610
G1 X112.360 Y115.340 E4.85682
G1 X108.970 Y117.800 E4.91999
G1 X108.380 Y118.180 E4.93058
G1 X107.750 Y118.500 E4.94123
G1 X103.940 Y120.200 E5.00415
G1 X103.280 Y120.460 E5.01485
G1 X102.590 Y120.640 E5.02561
G1 X98.500 Y121.510 E5.08867
G1 X97.800 Y121.620 E5.09936
G1 X97.090 Y121.660 E5.11008
G1 X92.900 Y121.660 E5.17327
G1 X92.190 Y121.620 E5.18400
G1 X91.490 Y121.510 E5.19468
G1 X87.400 Y120.640 E5.25775
G1 X86.720 Y120.460 E5.26836
G1 X86.060 Y120.200 E5.27906
G1 X82.240 Y118.500 E5.34211
G1 X81.600 Y118.180 E5.35291
G1 X81.010 Y117.790 E5.36357
G1 X77.630 Y115.330 E5.42662
G1 X77.080 Y114.890 E5.43724
G1 X76.580 Y114.390 E5.44791
G1 X73.780 Y111.280 E5.51102
G1 X73.330 Y110.730 E5.52174
G1 X72.950 Y110.130 E5.53245
G1 X70.860 Y106.510 E5.59549
G1 X70.530 Y105.880 E5.60621
G1 X70.280 Y105.220 E5.61686
G1 X68.990 Y101.240 E5.67996
G1 X68.810 Y100.550 E5.69071
G1 X68.700 Y99.850 E5.70140
G1 X68.270 Y95.700 E5.76432
G1 X68.230 Y95.000 E5.77490
G1 X68.270 Y94.300 E5.78547
G1 X68.700 Y90.140 E5.84854
G1 X68.810 Y89.440 E5.85923
G1 X68.990 Y88.750 E5.86999
G1 X70.280 Y84.770 E5.93308
G1 X70.530 Y84.110 E5.94373
G1 X70.860 Y83.480 E5.95445
G1 X72.950 Y79.860 E6.01750
G1 X73.330 Y79.260 E6.02821
G1 X73.780 Y78.710 E6.03892
G1 X76.541 Y75.643 E6.10117
G1 X76.860 Y75.860 F12000.000
G1 X77.340 Y75.390 F900.000 E6.11130
G1 X77.850 Y74.970 E6.12126
G1 X81.230 Y72.510 E6.18431
G1 X81.800 Y72.140 E6.19456
G1 X82.390 Y71.840 E6.20454
G1 X86.210 Y70.140 E6.26760
G1 X86.840 Y69.900 E6.27777
G1 X87.500 Y69.720 E6.28808
G1 X91.590 Y68.860 E6.35112
G1 X92.240 Y68.760 E6.36103
G1 X92.900 Y68.730 E6.37100
G1 X97.090 Y68.730 E6.43419
G1 X97.750 Y68.760 E6.44415
G1 X98.400 Y68.860 E6.45407
G1 X102.490 Y69.720 E6.51711
G1 X103.150 Y69.900 E6.52742
G1 X103.780 Y70.140 E6.53759
G1 X107.590 Y71.840 E6.60051
G1 X108.180 Y72.140 E6.61049
G1 X108.740 Y72.500 E6.62053
G1 X112.130 Y74.960 E6.68370
G1 X112.650 Y75.380 E6.69378
G1 X113.130 Y75.860 E6.70402
G1 X115.930 Y78.970 E6.76713
G1 X116.350 Y79.490 E6.77722
G1 X116.710 Y80.050 E6.78726
G1 X118.800 Y83.670 E6.85030
G1 X119.100 Y84.270 E6.86041
G1 X119.340 Y84.890 E6.87044
G1 X120.630 Y88.870 E6.93354
G1 X120.810 Y89.520 E6.94371
G1 X120.910 Y90.180 E6.95378
G1 X121.340 Y94.340 E7.01685
G1 X121.370 Y95.000 E7.02682
G1 X121.340 Y95.660 E7.03678
G1 X120.910 Y99.810 E7.09970
G1 X120.810 Y100.470 E7.10977
G1 X120.630 Y101.120 E7.11994
G1 X119.340 Y105.100 E7.18304
G1 X119.100 Y105.720 E7.19307
G1 X118.800 Y106.320 E7.20319
G1 X116.710 Y109.940 E7.26623
G1 X116.350 Y110.500 E7.27627
G1 X115.930 Y111.020 E7.28635
G1 X113.130 Y114.130 E7.34946
G1 X112.650 Y114.610 E7.35970
G1 X112.130 Y115.030 E7.36978
G1 X108.740 Y117.490 E7.43295
G1 X108.180 Y117.850 E7.44299
G1 X107.590 Y118.150 E7.45297
G1 X103.780 Y119.850 E7.51589
G1 X103.160 Y120.090 E7.52592
G1 X102.510 Y120.270 E7.53609
G1 X98.420 Y121.140 E7.59916
G1 X97.760 Y121.240 E7.60922
G1 X97.090 Y121.270 E7.61934
G1 X92.900 Y121.270 E7.68253
G1 X92.230 Y121.240 E7.69264
G1 X91.570 Y121.140 E7.70271
G1 X87.480 Y120.270 E7.76578
G1 X86.840 Y120.090 E7.77580
G1 X86.210 Y119.850 E7.78597
G1 X82.390 Y118.150 E7.84903
G1 X81.800 Y117.850 E7.85901
G1 X81.230 Y117.480 E7.86926
G1 X77.850 Y115.020 E7.93231
G1 X77.340 Y114.600 E7.94227
G1 X76.860 Y114.130 E7.95240
G1 X74.060 Y111.020 E8.01552
G1 X73.640 Y110.500 E8.02560
G1 X73.280 Y109.940 E8.03564
G1 X71.190 Y106.320 E8.09868
G1 X70.890 Y105.720 E8.10879
G1 X70.650 Y105.100 E8.11882
G1 X69.360 Y101.120 E8.18192
G1 X69.180 Y100.470 E8.19209
G1 X69.080 Y99.810 E8.20216
G1 X68.650 Y95.660 E8.26508
G1 X68.620 Y95.000 E8.27505
G1 X68.650 Y94.340 E8.28501
G1 X69.080 Y90.180 E8.34809
G1 X69.180 Y89.520 E8.35815
G1 X69.360 Y88.870 E8.36832
G1 X70.650 Y84.890 E8.43142
G1 X70.890 Y84.270 E8.44145
G1 X71.190 Y83.670 E8.45157
G1 X73.280 Y80.050 E8.51461
G1 X73.640 Y79.490 E8.52465
G1 X74.060 Y78.970 E8.53473
G1 X76.821 Y75.903 E8.59697
G1 F1800.000 E7.59697
G92 E0
G1 X82.265 Y80.856 F12000.000
G1 F1800.000 E1.00000
G1 X85.484 Y78.517 F900.000 E1.06001
G1 X89.119 Y76.899 E1.12002
G1 X93.011 Y76.072 E1.18002
G1 X96.989 Y76.072 E1.24003
G1 X100.881 Y76.899 E1.30004
G1 X104.516 Y78.517 E1.36005
G1 X107.755 Y80.878 E1.42049
G1 X110.398 Y83.813 E1.48005
G1 X112.387 Y87.259 E1.54006
G1 X113.617 Y91.043 E1.60007
G1 X114.033 Y95.000 E1.66008
G1 X113.617 Y98.957 E1.72008
G1 X112.387 Y102.741 E1.78009
G1 X110.398 Y106.187 E1.84010
G1 X107.735 Y109.144 E1.90011
G1 X104.516 Y111.483 E1.96012
G1 X100.881 Y113.101 E2.02012
G1 X96.989 Y113.928 E2.08013
G1 X93.011 Y113.928 E2.14014
G1 X89.119 Y113.101 E2.20015
G1 X85.484 Y111.483 E2.26016
G1 X82.265 Y109.144 E2.32016
G1 X79.602 Y106.187 E2.38017
G1 X77.461 Y102.478 E2.44476
G1 X77.527 Y102.478 E2.44576
G1 X76.383 Y98.957 E2.50160
G1 X75.967 Y95.000 E2.56161
G1 X76.383 Y91.043 E2.62161
G1 X77.613 Y87.259 E2.68162
G1 X79.602 Y83.813 E2.74163
G1 X82.226 Y80.899 E2.80077
G1 F1800.000 E1.80077
G92 E0
G1 X76.005 Y90.962 F12000.000
G1 F1800.000 E1.00000
G1 X77.259 Y87.101 F900.000 E1.06123
G1 X79.289 Y83.585 E1.12246
G1 X82.006 Y80.568 E1.18368
G1 X85.290 Y78.182 E1.24491
G1 X88.999 Y76.531 E1.30614
G1 X92.970 Y75.687 E1.36737
G1 X97.030 Y75.687 E1.42860
G1 X101.001 Y76.531 E1.48982
G1 X104.710 Y78.182 E1.55105
G1 X107.994 Y80.568 E1.61228
G1 X110.711 Y83.585 E1.67351
G1 X112.741 Y87.101 E1.73474
G1 X113.995 Y90.962 E1.79596
G1 X114.420 Y95.000 E1.85719
G1 X113.995 Y99.038 E1.91842
G1 X112.741 Y102.899 E1.97965
G1 X110.711 Y106.415 E2.04088
G1 X107.994 Y109.432 E2.10210
G1 X104.710 Y111.818 E2.16333
G1 X101.001 Y113.469 E2.22456
G1 X97.098 Y114.299 E2.28473
G1 X97.030 Y114.313 E2.28579
G1 X92.970 Y114.313 E2.34702
G1 X88.999 Y113.469 E2.40824
G1 X85.290 Y111.818 E2.46947
G1 X82.006 Y109.432 E2.53070
G1 X79.289 Y106.415 E2.59193
G1 X77.259 Y102.899 E2.65316
G1 X76.005 Y99.038 E2.71438
G1 X75.580 Y95.000 E2.77561
G1 X75.999 Y91.020 E2.83597
G1 X75.626 Y90.882 F12000.000
G1 X76.906 Y86.944 F900.000 E2.89842
G1 X78.976 Y83.358 E2.96087
G1 X81.747 Y80.281 E3.02331
G1 X85.097 Y77.847 E3.08576
G1 X88.879 Y76.163 E3.14821
G1 X92.930 Y75.302 E3.21066
G1 X97.070 Y75.302 E3.27311
G1 X101.121 Y76.163 E3.33555
G1 X104.903 Y77.847 E3.39800
G1 X108.253 Y80.281 E3.46045
G1 X111.024 Y83.358 E3.52290
G1 X113.094 Y86.944 E3.58535
G1 X114.374 Y90.882 E3.64779
G1 X114.807 Y95.000 E3.71024
G1 X114.374 Y99.118 E3.77269
G1 X113.094 Y103.056 E3.83514
G1 X111.024 Y106.642 E3.89759
G1 X108.253 Y109.719 E3.96003
G1 X104.903 Y112.153 E4.02248
G1 X101.121 Y113.837 E4.08493
G1 X97.178 Y114.675 E4.14571
G1 X97.070 Y114.698 E4.14738
G1 X92.930 Y114.698 E4.20983
G1 X88.879 Y113.837 E4.27227
G1 X85.097 Y112.153 E4.33472
G1 X81.747 Y109.719 E4.39717
G1 X78.976 Y106.642 E4.45962
G1 X76.906 Y103.056 E4.52207
G1 X75.626 Y99.118 E4.58451
G1 X75.193 Y95.000 E4.64696
G1 X75.620 Y90.939 E4.70854
G1 X75.996 Y90.776 F12000.000
G1 F1800.000 E3.70854
G92 E0
G1 X79.354 Y105.198 F12000.000
G1 F1800.000 E1.00000
G1 X84.787 Y110.632 F1800.000 E1.11605
G1 X86.194 Y111.494 E1.14097
G1 X78.609 Y103.909 E1.30298
G1 X77.867 Y102.622 E1.32541
G1 X87.176 Y111.931 E1.52425
G1 X88.159 Y112.368 E1.54049
G1 X77.605 Y101.815 E1.76592
G1 X77.343 Y101.007 E1.77874
G1 X89.141 Y112.806 E2.03076
G1 X89.852 Y112.972 E2.04179
G1 X77.080 Y100.200 E2.31460
G1 X76.818 Y99.393 E2.32742
G1 X90.544 Y113.119 E2.62062
G1 X91.237 Y113.266 E2.63131
G1 X76.633 Y98.662 E2.94325
G1 X76.569 Y98.053 E2.95250
G1 X91.929 Y113.413 E3.28059
G1 X92.621 Y113.560 E3.29128
G1 X76.505 Y97.444 E3.63553
G1 X76.441 Y96.835 E3.64478
G1 X93.255 Y113.649 E4.00394
G1 X93.800 Y113.649 E4.01217
G1 X76.377 Y96.226 E4.38434
G1 X76.313 Y95.617 E4.39359
G1 X94.345 Y113.649 E4.77877
G1 X94.890 Y113.649 E4.78700
G1 X76.249 Y95.008 E5.18519
G1 X76.299 Y94.513 E5.19270
G1 X95.435 Y113.649 E5.60145
G1 X95.980 Y113.649 E5.60968
G1 X76.351 Y94.020 E6.02897
G1 X76.403 Y93.527 E6.03646
G1 X96.525 Y113.649 E6.46629
G1 X97.051 Y113.630 E6.47423
G1 X76.455 Y93.033 E6.91418
G1 X76.506 Y92.540 E6.92167
G1 X97.501 Y113.534 E7.37011
G1 X97.950 Y113.439 E7.37705
G1 X76.558 Y92.047 E7.83399
G1 X76.610 Y91.554 E7.84148
G1 X98.400 Y113.343 E8.30691
G1 X98.849 Y113.248 E8.31385
G1 X76.669 Y91.067 E8.78763
G1 X76.802 Y90.656 E8.79417
G1 X99.299 Y113.152 E9.27469
G1 X99.748 Y113.057 E9.28163
G1 X76.936 Y90.244 E9.76891
G1 X77.070 Y89.833 E9.77544
G1 X100.198 Y112.961 E10.26946
G1 X100.647 Y112.866 E10.27640
G1 X77.203 Y89.422 E10.77717
G1 X77.337 Y89.010 E10.78370
G1 X101.048 Y112.721 E11.29017
G1 X101.425 Y112.554 E11.29641
G1 X77.471 Y88.599 E11.80808
G1 X77.604 Y88.188 E11.81462
G1 X101.802 Y112.386 E12.33149
G1 X102.180 Y112.218 E12.33773
G1 X77.738 Y87.776 E12.85980
G1 X77.873 Y87.366 E12.86632
G1 X102.557 Y112.050 E13.39357
G1 X102.934 Y111.882 E13.39981
G1 X78.072 Y87.021 E13.93085
G1 X78.272 Y86.675 E13.93688
G1 X103.311 Y111.714 E14.47171
G1 X103.688 Y111.546 E14.47795
G1 X78.471 Y86.329 E15.01658
G1 X78.671 Y85.984 E15.02261
G1 X104.065 Y111.378 E15.56503
G1 X104.432 Y111.199 E15.57119
G1 X78.870 Y85.638 E16.11718
G1 X79.070 Y85.293 E16.12320
G1 X104.747 Y110.970 E16.67168
G1 X105.063 Y110.741 E16.67757
G1 X79.269 Y84.947 E17.22852
G1 X79.469 Y84.602 E17.23455
G1 X105.379 Y110.511 E17.78798
G1 X105.694 Y110.282 E17.79388
G1 X79.669 Y84.256 E18.34979
G1 X79.879 Y83.922 E18.35576
G1 X106.010 Y110.053 E18.91392
G1 X106.326 Y109.823 E18.91981
G1 X80.138 Y83.635 E19.47919
G1 X80.396 Y83.348 E19.48502
G1 X106.641 Y109.594 E20.04563
G1 X106.957 Y109.365 E20.05152
G1 X80.654 Y83.062 E20.61336
G1 X80.912 Y82.775 E20.61919
G1 X107.273 Y109.135 E21.18225
G1 X107.581 Y108.898 E21.18812
G1 X81.171 Y82.488 E21.75225
G1 X81.429 Y82.201 E21.75808
G1 X107.839 Y108.612 E22.32221
G1 X108.098 Y108.325 E22.32804
G1 X81.687 Y81.914 E22.89217
G1 X81.945 Y81.627 E22.89800
G1 X108.356 Y108.038 E23.46213
G1 X108.614 Y107.751 E23.46796
G1 X82.204 Y81.341 E24.03209
G1 X82.464 Y81.056 E24.03792
G1 X108.872 Y107.464 E24.60200
G1 X109.131 Y107.177 E24.60783
G1 X82.780 Y80.827 E25.17069
G1 X83.095 Y80.597 E25.17658
G1 X109.389 Y106.891 E25.73821
G1 X109.647 Y106.604 E25.74404
G1 X83.411 Y80.368 E26.30445
G1 X83.727 Y80.138 E26.31034
G1 X109.905 Y106.317 E26.86952
G1 X110.164 Y106.030 E26.87534
G1 X84.042 Y79.909 E27.43329
G1 X84.358 Y79.680 E27.43919
G1 X110.365 Y105.686 E27.99469
G1 X110.564 Y105.341 E28.00072
G1 X84.674 Y79.450 E28.55374
G1 X84.990 Y79.221 E28.55963
G1 X110.764 Y104.995 E29.11017
G1 X110.963 Y104.650 E29.11620
G1 X85.305 Y78.992 E29.66426
G1 X85.621 Y78.762 E29.67015
G1 X111.163 Y104.304 E30.21573
G1 X111.362 Y103.959 E30.22175
G1 X85.998 Y78.594 E30.76355
G1 X86.375 Y78.426 E30.76978
G1 X111.562 Y103.613 E31.30778
G1 X111.761 Y103.267 E31.31381
G1 X86.752 Y78.258 E31.84801
G1 X87.129 Y78.090 E31.85425
G1 X111.961 Y102.922 E32.38466
G1 X112.151 Y102.567 E32.39074
G1 X87.506 Y77.922 E32.91715
G1 X87.883 Y77.754 E32.92339
G1 X112.284 Y102.155 E33.44459
G1 X112.418 Y101.744 E33.45113
G1 X88.260 Y77.586 E33.96714
G1 X88.638 Y77.418 E33.97337
G1 X112.552 Y101.333 E34.48418
G1 X112.685 Y100.921 E34.49071
G1 X89.015 Y77.251 E34.99632
G1 X89.428 Y77.118 E35.00287
G1 X112.819 Y100.510 E35.50251
G1 X112.953 Y100.098 E35.50904
G1 X89.877 Y77.023 E36.00194
G1 X90.327 Y76.927 E36.00888
