; generated by Slic3r 0.9.10b on 2013-11-04 at 10:51:28

; layer_height = 0.35
; perimeters = 3
; top_solid_layers = 3
; bottom_solid_layers = 3
; fill_density = 0.2
; perimeter_speed = 50
; infill_speed = 85
; travel_speed = 300
; nozzle_diameter = 0.5
; filament_diameter = 2.87
; extrusion_multiplier = 1
; perimeters extrusion width = 0.58mm
; infill extrusion width = 0.58mm
; solid infill extrusion width = 0.58mm
; top infill extrusion width = 0.58mm
; support material extrusion width = 0.58mm

G21 ; set units to millimeters
M107
G28 ; home all axes
G90 ; use absolute coordinates
G92 E0
M82 ; use absolute distances for extrusion
G1 F1800.000 E-1.00000
G92 E0
G1 Z0.350 F18000.000
G1 X67.175 Y78.030
G1 F1800.000 E1.00000
G1 X68.805 Y76.650 F1500.000 E1.06482
G1 X70.305 Y75.530 E1.12164
G1 X70.715 Y75.250 E1.13671
G1 X72.495 Y74.120 E1.20070
G1 X73.005 Y73.830 E1.21851
G1 X75.175 Y72.710 E1.29262
G1 X75.845 Y72.410 E1.31491
G1 X78.775 Y71.290 E1.41011
G1 X79.335 Y71.110 E1.42796
G1 X79.905 Y70.970 E1.44578
G1 X86.185 Y69.800 E1.63966
G1 X126.665 Y64.190 E2.88002
G1 X127.565 Y64.130 E2.90740
G1 X131.905 Y64.130 E3.03912
G1 X133.235 Y64.260 E3.07968
G1 X134.505 Y64.670 E3.12019
G1 X135.665 Y65.320 E3.16055
G1 X137.265 Y66.440 E3.21982
G1 X137.735 Y66.790 E3.23761
G1 X138.165 Y67.190 E3.25543
G1 X139.275 Y68.310 E3.30329
G1 X139.685 Y68.770 E3.32200
G1 X140.605 Y69.890 E3.36599
G1 X141.225 Y70.780 E3.39891
G1 X141.875 Y71.910 E3.43848
G1 X142.115 Y72.370 E3.45422
G1 X142.645 Y73.490 E3.49183
G1 X142.925 Y74.190 E3.51471
G1 X143.305 Y75.310 E3.55061
G1 X143.565 Y76.320 E3.58226
G1 X143.755 Y77.440 E3.61674
G1 X143.825 Y78.020 E3.63447
G1 X143.845 Y78.600 E3.65209
G1 X143.835 Y79.720 E3.68608
G1 X143.685 Y81.080 E3.72761
G1 X143.245 Y82.380 E3.76927
G1 X127.475 Y116.950 E4.92252
G1 X126.565 Y118.720 E4.98293
G1 X125.725 Y120.130 E5.03274
G1 X124.845 Y121.470 E5.08140
G1 X124.055 Y122.570 E5.12250
G1 X122.855 Y124.070 E5.18081
G1 X121.985 Y125.050 E5.22058
G1 X120.595 Y126.460 E5.28068
G1 X119.625 Y127.350 E5.32063
G1 X118.455 Y128.340 E5.36715
G1 X117.185 Y129.330 E5.41602
G1 X115.685 Y130.370 E5.47142
G1 X114.325 Y131.210 E5.51994
G1 X112.615 Y132.160 E5.57931
G1 X111.365 Y132.770 E5.62153
G1 X109.525 Y133.550 E5.68218
G1 X107.935 Y134.130 E5.73355
G1 X106.385 Y134.610 E5.78280
G1 X105.075 Y134.960 E5.82395
G1 X103.445 Y135.320 E5.87462
G1 X101.765 Y135.590 E5.92626
G1 X99.785 Y135.820 E5.98676
G1 X98.125 Y135.910 E6.03722
G1 X96.525 Y135.930 E6.08579
G1 X82.795 Y135.590 E6.50264
G1 X81.895 Y135.500 E6.53009
G1 X81.015 Y135.300 E6.55748
G1 X77.405 Y134.180 E6.67220
G1 X76.595 Y133.870 E6.69852
G1 X74.165 Y132.750 E6.77973
G1 X73.625 Y132.460 E6.79834
G1 X71.695 Y131.340 E6.86606
G1 X71.235 Y131.050 E6.88257
G1 X69.615 Y129.920 E6.94252
G1 X69.245 Y129.650 E6.95642
G1 X67.855 Y128.530 E7.01060
G1 X66.305 Y127.110 E7.07440
G1 X66.025 Y126.830 E7.08642
G1 X64.735 Y125.480 E7.14309
G1 X63.765 Y124.360 E7.18806
G1 X62.515 Y122.710 E7.25089
G1 X61.455 Y121.180 E7.30738
G1 X60.695 Y119.910 E7.35230
G1 X59.875 Y118.420 E7.40392
G1 X59.225 Y117.060 E7.44967
G1 X58.735 Y115.930 E7.48705
G1 X58.085 Y114.260 E7.54145
G1 X57.715 Y113.140 E7.57725
G1 X57.285 Y111.600 E7.62577
G1 X56.895 Y110.040 E7.67458
G1 X56.685 Y108.910 E7.70946
G1 X56.595 Y108.180 E7.73179
G1 X56.495 Y106.590 E7.78014
G1 X56.495 Y98.740 E8.01840
G1 X56.585 Y97.640 E8.05190
G1 X56.775 Y96.520 E8.08638
G1 X57.155 Y94.850 E8.13836
G1 X57.445 Y93.730 E8.17347
G1 X57.985 Y91.990 E8.22877
G1 X58.505 Y90.590 E8.27410
G1 X59.045 Y89.310 E8.31626
G1 X59.705 Y87.860 E8.36462
G1 X60.285 Y86.740 E8.40290
G1 X61.185 Y85.230 E8.45625
G1 X61.965 Y84.010 E8.50020
G1 X62.235 Y83.610 E8.51485
G1 X63.225 Y82.280 E8.56517
G1 X64.135 Y81.150 E8.60920
G1 X65.385 Y79.760 E8.66594
G1 X65.695 Y79.430 E8.67968
G1 X66.855 Y78.310 E8.72862
G1 X67.112 Y78.085 E8.73898
G1 F1800.000 E7.73898
G92 E0
G1 X81.117 Y77.424 F18000.000
G1 F1800.000 E1.00000
G1 X87.168 Y77.424 F1800.000 E1.18365
G1 X84.501 Y78.546 E1.27147
G1 X78.193 Y78.546 E1.46292
G1 X76.016 Y79.668 E1.53726
G1 X82.392 Y79.668 E1.73077
G1 X80.651 Y80.790 E1.79363
G1 X74.244 Y80.790 E1.98808
G1 X72.737 Y81.912 E2.04511
G1 X79.139 Y81.912 E2.23943
G1 X77.817 Y83.034 E2.29206
G1 X71.421 Y83.034 E2.48619
G1 X70.264 Y84.156 E2.53510
G1 X76.655 Y84.156 E2.72905
G1 X75.614 Y85.278 E2.77549
G1 X69.248 Y85.278 E2.96871
G1 X68.339 Y86.400 E3.01255
G1 X74.681 Y86.400 E3.20504
G1 X73.843 Y87.522 E3.24755
G1 X67.513 Y87.522 E3.43965
G1 X66.795 Y88.644 E3.48008
G1 X73.089 Y88.644 E3.67111
G1 X72.413 Y89.766 E3.71087
G1 X66.118 Y89.766 E3.90194
G1 X65.545 Y90.888 E3.94018
G1 X71.807 Y90.888 E4.13026
G1 X71.271 Y92.010 E4.16799
G1 X65.030 Y92.010 E4.35743
G1 X64.557 Y93.132 E4.39439
G1 X70.792 Y93.132 E4.58362
G1 X70.371 Y94.254 E4.61999
G1 X64.152 Y94.254 E4.80877
G1 X63.805 Y95.376 E4.84441
G1 X70.006 Y95.376 E5.03263
G1 X69.697 Y96.498 E5.06796
G1 X63.511 Y96.498 E5.25570
G1 X63.251 Y97.620 E5.29066
G1 X69.444 Y97.620 E5.47861
G1 X69.240 Y98.742 E5.51322
G1 X63.055 Y98.742 E5.70093
G1 X63.055 Y99.864 E5.73498
G1 X69.083 Y99.864 E5.91794
G1 X68.973 Y100.986 E5.95215
G1 X63.055 Y100.986 E6.13178
G1 X63.055 Y102.108 E6.16584
G1 X68.910 Y102.108 E6.34356
G1 X68.895 Y103.230 E6.37761
G1 X63.055 Y103.230 E6.55486
G1 X63.055 Y104.352 E6.58892
G1 X68.929 Y104.352 E6.76720
G1 X69.014 Y105.474 E6.80135
G1 X63.055 Y105.474 E6.98222
G1 X63.055 Y106.596 E7.01627
G1 X69.145 Y106.596 E7.20113
G1 X69.326 Y107.718 E7.23562
G1 X63.140 Y107.718 E7.42337
G1 X63.349 Y108.840 E7.45801
G1 X69.554 Y108.840 E7.64634
G1 X69.832 Y109.962 E7.68143
G1 X63.639 Y109.962 E7.86939
G1 X63.954 Y111.084 E7.90475
G1 X70.163 Y111.084 E8.09320
G1 X70.547 Y112.206 E8.12920
G1 X64.323 Y112.206 E8.31812
G1 X64.756 Y113.328 E8.35462
G1 X70.988 Y113.328 E8.54379
G1 X71.495 Y114.450 E8.58115
G1 X65.251 Y114.450 E8.77065
G1 X65.794 Y115.572 E8.80848
G1 X72.063 Y115.572 E8.99875
G1 X72.699 Y116.694 E9.03790
G1 X66.419 Y116.694 E9.22851
G1 X67.094 Y117.816 E9.26825
G1 X73.408 Y117.816 E9.45989
G1 X74.197 Y118.938 E9.50150
G1 X67.877 Y118.938 E9.69331
G1 X68.729 Y120.060 E9.73608
G1 X75.074 Y120.060 E9.92864
G1 X76.058 Y121.182 E9.97393
G1 X69.696 Y121.182 E10.16701
G1 X70.765 Y122.304 E10.21405
G1 X77.157 Y122.304 E10.40805
G1 X78.391 Y123.426 E10.45867
G1 X71.977 Y123.426 E10.65334
G1 X73.367 Y124.548 E10.70755
G1 X79.785 Y124.548 E10.90237
G1 X81.390 Y125.670 E10.96180
G1 X74.990 Y125.670 E11.15603
G1 X76.917 Y126.792 E11.22370
G1 X83.280 Y126.792 E11.41680
G1 F1800.000 E10.41680
G92 E0
G1 X82.958 Y129.036 F18000.000
G1 F1800.000 E1.00000
G1 X88.677 Y129.036 F1800.000 E1.17358
G1 F1800.000 E0.17358
G92 E0
G1 X85.598 Y127.914 F18000.000
G1 F1800.000 E1.00000
G1 X79.348 Y127.914 F1800.000 E1.18968
G1 F1800.000 E0.18968
G92 E0
G1 X87.088 Y76.302 F18000.000
G1 F1800.000 E1.00000
G1 X89.774 Y76.302 F1800.000 E1.08151
G1 F1800.000 E0.08151
G92 E0
G1 X120.405 Y87.522 F18000.000
G1 F1800.000 E1.00000
G1 X120.020 Y87.522 F1800.000 E1.01170
G1 X119.180 Y86.400 E1.05423
G1 X121.984 Y86.400 E1.13932
G1 X123.641 Y85.278 E1.20005
G1 X118.246 Y85.278 E1.36379
G1 X117.205 Y84.156 E1.41026
G1 X125.442 Y84.156 E1.66027
G1 X127.366 Y83.034 E1.72788
G1 X116.040 Y83.034 E2.07167
G1 X114.729 Y81.912 E2.12404
G1 X129.510 Y81.912 E2.57267
G1 X130.773 Y80.790 E2.62394
G1 X113.213 Y80.790 E3.15688
G1 X111.898 Y79.668 E3.20935
G1 X130.004 Y79.668 E3.75887
G1 X129.366 Y78.546 E3.79804
G1 X113.414 Y78.546 E4.28221
G1 X114.991 Y77.424 E4.34096
G1 X128.846 Y77.424 E4.76148
G1 X128.446 Y76.302 E4.79764
G1 X116.640 Y76.302 E5.15595
G1 X118.380 Y75.180 E5.21877
G1 X128.168 Y75.180 E5.51584
G1 X128.101 Y74.058 E5.54995
G1 X120.234 Y74.058 E5.78873
G1 X122.288 Y72.936 E5.85978
G1 X128.393 Y72.936 E6.04506
G1 F1800.000 E5.04506
G92 E0
G1 X127.574 Y70.692 F18000.000
G1 F1800.000 E1.00000
G1 X131.907 Y70.692 F1800.000 E1.13150
G1 X133.506 Y71.814 E1.19080
G1 X124.595 Y71.814 E1.46125
G1 F1800.000 E0.46125
G92 E0
G1 X132.586 Y72.936 F18000.000
G1 F1800.000 E1.00000
G1 X134.621 Y72.936 F1800.000 E1.06178
G1 X133.830 Y74.058 E1.10346
G1 X135.536 Y74.058 E1.15525
G1 X136.185 Y75.180 E1.19458
G1 X134.737 Y75.180 E1.23852
G1 X135.436 Y76.302 E1.27865
G1 X136.718 Y76.302 E1.31753
G1 X137.098 Y77.424 E1.35349
G1 X135.984 Y77.424 E1.38729
G1 X136.390 Y78.546 E1.42350
G1 X137.288 Y78.546 E1.45077
G1 X137.279 Y79.668 E1.48482
G1 X136.628 Y79.668 E1.50459
G1 F1800.000 E0.50459
G92 E0
G1 X119.112 Y90.256 F18000.000
G1 F1800.000 E1.00000
G1 X119.658 Y91.196 F1500.000 E1.03300
G1 X119.947 Y91.738 E1.05164
G1 X120.486 Y92.841 E1.08890
G1 X120.979 Y93.995 E1.12698
G1 X121.391 Y95.111 E1.16310
G1 X121.763 Y96.296 E1.20081
G1 X122.068 Y97.472 E1.23767
G1 X122.310 Y98.642 E1.27394
G1 X122.498 Y99.846 E1.31092
G1 X122.625 Y101.058 E1.34791
G1 X122.691 Y102.274 E1.38488
G1 X122.696 Y103.491 E1.42181
G1 X122.640 Y104.710 E1.45884
G1 X122.522 Y105.924 E1.49585
G1 X122.342 Y107.139 E1.53315
G1 X122.100 Y108.348 E1.57058
G1 X121.796 Y109.546 E1.60807
G1 X121.433 Y110.727 E1.64557
G1 X121.010 Y111.886 E1.68302
G1 X120.529 Y113.024 E1.72052
G1 X119.993 Y114.135 E1.75795
G1 X119.400 Y115.220 E1.79549
G1 X118.759 Y116.267 E1.83276
G1 X118.073 Y117.273 E1.86971
G1 X117.361 Y118.216 E1.90555
G1 X116.487 Y119.260 E1.94690
G1 X115.641 Y120.170 E1.98462
G1 X114.731 Y121.056 E2.02316
G1 X113.827 Y121.855 E2.05977
G1 X112.805 Y122.672 E2.09949
G1 X111.772 Y123.416 E2.13811
G1 X110.751 Y124.079 E2.17508
G1 X109.627 Y124.733 E2.21454
G1 X108.488 Y125.323 E2.25349
G1 X107.319 Y125.857 E2.29248
G1 X106.136 Y126.328 E2.33113
G1 X105.063 Y126.700 E2.36559
G1 X103.687 Y127.103 E2.40910
G1 X102.442 Y127.399 E2.44797
G1 X101.180 Y127.636 E2.48692
G1 X99.923 Y127.809 E2.52544
G1 X98.888 Y127.903 E2.55698
G1 X97.362 Y127.974 E2.60334
G1 X96.057 Y127.963 E2.64295
G1 X94.781 Y127.891 E2.68176
G1 X93.521 Y127.758 E2.72021
G1 X92.308 Y127.572 E2.75745
G1 X91.002 Y127.307 E2.79788
G1 X89.765 Y126.992 E2.83663
G1 X88.564 Y126.623 E2.87478
G1 X87.371 Y126.194 E2.91327
G1 X86.302 Y125.752 E2.94836
G1 X85.062 Y125.168 E2.98997
G1 X83.990 Y124.597 E3.02683
G1 X82.907 Y123.952 E3.06508
G1 X81.853 Y123.253 E3.10347
G1 X80.828 Y122.497 E3.14212
G1 X79.833 Y121.683 E3.18114
G1 X78.952 Y120.890 E3.21712
G1 X78.062 Y120.006 E3.25520
G1 X77.214 Y119.077 E3.29337
G1 X76.413 Y118.105 E3.33161
G1 X75.680 Y117.121 E3.36884
G1 X75.005 Y116.116 E3.40557
G1 X74.455 Y115.209 E3.43778
G1 X74.125 Y114.622 E3.45821
G1 X73.583 Y113.561 E3.49438
G1 X73.080 Y112.448 E3.53145
G1 X72.640 Y111.330 E3.56792
G1 X72.258 Y110.199 E3.60415
G1 X71.928 Y109.037 E3.64082
G1 X71.659 Y107.877 E3.67696
G1 X71.446 Y106.694 E3.71342
G1 X71.291 Y105.500 E3.74999
G1 X71.198 Y104.331 E3.78557
G1 X71.160 Y103.131 E3.82200
G1 X71.183 Y101.931 E3.85843
G1 X71.265 Y100.731 E3.89495
G1 X71.406 Y99.537 E3.93144
G1 X71.610 Y98.327 E3.96868
G1 X71.876 Y97.128 E4.00596
G1 X72.205 Y95.935 E4.04353
G1 X72.590 Y94.770 E4.08077
G1 X73.034 Y93.623 E4.11807
G1 X73.588 Y92.389 E4.15914
G1 X74.090 Y91.404 E4.19271
G1 X74.700 Y90.337 E4.22999
G1 X75.364 Y89.297 E4.26746
G1 X76.080 Y88.290 E4.30495
G1 X76.844 Y87.320 E4.34243
G1 X77.655 Y86.389 E4.37990
G1 X78.511 Y85.498 E4.41739
G1 X79.263 Y84.783 E4.44888
G1 X80.362 Y83.835 E4.49295
G1 X81.339 Y83.077 E4.53049
G1 X82.383 Y82.347 E4.56917
G1 X83.466 Y81.666 E4.60798
G1 X84.560 Y81.051 E4.64607
G1 X85.745 Y80.461 E4.68624
G1 X86.424 Y80.155 E4.70883
G1 X87.551 Y79.698 E4.74577
G1 X88.754 Y79.275 E4.78445
G1 X89.976 Y78.911 E4.82315
G1 X91.218 Y78.605 E4.86200
G1 X92.535 Y78.349 E4.90271
G1 X93.774 Y78.171 E4.94068
G1 X95.049 Y78.050 E4.97957
G1 X96.333 Y77.990 E5.01859
G1 X97.611 Y77.992 E5.05739
G1 X98.914 Y78.057 E5.09698
G1 X100.195 Y78.184 E5.13605
G1 X101.450 Y78.370 E5.17456
G1 X102.682 Y78.613 E5.21267
G1 X103.900 Y78.914 E5.25076
G1 X105.223 Y79.313 E5.29268
G1 X106.286 Y79.688 E5.32689
G1 X107.447 Y80.159 E5.36492
G1 X108.582 Y80.683 E5.40286
G1 X109.690 Y81.262 E5.44080
G1 X110.768 Y81.892 E5.47869
G1 X111.846 Y82.595 E5.51776
G1 X112.788 Y83.276 E5.55306
G1 X113.384 Y83.741 E5.57598
G1 X114.331 Y84.542 E5.61362
G1 X115.215 Y85.365 E5.65027
G1 X116.107 Y86.281 E5.68910
G1 X116.923 Y87.207 E5.72654
G1 X117.703 Y88.186 E5.76453
G1 X118.416 Y89.176 E5.80158
G1 X119.068 Y90.184 E5.83801
G1 X119.556 Y89.905 F18000.000
G1 X120.207 Y91.031 F1500.000 E5.87749
G1 X120.725 Y92.035 E5.91180
G1 X120.995 Y92.604 E5.93091
G1 X121.501 Y93.789 E5.97001
G1 X121.921 Y94.927 E6.00681
G1 X122.303 Y96.145 E6.04556
G1 X122.615 Y97.347 E6.08327
G1 X122.862 Y98.539 E6.12020
G1 X123.054 Y99.770 E6.15802
G1 X123.184 Y101.011 E6.19588
G1 X123.252 Y102.255 E6.23371
G1 X123.257 Y103.500 E6.27149
G1 X123.199 Y104.747 E6.30938
G1 X123.079 Y105.990 E6.34727
G1 X122.895 Y107.234 E6.38544
G1 X122.648 Y108.470 E6.42371
G1 X122.337 Y109.695 E6.46205
G1 X121.965 Y110.903 E6.50041
G1 X121.534 Y112.088 E6.53871
G1 X121.042 Y113.252 E6.57706
G1 X120.494 Y114.388 E6.61534
G1 X119.887 Y115.499 E6.65375
G1 X119.232 Y116.570 E6.69186
G1 X118.530 Y117.599 E6.72966
G1 X117.799 Y118.566 E6.76646
G1 X116.909 Y119.629 E6.80854
G1 X116.044 Y120.560 E6.84710
G1 X115.110 Y121.470 E6.88668
G1 X114.191 Y122.282 E6.92390
G1 X113.142 Y123.121 E6.96467
G1 X112.087 Y123.880 E7.00413
G1 X111.048 Y124.554 E7.04172
G1 X109.895 Y125.226 E7.08222
G1 X108.732 Y125.828 E7.12195
G1 X107.537 Y126.373 E7.16183
G1 X106.331 Y126.854 E7.20123
G1 X105.232 Y127.235 E7.23653
G1 X103.831 Y127.646 E7.28085
G1 X102.560 Y127.948 E7.32052
G1 X101.271 Y128.189 E7.36030
G1 X99.988 Y128.366 E7.39962
G1 X98.924 Y128.463 E7.43205
G1 X97.374 Y128.535 E7.47913
G1 X96.042 Y128.524 E7.51956
G1 X94.739 Y128.450 E7.55919
G1 X93.452 Y128.315 E7.59845
G1 X92.212 Y128.125 E7.63654
G1 X90.881 Y127.855 E7.67776
G1 X89.611 Y127.531 E7.71753
G1 X88.384 Y127.155 E7.75649
G1 X87.165 Y126.716 E7.79579
G1 X86.075 Y126.266 E7.83160
G1 X84.808 Y125.668 E7.87412
G1 X83.712 Y125.085 E7.91181
G1 X82.605 Y124.425 E7.95090
G1 X81.529 Y123.711 E7.99012
G1 X80.482 Y122.939 E8.02959
G1 X79.466 Y122.108 E8.06945
G1 X78.565 Y121.295 E8.10626
G1 X77.655 Y120.392 E8.14517
G1 X76.789 Y119.442 E8.18419
G1 X75.969 Y118.449 E8.22328
G1 X75.220 Y117.443 E8.26134
G1 X74.531 Y116.416 E8.29889
G1 X73.971 Y115.493 E8.33163
G1 X73.633 Y114.891 E8.35260
G1 X73.076 Y113.803 E8.38969
G1 X72.563 Y112.665 E8.42760
G1 X72.113 Y111.522 E8.46486
G1 X71.722 Y110.365 E8.50194
G1 X71.385 Y109.177 E8.53940
G1 X71.109 Y107.987 E8.57648
G1 X70.891 Y106.777 E8.61380
G1 X70.733 Y105.554 E8.65122
G1 X70.638 Y104.364 E8.68746
G1 X70.599 Y103.137 E8.72474
G1 X70.622 Y101.908 E8.76203
G1 X70.706 Y100.679 E8.79942
G1 X70.850 Y99.457 E8.83678
G1 X71.060 Y98.219 E8.87487
G1 X71.332 Y96.992 E8.91301
G1 X71.662 Y95.792 E8.95079
G1 X72.063 Y94.577 E8.98963
G1 X72.517 Y93.405 E9.02779
G1 X73.081 Y92.148 E9.06960
G1 X73.597 Y91.137 E9.10403
G1 X74.219 Y90.047 E9.14215
G1 X74.899 Y88.983 E9.18047
G1 X75.631 Y87.953 E9.21881
G1 X76.386 Y86.994 E9.25584
G1 X77.242 Y86.010 E9.29544
G1 X78.117 Y85.099 E9.33378
G1 X78.885 Y84.368 E9.36596
G1 X79.922 Y83.470 E9.40761
G1 X80.952 Y82.666 E9.44726
G1 X81.579 Y82.215 E9.47069
G1 X82.622 Y81.525 E9.50867
G1 X83.774 Y80.841 E9.54932
G1 X84.914 Y80.239 E9.58844
G1 X86.198 Y79.642 E9.63144
G1 X87.291 Y79.196 E9.66726
G1 X88.542 Y78.754 E9.70753
G1 X89.798 Y78.378 E9.74731
G1 X91.077 Y78.061 E9.78731
G1 X92.284 Y77.823 E9.82465
G1 X93.149 Y77.687 E9.85123
G1 X94.364 Y77.544 E9.88835
G1 X95.666 Y77.451 E9.92796
G1 X96.976 Y77.422 E9.96774
G1 X98.601 Y77.475 E10.01709
G1 X99.616 Y77.555 E10.04799
G1 X100.921 Y77.717 E10.08791
G1 X102.179 Y77.935 E10.12664
G1 X103.426 Y78.212 E10.16544
G1 X104.871 Y78.612 E10.21094
G1 X105.878 Y78.943 E10.24311
G1 X107.076 Y79.395 E10.28198
G1 X108.251 Y79.904 E10.32085
G1 X109.404 Y80.472 E10.35984
G1 X110.519 Y81.088 E10.39851
G1 X111.844 Y81.919 E10.44599
G1 X112.677 Y82.495 E10.47672
G1 X113.696 Y83.272 E10.51562
G1 X114.673 Y84.095 E10.55438
G1 X115.607 Y84.964 E10.59310
G1 X116.502 Y85.882 E10.63203
G1 X117.351 Y86.845 E10.67098
