; generated by Slic3r 0.9.10b on 2013-12-15 at 19:46:02

; layer_height = 0.35
; perimeters = 3
; top_solid_layers = 3
; bottom_solid_layers = 3
; fill_density = 0.2
; perimeter_speed = 50
; infill_speed = 85
; travel_speed = 300
; nozzle_diameter = 0.5
; filament_diameter = 2.87
; extrusion_multiplier = 1
; perimeters extrusion width = 0.58mm
; infill extrusion width = 0.58mm
; solid infill extrusion width = 0.58mm
; top infill extrusion width = 0.58mm
; support material extrusion width = 0.58mm

G21 ; set units to millimeters
M107
G28 ; home all axes
G90 ; use absolute coordinates
G92 E0
M82 ; use absolute distances for extrusion
G1 F1800.000 E-1.00000
G92 E0
G1 Z0.350 F18000.000
G1 X67.917 Y60.340
G1 F1800.000 E1.00000
G1 X68.927 Y59.310 F1500.000 E1.04378
G1 X70.137 Y58.520 E1.08764
G1 X94.907 Y45.990 E1.93016
G1 X98.617 Y44.330 E2.05352
G1 X99.257 Y44.080 E2.07437
G1 X99.927 Y43.900 E2.09543
G1 X103.897 Y43.050 E2.21865
G1 X104.577 Y42.950 E2.23952
G1 X105.267 Y42.910 E2.26049
G1 X109.317 Y42.910 E2.38342
G1 X110.007 Y42.950 E2.40439
G1 X110.687 Y43.050 E2.42525
G1 X114.657 Y43.900 E2.54848
G1 X115.327 Y44.080 E2.56954
G1 X115.967 Y44.330 E2.59039
G1 X119.657 Y45.980 E2.71307
G1 X120.277 Y46.300 E2.73425
G1 X120.857 Y46.680 E2.75529
G1 X124.137 Y49.070 E2.87847
G1 X124.677 Y49.500 E2.89942
G1 X125.167 Y50.000 E2.92067
G1 X127.877 Y53.030 E3.04405
G1 X128.307 Y53.560 E3.06477
G1 X128.677 Y54.140 E3.08565
G1 X130.707 Y57.680 E3.20950
G1 X131.017 Y58.290 E3.23027
G1 X131.257 Y58.920 E3.25073
G1 X132.507 Y62.790 E3.37417
G1 X132.687 Y63.450 E3.39493
G1 X132.787 Y64.120 E3.41549
G1 X133.217 Y68.180 E3.53941
G1 X133.257 Y68.870 E3.56038
G1 X133.257 Y122.600 E5.19115
G1 X133.227 Y123.280 E5.21181
G1 X132.787 Y127.370 E5.33667
G1 X132.687 Y128.030 E5.35693
G1 X132.507 Y128.680 E5.37740
G1 X124.787 Y152.520 E6.13796
G1 X124.227 Y153.780 E6.17981
G1 X123.427 Y154.890 E6.22134
G1 X122.407 Y155.810 E6.26303
G1 X121.217 Y156.490 E6.30463
G1 X119.917 Y156.920 E6.34619
G1 X118.547 Y157.060 E6.38799
G1 X89.747 Y157.060 E7.26210
G1 X88.307 Y156.900 E7.30608
G1 X86.937 Y156.430 E7.35004
G1 X85.697 Y155.660 E7.39434
G1 X69.047 Y142.610 E8.03641
G1 X67.997 Y141.570 E8.08127
G1 X67.197 Y140.320 E8.12631
G1 X66.707 Y138.920 E8.17133
G1 X66.537 Y137.450 E8.21624
G1 X66.537 Y64.370 E10.43431
G1 X66.697 Y62.940 E10.47798
G1 X67.167 Y61.570 E10.52194
G1 X67.874 Y60.412 E10.56311
G1 F1800.000 E9.56311
G92 E0
G1 X74.414 Y118.889 F18000.000
G1 F1800.000 E1.00000
G1 X80.331 Y118.889 F1800.000 E1.17959
G1 X80.331 Y120.011 E1.21365
G1 X74.414 Y120.011 E1.39324
G1 X74.414 Y121.133 E1.42730
G1 X80.331 Y121.133 E1.60689
G1 X80.331 Y122.255 E1.64095
G1 X73.097 Y122.255 E1.86049
G1 X73.097 Y123.377 E1.89455
G1 X80.331 Y123.377 E2.11410
G1 X80.331 Y124.499 E2.14815
G1 X73.097 Y124.499 E2.36770
G1 X73.097 Y125.621 E2.40175
G1 X80.331 Y125.621 E2.62130
G1 X80.331 Y126.743 E2.65536
G1 X73.097 Y126.743 E2.87490
G1 X73.097 Y127.865 E2.90896
G1 X80.331 Y127.865 E3.12851
G1 X80.331 Y128.987 E3.16256
G1 X73.097 Y128.987 E3.38211
G1 X73.097 Y130.109 E3.41616
G1 X80.331 Y130.109 E3.63571
G1 X80.331 Y131.231 E3.66977
G1 X73.097 Y131.231 E3.88931
G1 X73.097 Y132.353 E3.92337
G1 X80.331 Y132.353 E4.14292
G1 X80.331 Y133.474 E4.17697
G1 X73.097 Y133.474 E4.39652
G1 X74.414 Y134.596 E4.44902
G1 X80.331 Y134.596 E4.62861
G1 X80.331 Y135.718 E4.66267
G1 X74.414 Y135.718 E4.84226
G1 X74.414 Y136.840 E4.87631
G1 X80.331 Y136.840 E5.05591
G1 X81.984 Y137.962 E5.11655
G1 X88.881 Y137.962 E5.32588
G1 F1800.000 E4.32588
G92 E0
G1 X89.184 Y148.060 F18000.000
G1 F1800.000 E1.00000
G1 X118.886 Y148.060 F1800.000 E1.90147
G1 X118.886 Y149.182 E1.93552
G1 X89.184 Y149.182 E2.83699
G1 F1800.000 E1.83699
G92 E0
G1 X91.064 Y150.304 F18000.000
G1 F1800.000 E1.00000
G1 X98.331 Y150.304 F1800.000 E1.22057
G1 F1800.000 E0.22057
G92 E0
G1 X100.514 Y150.304 F18000.000
G1 F1800.000 E1.00000
G1 X107.781 Y150.304 F1800.000 E1.22057
G1 F1800.000 E0.22057
G92 E0
G1 X109.964 Y150.304 F18000.000
G1 F1800.000 E1.00000
G1 X117.231 Y150.304 F1800.000 E1.22057
G1 F1800.000 E0.22057
G92 E0
G1 X117.145 Y145.503 F18000.000
G1 F1800.000 E1.00000
G1 X91.150 Y145.503 F1500.000 E1.78898
G1 X91.150 Y134.703 E2.11677
G1 X82.600 Y134.703 E2.37628
G1 X82.600 Y119.507 E2.83746
G1 X89.484 Y119.507 E3.04641
G1 X90.863 Y115.241 E3.18249
G1 X92.744 Y111.964 E3.29717
G1 X95.262 Y109.153 E3.41171
G1 X98.305 Y106.930 E3.52609
G1 X101.740 Y105.392 E3.64033
G1 X105.418 Y104.606 E3.75447
G1 X109.177 Y104.606 E3.86858
G1 X112.855 Y105.392 E3.98272
G1 X116.290 Y106.930 E4.09695
G1 X119.333 Y109.153 E4.21133
G1 X121.851 Y111.964 E4.32587
G1 X123.732 Y115.241 E4.44056
G1 X124.895 Y118.841 E4.55537
G1 X125.289 Y122.605 E4.67024
G1 X124.895 Y126.369 E4.78512
G1 X123.732 Y129.969 E4.89993
G1 X121.851 Y133.246 E5.01462
G1 X119.333 Y136.057 E5.12915
G1 X117.145 Y137.656 E5.21140
G1 X117.145 Y145.418 E5.44701
G1 X117.706 Y146.064 F18000.000
G1 X90.589 Y146.064 F1500.000 E6.27005
G1 X90.589 Y135.264 E6.59784
G1 X82.039 Y135.264 E6.85734
G1 X82.039 Y118.946 E7.35258
G1 X89.076 Y118.946 E7.56616
G1 X90.347 Y115.013 E7.69163
G1 X92.287 Y111.634 E7.80989
G1 X94.883 Y108.735 E7.92800
G1 X98.022 Y106.442 E8.04597
G1 X101.565 Y104.856 E8.16380
G1 X105.358 Y104.045 E8.28153
G1 X109.237 Y104.045 E8.39924
G1 X113.030 Y104.856 E8.51698
G1 X116.573 Y106.442 E8.63481
G1 X119.712 Y108.735 E8.75277
G1 X122.308 Y111.634 E8.87089
G1 X124.248 Y115.013 E8.98915
G1 X125.447 Y118.724 E9.10752
G1 X125.853 Y122.605 E9.22595
G1 X125.447 Y126.486 E9.34439
G1 X124.248 Y130.197 E9.46276
G1 X122.308 Y133.576 E9.58102
G1 X119.712 Y136.475 E9.69913
G1 X117.706 Y137.940 E9.77452
G1 X117.706 Y145.979 E10.01851
G1 X118.267 Y146.625 F18000.000
G1 X90.028 Y146.625 F1500.000 E10.87560
G1 X90.028 Y135.825 E11.20340
G1 X81.478 Y135.825 E11.46290
G1 X81.478 Y118.385 E11.99219
G1 X88.668 Y118.385 E12.21041
G1 X89.831 Y114.784 E12.32527
G1 X91.830 Y111.304 E12.44710
G1 X94.505 Y108.317 E12.56879
G1 X97.738 Y105.954 E12.69034
G1 X101.390 Y104.320 E12.81176
G1 X105.299 Y103.484 E12.93309
G1 X109.296 Y103.484 E13.05440
G1 X113.205 Y104.320 E13.17573
G1 X116.857 Y105.954 E13.29715
G1 X120.090 Y108.317 E13.41870
G1 X122.765 Y111.304 E13.54039
G1 X124.764 Y114.784 E13.66222
G1 X125.999 Y118.607 E13.78416
G1 X126.417 Y122.605 E13.90615
G1 X125.999 Y126.603 E14.02815
G1 X124.764 Y130.426 E14.15009
G1 X122.765 Y133.906 E14.27191
G1 X120.090 Y136.893 E14.39361
G1 X118.267 Y138.225 E14.46214
G1 X118.267 Y146.540 E14.71451
G1 X117.781 Y146.344 F18000.000
G1 F1800.000 E13.71451
G92 E0
G1 X91.568 Y145.096 F18000.000
G1 F1800.000 E1.00000
G1 X91.557 Y144.286 F2250.000 E1.02471
G1 X92.366 Y145.096 E1.05965
G1 X93.164 Y145.096 E1.08400
G1 X91.557 Y143.489 E1.15337
G1 X91.557 Y142.691 E1.17771
G1 X93.962 Y145.096 E1.28152
G1 X94.759 Y145.096 E1.30586
G1 X91.557 Y141.893 E1.44409
G1 X91.557 Y141.095 E1.46844
G1 X95.557 Y145.096 E1.64110
G1 X96.355 Y145.096 E1.66544
G1 X91.557 Y140.298 E1.87253
G1 X91.557 Y139.500 E1.89688
G1 X97.153 Y145.096 E2.13840
G1 X97.950 Y145.096 E2.16275
G1 X91.557 Y138.702 E2.43870
G1 X91.557 Y137.904 E2.46304
G1 X98.748 Y145.096 E2.77342
G1 X99.546 Y145.096 E2.79777
G1 X91.557 Y137.107 E3.14257
G1 X91.557 Y136.309 E3.16692
G1 X100.344 Y145.096 E3.54616
G1 X101.141 Y145.096 E3.57050
G1 X91.557 Y135.511 E3.98417
G1 X91.557 Y134.713 E4.00852
G1 X101.939 Y145.096 E4.45662
G1 X102.737 Y145.096 E4.48096
G1 X83.007 Y125.366 E5.33250
G1 X83.007 Y124.568 E5.35685
G1 X103.534 Y145.096 E6.24281
G1 X104.332 Y145.096 E6.26716
G1 X83.007 Y123.770 E7.18756
G1 X83.007 Y122.973 E7.21190
G1 X105.130 Y145.096 E8.16673
G1 X105.928 Y145.096 E8.19108
G1 X83.007 Y122.175 E9.18033
G1 X83.007 Y121.377 E9.20468
G1 X106.725 Y145.096 E10.22837
G1 X107.523 Y145.096 E10.25271
G1 X83.007 Y120.579 E11.31083
G1 X83.139 Y119.914 E11.33153
G1 X108.321 Y145.096 E12.41836
G1 X109.119 Y145.096 E12.44270
G1 X83.937 Y119.914 E13.52953
G1 X84.735 Y119.914 E13.55387
G1 X109.916 Y145.096 E14.64070
G1 X110.714 Y145.096 E14.66505
G1 X85.532 Y119.914 E15.75187
G1 X86.330 Y119.914 E15.77622
G1 X111.512 Y145.096 E16.86305
G1 X112.310 Y145.096 E16.88739
G1 X87.128 Y119.914 E17.97422
G1 X87.925 Y119.914 E17.99856
G1 X113.107 Y145.096 E19.08539
G1 X113.905 Y145.096 E19.10974
G1 X88.723 Y119.914 E20.19656
G1 X89.521 Y119.914 E20.22091
G1 X114.703 Y145.096 E21.30774
G1 X115.500 Y145.096 E21.33208
G1 X89.912 Y119.507 E22.43648
G1 X90.106 Y118.904 E22.45581
G1 X116.298 Y145.096 E23.58623
G1 X116.738 Y144.738 E23.60354
G1 X90.301 Y118.301 E24.74454
G1 X90.496 Y117.698 E24.76388
G1 X116.738 Y143.941 E25.89648
G1 X116.738 Y143.143 E25.92082
G1 X90.691 Y117.095 E27.04501
G1 X90.886 Y116.492 E27.06435
G1 X116.738 Y142.345 E28.18012
G1 X116.738 Y141.547 E28.20447
G1 X91.081 Y115.890 E29.31184
G1 X91.295 Y115.306 E29.33081
G1 X116.738 Y140.750 E30.42895
G1 X116.738 Y139.952 E30.45329
G1 X91.586 Y114.799 E31.53887
G1 X91.876 Y114.292 E31.55671
G1 X116.738 Y139.154 E32.62972
G1 X116.738 Y138.356 E32.65407
G1 X92.167 Y113.786 E33.71453
G1 X92.458 Y113.279 E33.73236
G1 X116.738 Y137.559 E34.78026
G1 X117.136 Y137.159 E34.79748
G1 X92.749 Y112.772 E35.84998
G1 X93.040 Y112.265 E35.86782
G1 X117.597 Y136.822 E36.92766
G1 X118.058 Y136.485 E36.94508
G1 X93.407 Y111.834 E38.00900
G1 X93.784 Y111.413 E38.02624
G1 X118.519 Y136.148 E39.09380
G1 X118.980 Y135.812 E39.11122
G1 X94.161 Y110.992 E40.18240
G1 X94.537 Y110.571 E40.19964
G1 X119.371 Y135.405 E41.27144
G1 X119.748 Y134.984 E41.28868
G1 X94.914 Y110.150 E42.36048
G1 X95.291 Y109.730 E42.37772
G1 X120.125 Y134.563 E43.44953
G1 X120.502 Y134.142 E43.46677
G1 X95.698 Y109.338 E44.53730
G1 X96.158 Y109.001 E44.55472
G1 X120.879 Y133.722 E45.62162
G1 X121.256 Y133.301 E45.63886
G1 X96.619 Y108.665 E46.70214
G1 X97.080 Y108.328 E46.71956
G1 X121.607 Y132.854 E47.77809
G1 X121.898 Y132.347 E47.79592
G1 X97.541 Y107.991 E48.84711
G1 X98.002 Y107.654 E48.86453
G1 X122.189 Y131.841 E49.90839
G1 X122.480 Y131.334 E49.92622
G1 X98.463 Y107.318 E50.96274
G1 X99.005 Y107.062 E50.98103
G1 X122.770 Y130.827 E52.00672
G1 X123.061 Y130.320 E52.02455
G1 X99.556 Y106.815 E53.03901
G1 X100.107 Y106.568 E53.05744
G1 X123.352 Y129.813 E54.06068
G1 X123.549 Y129.213 E54.07998
G1 X100.658 Y106.322 E55.06793
G1 X101.209 Y106.075 E55.08635
G1 X123.744 Y128.610 E56.05893
G1 X123.939 Y128.007 E56.07826
G1 X101.761 Y105.828 E57.03546
G1 X102.397 Y105.667 E57.05551
G1 X124.134 Y127.404 E57.99364
G1 X124.329 Y126.801 E58.01297
G1 X103.055 Y105.527 E58.93114
G1 X103.712 Y105.386 E58.95165
G1 X124.506 Y126.181 E59.84913
G1 X124.582 Y125.459 E59.87129
G1 X104.369 Y105.246 E60.74365
G1 X105.026 Y105.105 E60.76416
G1 X124.657 Y124.736 E61.61142
G1 X124.733 Y124.014 E61.63358
G1 X105.731 Y105.013 E62.45367
G1 X106.529 Y105.013 E62.47801
G1 X124.808 Y123.292 E63.26693
G1 X124.875 Y122.561 E63.28932
G1 X107.327 Y105.013 E64.04671
G1 X108.124 Y105.013 E64.07105
G1 X124.782 Y121.671 E64.79000
G1 X124.689 Y120.780 E64.81733
G1 X108.922 Y105.013 E65.49782
G1 X109.879 Y105.172 E65.52743
G1 X124.596 Y119.889 E66.16260
G1 X124.503 Y118.998 E66.18994
G1 X110.894 Y105.389 E66.77730
G1 X111.908 Y105.606 E66.80897
G1 X124.146 Y117.843 E67.33712
G1 X123.765 Y116.664 E67.37492
G1 X113.005 Y105.905 E67.83929
G1 X114.450 Y106.551 E67.88758
G1 X123.384 Y115.486 E68.27317
G1 X122.355 Y113.659 E68.33717
G1 X115.894 Y107.198 E68.61600
G1 F1800.000 E67.61600
G92 E0
G1 X118.654 Y109.161 F18000.000
G1 F1800.000 E1.00000
G1 X119.992 Y110.499 F2250.000 E1.05775
G1 F1800.000 E0.05775
G92 E0
G1 X91.139 Y134.296 F18000.000
G1 F1800.000 E1.00000
G1 X83.007 Y126.163 F2250.000 E1.35099
G1 X83.007 Y126.961 E1.37534
G1 X90.341 Y134.296 E1.69190
G1 X89.544 Y134.296 E1.71624
G1 X83.007 Y127.759 E1.99837
G1 X83.007 Y128.557 E2.02272
G1 X88.746 Y134.296 E2.27042
G1 X87.948 Y134.296 E2.29476
G1 X83.007 Y129.354 E2.50803
G1 X83.007 Y130.152 E2.53238
G1 X87.150 Y134.296 E2.71122
G1 X86.353 Y134.296 E2.73557
G1 X83.007 Y130.950 E2.87998
G1 X83.007 Y131.748 E2.90432
G1 X85.555 Y134.296 E3.01431
G1 X84.757 Y134.296 E3.03865
G1 X83.007 Y132.545 E3.11420
G1 X83.007 Y133.343 E3.13855
G1 X83.959 Y134.296 E3.17967
G1 X83.162 Y134.296 E3.20402
G1 X83.007 Y134.141 E3.21071
G1 F1800.000 E2.21071
G92 E0
G1 X91.064 Y96.574 F18000.000
G1 F1800.000 E1.00000
G1 X98.331 Y96.574 F1800.000 E1.22057
G1 F1800.000 E0.22057
G92 E0
G1 X100.514 Y96.574 F18000.000
G1 F1800.000 E1.00000
G1 X107.781 Y96.574 F1800.000 E1.22057
G1 F1800.000 E0.22057
G92 E0
G1 X109.964 Y96.574 F18000.000
G1 F1800.000 E1.00000
G1 X117.231 Y96.574 F1800.000 E1.22057
G1 F1800.000 E0.22057
G92 E0
G1 X89.184 Y95.452 F18000.000
G1 F1800.000 E1.00000
G1 X118.886 Y95.452 F1800.000 E1.90147
G1 X118.886 Y94.330 E1.93552
G1 X89.184 Y94.330 E2.83699
G1 F1800.000 E1.83699
G92 E0
G1 X88.881 Y84.232 F18000.000
G1 F1800.000 E1.00000
G1 X81.984 Y84.232 F1800.000 E1.20932
G1 X80.331 Y83.110 E1.26997
G1 X74.414 Y83.110 E1.44956
G1 X74.414 Y81.988 E1.48362
G1 X80.331 Y81.988 E1.66321
G1 X80.331 Y80.866 E1.69726
G1 X74.414 Y80.866 E1.87686
G1 X73.097 Y79.744 E1.92936
G1 X80.331 Y79.744 E2.14890
G1 X80.331 Y78.623 E2.18296
G1 X73.097 Y78.623 E2.40251
G1 X73.097 Y77.501 E2.43656
G1 X80.331 Y77.501 E2.65611
G1 X80.331 Y76.379 E2.69016
G1 X73.097 Y76.379 E2.90971
G1 X73.097 Y75.257 E2.94377
G1 X80.331 Y75.257 E3.16332
G1 X80.331 Y74.135 E3.19737
G1 X73.097 Y74.135 E3.41692
G1 X73.097 Y73.013 E3.45097
G1 X80.331 Y73.013 E3.67052
G1 X80.331 Y71.891 E3.70457
G1 X73.097 Y71.891 E3.92412
G1 X73.097 Y70.769 E3.95818
G1 X80.331 Y70.769 E4.17773
G1 X80.331 Y69.647 E4.21178
G1 X73.097 Y69.647 E4.43133
G1 X73.097 Y68.525 E4.46538
G1 X80.331 Y68.525 E4.68493
G1 X80.331 Y67.403 E4.71899
G1 X74.414 Y67.403 E4.89858
G1 X74.414 Y66.281 E4.93263
G1 X80.331 Y66.281 E5.11223
G1 X80.331 Y65.159 E5.14628
G1 X74.414 Y65.159 E5.32588
G1 F1800.000 E4.32588
G92 E0
G1 X82.600 Y65.777 F18000.000
G1 F1800.000 E1.00000
G1 X89.484 Y65.777 F1500.000 E1.20894
G1 X90.863 Y61.511 E1.34502
G1 X92.744 Y58.234 E1.45971
G1 X95.262 Y55.423 E1.57425
G1 X98.305 Y53.200 E1.68863
G1 X101.740 Y51.662 E1.80286
G1 X105.418 Y50.876 E1.91700
G1 X109.177 Y50.876 E2.03111
G1 X112.855 Y51.662 E2.14526
G1 X116.290 Y53.200 E2.25949
G1 X119.333 Y55.423 E2.37387
G1 X121.851 Y58.234 E2.48841
G1 X123.732 Y61.511 E2.60310
G1 X124.895 Y65.111 E2.71790
G1 X125.289 Y68.875 E2.83278
G1 X124.895 Y72.639 E2.94765
G1 X123.732 Y76.239 E3.06246
G1 X121.851 Y79.516 E3.17715
G1 X119.333 Y82.327 E3.29169
G1 X117.145 Y83.926 E3.37394
G1 X117.145 Y91.773 E3.61210
G1 X91.150 Y91.773 E4.40108
G1 X91.150 Y80.973 E4.72888
G1 X82.600 Y80.973 E4.98838
G1 X82.600 Y65.862 E5.44701
G1 X82.039 Y65.216 F18000.000
G1 X89.076 Y65.216 F1500.000 E5.66059
G1 X90.347 Y61.283 E5.78606
G1 X92.287 Y57.904 E5.90432
G1 X94.883 Y55.005 E6.02243
G1 X98.022 Y52.712 E6.14040
G1 X101.565 Y51.126 E6.25822
G1 X105.358 Y50.315 E6.37596
G1 X109.237 Y50.315 E6.49367
G1 X113.030 Y51.126 E6.61141
G1 X116.573 Y52.712 E6.72924
G1 X119.712 Y55.005 E6.84720
G1 X122.308 Y57.904 E6.96531
G1 X124.248 Y61.283 E7.08357
G1 X125.447 Y64.994 E7.20194
G1 X125.853 Y68.875 E7.32038
G1 X125.447 Y72.756 E7.43881
G1 X124.248 Y76.467 E7.55719
G1 X122.308 Y79.846 E7.67545
G1 X119.712 Y82.745 E7.79356
G1 X117.706 Y84.210 E7.86895
G1 X117.706 Y92.334 E8.11550
G1 X90.589 Y92.334 E8.93853
G1 X90.589 Y81.534 E9.26632
G1 X82.039 Y81.534 E9.52583
G1 X82.039 Y65.301 E10.01851
G1 X81.478 Y64.655 F18000.000
G1 X88.668 Y64.655 F1500.000 E10.23673
G1 X89.831 Y61.054 E10.35159
G1 X91.830 Y57.574 E10.47342
G1 X94.505 Y54.587 E10.59511
G1 X97.738 Y52.224 E10.71666
G1 X101.390 Y50.590 E10.83808
G1 X105.299 Y49.754 E10.95941
G1 X109.296 Y49.754 E11.08072
G1 X113.205 Y50.590 E11.20205
G1 X116.857 Y52.224 E11.32347
G1 X120.090 Y54.587 E11.44502
G1 X122.765 Y57.574 E11.56671
G1 X124.764 Y61.054 E11.68854
G1 X125.999 Y64.877 E11.81048
G1 X126.417 Y68.875 E11.93247
G1 X125.999 Y72.873 E12.05447
G1 X124.764 Y76.696 E12.17641
G1 X122.765 Y80.176 E12.29824
G1 X120.090 Y83.163 E12.41993
G1 X118.267 Y84.495 E12.48846
