; generated by Slic3r 0.9.10b on 2013-12-15 at 12:17:17

; layer_height = 0.25
; perimeters = 3
; top_solid_layers = 3
; bottom_solid_layers = 3
; fill_density = 0.2
; perimeter_speed = 30
; infill_speed = 60
; travel_speed = 200
; nozzle_diameter = 0.35
; filament_diameter = 2.85
; extrusion_multiplier = 1
; perimeters extrusion width = 0.39mm
; infill extrusion width = 0.39mm
; solid infill extrusion width = 0.39mm
; top infill extrusion width = 0.39mm
; support material extrusion width = 0.39mm

G21 ; set units to millimeters
M190 S60 ; wait for bed temperature to be reached
M104 S190 ; set temperature
G28 ; home all axes
M106 S255; 
M109 S190 ; wait for temperature to be reached
G90 ; use absolute coordinates
G92 E0
M82 ; use absolute distances for extrusion
G1 F1800.000 E-1.00000
G92 E0
G1 Z0.250 F12000.000
G1 X62.787 Y54.580
G1 F1800.000 E1.00000
G1 X63.747 Y53.690 F900.000 E1.01974
G1 X64.857 Y52.990 E1.03953
G1 X89.647 Y40.390 E1.45893
G1 X93.357 Y38.730 E1.52023
G1 X94.057 Y38.460 E1.53154
G1 X94.787 Y38.260 E1.54296
G1 X98.767 Y37.410 E1.60433
G1 X99.507 Y37.300 E1.61562
G1 X100.257 Y37.260 E1.62694
G1 X104.327 Y37.260 E1.68833
G1 X105.077 Y37.300 E1.69965
G1 X105.817 Y37.410 E1.71094
G1 X109.797 Y38.260 E1.77232
G1 X110.527 Y38.460 E1.78373
G1 X111.227 Y38.730 E1.79505
G1 X114.937 Y40.390 E1.85634
G1 X115.607 Y40.730 E1.86768
G1 X116.237 Y41.140 E1.87901
G1 X119.537 Y43.550 E1.94064
G1 X120.117 Y44.030 E1.95199
G1 X120.647 Y44.560 E1.96330
G1 X123.367 Y47.600 E2.02482
G1 X123.837 Y48.180 E2.03608
G1 X124.247 Y48.810 E2.04741
G1 X126.277 Y52.350 E2.10896
G1 X126.607 Y53.010 E2.12009
G1 X126.877 Y53.710 E2.13140
G1 X128.137 Y57.600 E2.19307
G1 X128.327 Y58.320 E2.20430
G1 X128.447 Y59.070 E2.21576
G1 X128.867 Y63.140 E2.27746
G1 X128.897 Y63.870 E2.28848
G1 X128.897 Y117.600 E3.09881
G1 X128.867 Y118.330 E3.10983
G1 X128.437 Y122.430 E3.17201
G1 X128.327 Y123.160 E3.18314
G1 X128.137 Y123.870 E3.19423
G1 X120.347 Y147.720 E3.57262
G1 X119.737 Y149.090 E3.59524
G1 X118.857 Y150.290 E3.61768
G1 X117.747 Y151.290 E3.64021
G1 X116.457 Y152.040 E3.66272
G1 X115.037 Y152.500 E3.68523
G1 X113.547 Y152.650 E3.70781
G1 X84.747 Y152.650 E4.14216
G1 X83.177 Y152.480 E4.16598
G1 X81.677 Y151.960 E4.18992
G1 X80.337 Y151.130 E4.21370
G1 X63.687 Y138.080 E4.53274
G1 X62.527 Y136.950 E4.55717
G1 X61.667 Y135.580 E4.58156
G1 X61.127 Y134.060 E4.60589
G1 X60.947 Y132.450 E4.63032
G1 X60.947 Y59.370 E5.73248
G1 X61.067 Y58.070 E5.75217
G1 X61.417 Y56.800 E5.77204
G1 X61.997 Y55.630 E5.79173
G1 X62.753 Y54.626 E5.81068
G1 X62.747 Y55.220 F12000.000
G1 X63.787 Y54.150 F900.000 E5.83318
G1 X65.027 Y53.340 E5.85552
G1 X89.807 Y40.740 E6.27478
G1 X93.517 Y39.080 E6.33608
G1 X94.177 Y38.820 E6.34678
G1 X94.867 Y38.640 E6.35753
G1 X98.847 Y37.790 E6.41891
G1 X99.547 Y37.680 E6.42960
G1 X100.257 Y37.640 E6.44032
G1 X104.327 Y37.640 E6.50170
G1 X105.037 Y37.680 E6.51243
G1 X105.737 Y37.790 E6.52312
G1 X109.717 Y38.640 E6.58449
G1 X110.407 Y38.820 E6.59525
G1 X111.077 Y39.080 E6.60609
G1 X114.317 Y40.530 E6.65962
G1 X115.417 Y41.060 E6.67804
G1 X116.007 Y41.450 E6.68870
G1 X119.307 Y43.860 E6.75033
G1 X119.857 Y44.310 E6.76105
G1 X120.367 Y44.820 E6.77193
G1 X123.087 Y47.860 E6.83345
G1 X123.527 Y48.410 E6.84407
G1 X123.907 Y49.000 E6.85465
G1 X125.937 Y52.540 E6.91620
G1 X126.257 Y53.170 E6.92685
G1 X126.507 Y53.820 E6.93736
G1 X127.767 Y57.710 E6.99903
G1 X127.947 Y58.400 E7.00978
G1 X128.057 Y59.110 E7.02062
G1 X128.477 Y63.180 E7.08232
G1 X128.517 Y63.870 E7.09275
G1 X128.517 Y117.600 E7.90308
G1 X128.477 Y118.290 E7.91350
G1 X128.057 Y122.390 E7.97566
G1 X127.947 Y123.080 E7.98620
G1 X127.767 Y123.760 E7.99681
G1 X119.977 Y147.600 E8.37506
G1 X119.407 Y148.890 E8.39633
G1 X118.577 Y150.040 E8.41772
G1 X117.517 Y150.980 E8.43909
G1 X116.297 Y151.690 E8.46038
G1 X114.957 Y152.120 E8.48160
G1 X113.547 Y152.270 E8.50298
G1 X84.747 Y152.270 E8.93733
G1 X83.257 Y152.100 E8.95995
G1 X81.847 Y151.620 E8.98241
G1 X80.567 Y150.830 E9.00510
G1 X63.917 Y137.780 E9.32415
G1 X62.827 Y136.700 E9.34729
G1 X62.007 Y135.410 E9.37034
G1 X61.497 Y133.970 E9.39338
G1 X61.327 Y132.450 E9.41645
G1 X61.327 Y59.370 E10.51861
G1 X61.487 Y57.890 E10.54106
G1 X61.977 Y56.490 E10.56343
G1 X62.718 Y55.269 E10.58496
G1 X63.057 Y55.450 F12000.000
G1 X64.027 Y54.450 F900.000 E10.60597
G1 X65.197 Y53.680 E10.62709
G1 X89.957 Y41.090 E11.04601
G1 X93.667 Y39.430 E11.10731
G1 X94.297 Y39.190 E11.11748
G1 X94.947 Y39.020 E11.12761
G1 X98.927 Y38.170 E11.18899
G1 X99.587 Y38.060 E11.19908
G1 X100.257 Y38.030 E11.20920
G1 X104.327 Y38.030 E11.27058
G1 X104.997 Y38.060 E11.28069
G1 X105.657 Y38.170 E11.29078
G1 X109.637 Y39.020 E11.35216
G1 X110.287 Y39.190 E11.36230
G1 X110.917 Y39.430 E11.37246
G1 X114.617 Y41.090 E11.43362
G1 X115.217 Y41.400 E11.44381
G1 X115.787 Y41.760 E11.45398
G1 X119.087 Y44.170 E11.51560
G1 X119.607 Y44.600 E11.52578
G1 X120.077 Y45.070 E11.53581
G1 X122.797 Y48.110 E11.59733
G1 X123.217 Y48.630 E11.60741
G1 X123.577 Y49.190 E11.61745
G1 X125.607 Y52.730 E11.67899
G1 X125.907 Y53.320 E11.68897
G1 X126.137 Y53.940 E11.69895
G1 X127.397 Y57.830 E11.76062
G1 X127.577 Y58.480 E11.77079
G1 X127.677 Y59.140 E11.78086
G1 X128.097 Y63.210 E11.84256
G1 X128.127 Y63.870 E11.85253
G1 X128.127 Y117.600 E12.66286
G1 X128.097 Y118.250 E12.67267
G1 X127.677 Y122.350 E12.73483
G1 X127.567 Y123.000 E12.74477
G1 X127.397 Y123.640 E12.75476
G1 X119.617 Y147.480 E13.13297
G1 X119.067 Y148.700 E13.15315
G1 X118.287 Y149.780 E13.17324
G1 X117.297 Y150.670 E13.19332
G1 X116.137 Y151.330 E13.21345
G1 X114.877 Y151.750 E13.23348
G1 X113.547 Y151.880 E13.25363
G1 X84.747 Y151.880 E13.68798
G1 X83.347 Y151.730 E13.70921
G1 X82.007 Y151.270 E13.73058
G1 X80.807 Y150.530 E13.75184
G1 X64.157 Y137.480 E14.07089
G1 X63.127 Y136.460 E14.09275
G1 X62.357 Y135.240 E14.11451
G1 X61.877 Y133.880 E14.13626
G1 X61.717 Y132.450 E14.15796
G1 X61.717 Y59.370 E15.26012
G1 X61.867 Y57.980 E15.28121
G1 X62.317 Y56.650 E15.30238
G1 X63.027 Y55.499 E15.32278
G1 F1800.000 E14.32278
G92 E0
G1 X75.606 Y113.161 F12000.000
G1 F1800.000 E1.00000
G1 X69.139 Y113.161 F1800.000 E1.09753
G1 X69.139 Y113.931 E1.10914
G1 X75.606 Y113.931 E1.20668
G1 X75.606 Y114.701 E1.21828
G1 X69.139 Y114.701 E1.31582
G1 X69.139 Y115.471 E1.32743
G1 X75.606 Y115.471 E1.42496
G1 X75.606 Y116.240 E1.43657
G1 X68.097 Y116.240 E1.54981
G1 X68.097 Y117.010 E1.56142
G1 X75.606 Y117.010 E1.67466
G1 X75.606 Y117.780 E1.68627
G1 X68.097 Y117.780 E1.79951
G1 X68.097 Y118.549 E1.81111
G1 X75.606 Y118.549 E1.92436
G1 X75.606 Y119.319 E1.93596
G1 X68.097 Y119.319 E2.04920
G1 X68.097 Y120.089 E2.06081
G1 X75.606 Y120.089 E2.17405
G1 X75.606 Y120.858 E2.18566
G1 X68.097 Y120.858 E2.29890
G1 X68.097 Y121.628 E2.31051
G1 X75.606 Y121.628 E2.42375
G1 X75.606 Y122.398 E2.43536
G1 X68.097 Y122.398 E2.54860
G1 X68.097 Y123.167 E2.56021
G1 X75.606 Y123.167 E2.67345
G1 X75.606 Y123.937 E2.68506
G1 X68.097 Y123.937 E2.79830
G1 X68.097 Y124.707 E2.80991
G1 X75.606 Y124.707 E2.92315
G1 X75.606 Y125.477 E2.93475
G1 X68.097 Y125.477 E3.04799
G1 X68.097 Y126.246 E3.05960
G1 X75.606 Y126.246 E3.17284
G1 X75.606 Y127.016 E3.18445
G1 X68.097 Y127.016 E3.29769
G1 X68.097 Y127.786 E3.30930
G1 X75.606 Y127.786 E3.42254
G1 X75.606 Y128.555 E3.43415
G1 X68.097 Y128.555 E3.54739
G1 X68.097 Y129.325 E3.55900
G1 X75.606 Y129.325 E3.67224
G1 X75.606 Y130.095 E3.68385
G1 X69.139 Y130.095 E3.78138
G1 X69.139 Y130.864 E3.79299
G1 X75.606 Y130.864 E3.89052
G1 X75.606 Y131.634 E3.90213
G1 X69.139 Y131.634 E3.99967
G1 X69.139 Y132.404 E4.01127
G1 X84.156 Y132.404 E4.23775
G1 F1800.000 E3.23775
G92 E0
G1 X93.606 Y144.719 F12000.000
G1 F1800.000 E1.00000
G1 X85.789 Y144.719 F1800.000 E1.11789
G1 X85.789 Y145.488 E1.12950
G1 X93.606 Y145.488 E1.24740
G1 F1800.000 E0.24740
G92 E0
G1 X103.056 Y145.488 F12000.000
G1 F1800.000 E1.00000
G1 X95.239 Y145.488 F1800.000 E1.11789
G1 X95.239 Y144.719 E1.12950
G1 X103.056 Y144.719 E1.24740
G1 F1800.000 E0.24740
G92 E0
G1 X112.506 Y145.488 F12000.000
G1 F1800.000 E1.00000
G1 X104.689 Y145.488 F1800.000 E1.11789
G1 X104.689 Y144.719 E1.12950
G1 X112.506 Y144.719 E1.24740
G1 X113.789 Y143.949 E1.26996
G1 X84.281 Y143.949 E1.71499
G1 X84.281 Y143.179 E1.72660
G1 X113.789 Y143.179 E2.17162
G1 F1800.000 E1.17162
G92 E0
G1 X112.585 Y140.943 F12000.000
G1 F1800.000 E1.00000
G1 X85.710 Y140.943 F900.000 E1.40533
G1 X85.710 Y130.143 E1.56821
G1 X77.160 Y130.143 E1.69716
G1 X77.160 Y114.067 E1.93960
G1 X84.103 Y114.067 E2.04432
G1 X85.405 Y110.038 E2.10818
G1 X87.338 Y106.671 E2.16674
G1 X89.926 Y103.781 E2.22524
G1 X93.053 Y101.496 E2.28365
G1 X96.585 Y99.915 E2.34200
G1 X100.365 Y99.108 E2.40030
G1 X104.230 Y99.108 E2.45859
G1 X108.010 Y99.916 E2.51690
G1 X111.542 Y101.496 E2.57524
G1 X114.669 Y103.781 E2.63366
G1 X117.257 Y106.671 E2.69215
G1 X119.190 Y110.038 E2.75072
G1 X120.385 Y113.737 E2.80934
G1 X120.790 Y117.605 E2.86800
G1 X120.385 Y121.473 E2.92665
G1 X119.190 Y125.172 E2.98528
G1 X117.257 Y128.539 E3.04384
G1 X114.669 Y131.429 E3.10233
G1 X112.585 Y132.951 E3.14126
G1 X112.585 Y140.885 E3.26091
G1 F1800.000 E2.26091
G92 E0
G1 X119.544 Y109.882 F12000.000
G1 F1800.000 E1.00000
G1 X120.764 Y113.657 F900.000 E1.05984
G1 X121.129 Y117.145 E1.11273
G1 X121.177 Y117.605 E1.11971
G1 X120.764 Y121.553 E1.17957
G1 X119.544 Y125.329 E1.23941
G1 X117.570 Y128.766 E1.29919
G1 X114.929 Y131.716 E1.35891
G1 X112.970 Y133.147 E1.39549
G1 X112.970 Y141.328 E1.51888
G1 X85.325 Y141.328 E1.93581
G1 X85.325 Y130.528 E2.09869
G1 X76.775 Y130.528 E2.22764
G1 X76.775 Y113.682 E2.48170
G1 X83.823 Y113.682 E2.58799
G1 X85.051 Y109.881 E2.64823
G1 X87.025 Y106.444 E2.70801
G1 X89.666 Y103.494 E2.76773
G1 X92.859 Y101.162 E2.82737
G1 X96.464 Y99.548 E2.88694
G1 X100.324 Y98.723 E2.94647
G1 X104.271 Y98.723 E3.00598
G1 X108.131 Y99.548 E3.06551
G1 X111.736 Y101.162 E3.12509
G1 X114.929 Y103.494 E3.18472
G1 X117.570 Y106.444 E3.24444
G1 X119.515 Y109.831 E3.30335
G1 X119.898 Y109.725 F12000.000
G1 X121.143 Y113.577 F900.000 E3.36440
G1 X121.511 Y117.105 E3.41790
G1 X121.564 Y117.605 E3.42548
G1 X121.143 Y121.633 E3.48657
G1 X119.898 Y125.485 E3.54762
G1 X117.884 Y128.993 E3.60862
G1 X115.189 Y132.003 E3.66955
G1 X113.355 Y133.342 E3.70380
G1 X113.355 Y141.713 E3.83004
G1 X84.940 Y141.713 E4.25858
G1 X84.940 Y130.913 E4.42146
G1 X76.390 Y130.913 E4.55041
G1 X76.390 Y113.297 E4.81607
G1 X83.543 Y113.297 E4.92395
G1 X84.697 Y109.725 E4.98057
G1 X86.711 Y106.217 E5.04157
G1 X89.406 Y103.207 E5.10250
G1 X92.665 Y100.827 E5.16337
G1 X96.344 Y99.180 E5.22416
G1 X100.284 Y98.338 E5.28492
G1 X104.311 Y98.338 E5.34566
G1 X108.251 Y99.180 E5.40642
G1 X111.930 Y100.827 E5.46721
G1 X115.189 Y103.207 E5.52807
G1 X117.884 Y106.217 E5.58901
G1 X119.869 Y109.675 E5.64913
G1 X119.660 Y110.028 F12000.000
G1 F1800.000 E4.64913
G92 E0
G1 X113.230 Y103.075 F12000.000
G1 F1800.000 E1.00000
G1 X117.083 Y106.928 F1800.000 E1.08243
G1 X117.819 Y108.210 E1.10480
G1 X111.305 Y101.696 E1.24418
G1 X110.316 Y101.253 E1.26057
G1 X118.555 Y109.492 E1.43685
G1 X119.060 Y110.544 E1.45449
G1 X109.328 Y100.811 E1.66274
G1 X108.339 Y100.368 E1.67912
G1 X119.321 Y111.350 E1.91410
G1 X119.582 Y112.157 E1.92692
G1 X107.521 Y100.096 E2.18498
G1 X106.827 Y99.948 E2.19572
G1 X119.842 Y112.963 E2.47421
G1 X120.103 Y113.770 E2.48703
G1 X106.132 Y99.799 E2.78596
G1 X105.438 Y99.651 E2.79670
G1 X120.173 Y114.386 E3.11197
G1 X120.237 Y114.996 E3.12125
G1 X104.743 Y99.502 E3.45274
G1 X104.081 Y99.386 E3.46291
G1 X120.300 Y115.605 E3.80993
G1 X120.364 Y116.215 E3.81921
G1 X103.535 Y99.386 E4.17927
G1 X102.989 Y99.386 E4.18753
G1 X120.428 Y116.825 E4.56065
G1 X120.492 Y117.434 E4.56992
G1 X102.443 Y99.386 E4.95608
G1 X101.898 Y99.386 E4.96434
G1 X120.472 Y117.961 E5.36177
G1 X120.420 Y118.455 E5.36929
G1 X101.352 Y99.386 E5.77729
G1 X100.806 Y99.386 E5.78555
G1 X120.369 Y118.950 E6.20413
G1 X120.317 Y119.444 E6.21165
G1 X100.283 Y99.410 E6.64029
G1 X99.833 Y99.506 E6.64725
G1 X120.265 Y119.938 E7.08442
G1 X120.214 Y120.433 E7.09194
G1 X99.384 Y99.602 E7.53763
G1 X98.934 Y99.699 E7.54459
G1 X120.162 Y120.927 E7.99879
G1 X120.109 Y121.420 E8.00630
G1 X98.484 Y99.795 E8.46900
G1 X98.034 Y99.891 E8.47596
G1 X119.976 Y121.833 E8.94543
G1 X119.843 Y122.245 E8.95199
G1 X97.584 Y99.987 E9.42824
G1 X97.134 Y100.083 E9.43520
G1 X119.709 Y122.658 E9.91821
G1 X119.576 Y123.071 E9.92477
G1 X96.685 Y100.179 E10.41456
G1 X96.305 Y100.346 E10.42083
G1 X119.443 Y123.483 E10.91588
G1 X119.309 Y123.896 E10.92244
G1 X95.928 Y100.515 E11.42271
G1 X95.551 Y100.684 E11.42896
G1 X119.176 Y124.309 E11.93444
G1 X119.043 Y124.721 E11.94100
G1 X95.174 Y100.853 E12.45170
G1 X94.797 Y101.021 E12.45795
G1 X118.897 Y125.122 E12.97361
G1 X118.698 Y125.469 E12.97966
G1 X94.420 Y101.190 E13.49913
G1 X94.043 Y101.359 E13.50538
G1 X118.499 Y125.815 E14.02865
G1 X118.300 Y126.162 E14.03471
G1 X93.665 Y101.528 E14.56179
G1 X93.288 Y101.697 E14.56804
G1 X118.101 Y126.509 E15.09893
G1 X117.902 Y126.856 E15.10498
G1 X92.957 Y101.912 E15.63869
G1 X92.642 Y102.142 E15.64460
G1 X117.702 Y127.203 E16.18080
G1 X117.503 Y127.550 E16.18685
G1 X92.326 Y102.373 E16.72554
G1 X92.011 Y102.603 E16.73145
G1 X117.304 Y127.896 E17.27263
G1 X117.105 Y128.243 E17.27868
G1 X91.695 Y102.834 E17.82235
G1 X91.380 Y103.064 E17.82826
G1 X116.869 Y128.554 E18.37363
G1 X116.611 Y128.842 E18.37948
G1 X91.064 Y103.295 E18.92609
G1 X90.749 Y103.525 E18.93200
G1 X116.353 Y129.130 E19.47984
G1 X116.096 Y129.418 E19.48569
G1 X90.433 Y103.756 E20.03476
G1 X90.118 Y103.986 E20.04068
G1 X115.838 Y129.706 E20.59098
G1 X115.580 Y129.994 E20.59683
G1 X89.859 Y104.273 E21.14715
G1 X89.601 Y104.562 E21.15300
G1 X115.322 Y130.282 E21.70332
G1 X115.064 Y130.570 E21.70917
G1 X89.343 Y104.850 E22.25948
G1 X89.085 Y105.138 E22.26533
G1 X114.806 Y130.858 E22.81565
G1 X114.548 Y131.146 E22.82150
G1 X88.828 Y105.426 E23.37182
G1 X88.570 Y105.714 E23.37767
G1 X114.247 Y131.392 E23.92708
G1 X113.932 Y131.622 E23.93299
G1 X88.312 Y106.002 E24.48116
G1 X88.054 Y106.290 E24.48701
G1 X113.616 Y131.852 E25.03396
G1 X113.301 Y132.083 E25.03987
G1 X87.796 Y106.578 E25.58558
G1 X87.544 Y106.872 E25.59144
G1 X112.985 Y132.313 E26.13578
G1 X112.670 Y132.544 E26.14170
G1 X87.345 Y107.219 E26.68355
G1 X87.146 Y107.566 E26.68960
G1 X112.354 Y132.774 E27.22897
G1 X112.306 Y133.272 E27.23654
G1 X86.947 Y107.913 E27.77914
G1 X86.748 Y108.260 E27.78519
G1 X112.306 Y133.818 E28.33205
G1 X112.306 Y134.364 E28.34031
G1 X86.548 Y108.606 E28.89143
G1 X86.349 Y108.953 E28.89748
G1 X112.306 Y134.910 E29.45287
G1 X112.306 Y135.456 E29.46113
G1 X86.150 Y109.300 E30.02077
G1 X85.951 Y109.647 E30.02682
G1 X112.306 Y136.002 E30.59073
G1 X112.306 Y136.548 E30.59899
G1 X85.752 Y109.994 E31.16715
G1 X85.589 Y110.376 E31.17345
G1 X112.306 Y137.094 E31.74511
G1 X112.306 Y137.640 E31.75337
G1 X85.455 Y110.789 E32.32788
G1 X85.322 Y111.202 E32.33444
G1 X112.306 Y138.186 E32.91181
G1 X112.306 Y138.732 E32.92007
G1 X85.189 Y111.614 E33.50029
G1 X85.055 Y112.027 E33.50685
G1 X112.306 Y139.278 E34.08992
G1 X112.306 Y139.824 E34.09818
G1 X84.922 Y112.440 E34.68411
G1 X84.788 Y112.852 E34.69067
G1 X112.306 Y140.370 E35.27945
G1 X112.054 Y140.664 E35.28531
G1 X84.655 Y113.265 E35.87154
G1 X84.522 Y113.677 E35.87811
G1 X111.508 Y140.664 E36.45551
G1 X110.962 Y140.664 E36.46377
G1 X84.388 Y114.090 E37.03235
G1 X84.098 Y114.346 E37.03821
G1 X110.416 Y140.664 E37.60131
G1 X109.870 Y140.664 E37.60957
G1 X83.552 Y114.346 E38.17267
G1 X83.006 Y114.346 E38.18093
G1 X109.324 Y140.664 E38.74404
G1 X108.778 Y140.664 E38.75230
G1 X82.460 Y114.346 E39.31540
G1 X81.914 Y114.346 E39.32366
G1 X108.232 Y140.664 E39.88677
G1 X107.686 Y140.664 E39.89503
G1 X81.369 Y114.346 E40.45813
G1 X80.823 Y114.346 E40.46639
G1 X107.141 Y140.664 E41.02950
G1 X106.595 Y140.664 E41.03776
G1 X80.277 Y114.346 E41.60086
G1 X79.731 Y114.346 E41.60912
G1 X106.049 Y140.664 E42.17222
G1 X105.503 Y140.664 E42.18048
G1 X79.185 Y114.346 E42.74359
G1 X78.639 Y114.346 E42.75185
G1 X104.957 Y140.664 E43.31495
G1 X104.411 Y140.664 E43.32321
