; generated by Slic3r 0.9.10b on 2013-12-15 at 20:25:49

; layer_height = 0.35
; perimeters = 3
; top_solid_layers = 3
; bottom_solid_layers = 3
; fill_density = 0.2
; perimeter_speed = 50
; infill_speed = 85
; travel_speed = 300
; nozzle_diameter = 0.5
; filament_diameter = 2.87
; extrusion_multiplier = 1
; perimeters extrusion width = 0.58mm
; infill extrusion width = 0.58mm
; solid infill extrusion width = 0.58mm
; top infill extrusion width = 0.58mm
; support material extrusion width = 0.58mm

G21 ; set units to millimeters
M107
G28 ; home all axes
G90 ; use absolute coordinates
G92 E0
M82 ; use absolute distances for extrusion
G1 F1800.000 E-1.00000
G92 E0
G1 Z0.350 F18000.000
G1 X37.227 Y74.687
G1 F1800.000 E1.00000
G1 X91.846 Y46.777 F1500.000 E2.86167
G1 X100.136 Y43.067 E3.13733
G1 X100.776 Y42.817 E3.15819
G1 X101.447 Y42.637 E3.17924
G1 X110.306 Y40.747 E3.45421
G1 X110.987 Y40.647 E3.47507
G1 X111.677 Y40.607 E3.49604
G1 X120.746 Y40.607 E3.77133
G1 X121.436 Y40.647 E3.79231
G1 X122.117 Y40.747 E3.81317
G1 X130.976 Y42.637 E4.08813
G1 X131.647 Y42.817 E4.10919
G1 X132.286 Y43.067 E4.13004
G1 X140.566 Y46.777 E4.40542
G1 X141.186 Y47.087 E4.42646
G1 X141.767 Y47.467 E4.44751
G1 X149.096 Y52.827 E4.72312
G1 X149.626 Y53.267 E4.74402
G1 X150.107 Y53.747 E4.76463
G1 X156.177 Y60.517 E5.04060
G1 X156.617 Y61.057 E5.06174
G1 X156.987 Y61.637 E5.08262
G1 X161.517 Y69.537 E5.35902
G1 X161.827 Y70.147 E5.37979
G1 X162.066 Y70.777 E5.40025
G1 X164.867 Y79.447 E5.67678
G1 X165.047 Y80.107 E5.69754
G1 X165.156 Y80.787 E5.71845
G1 X166.107 Y89.847 E5.99494
G1 X166.136 Y90.527 E6.01560
G1 X166.107 Y91.207 E6.03626
G1 X165.156 Y100.277 E6.31305
G1 X165.047 Y100.957 E6.33396
G1 X164.867 Y101.617 E6.35472
G1 X162.056 Y110.327 E6.63250
G1 X147.446 Y154.587 E8.04714
G1 X146.827 Y155.927 E8.09195
G1 X145.927 Y157.097 E8.13675
G1 X144.786 Y158.037 E8.18160
G1 X143.457 Y158.697 E8.22666
G1 X141.587 Y159.377 E8.28705
G1 X140.487 Y159.667 E8.32158
G1 X139.346 Y159.767 E8.35631
G1 X79.077 Y159.767 E10.18558
G1 X77.936 Y159.667 E10.22032
G1 X76.827 Y159.367 E10.25521
G1 X74.966 Y158.687 E10.31532
G1 X74.026 Y158.257 E10.34670
G1 X73.166 Y157.687 E10.37801
G1 X36.167 Y128.687 E11.80484
G1 X35.117 Y127.647 E11.84970
G1 X34.317 Y126.397 E11.89474
G1 X33.827 Y124.997 E11.93976
G1 X33.657 Y123.527 E11.98467
G1 X33.657 Y80.527 E13.28977
G1 X33.817 Y79.097 E13.33345
G1 X34.277 Y77.737 E13.37702
G1 X35.027 Y76.507 E13.42075
G1 X36.027 Y75.477 E13.46432
G1 X37.156 Y74.733 E13.50537
G1 F1800.000 E12.50537
G92 E0
G1 X42.083 Y80.280 F18000.000
G1 F1800.000 E1.00000
G1 X57.350 Y80.280 F1800.000 E1.46338
G1 X57.350 Y81.402 E1.49743
G1 X42.083 Y81.402 E1.96081
G1 X42.083 Y82.524 E1.99486
G1 X57.350 Y82.524 E2.45824
G1 X57.350 Y83.646 E2.49230
G1 X42.083 Y83.646 E2.95568
G1 X42.083 Y84.768 E2.98973
G1 X57.350 Y84.768 E3.45311
G1 X57.350 Y85.890 E3.48716
G1 X42.083 Y85.890 E3.95054
G1 F1800.000 E2.95054
G92 E0
G1 X40.217 Y87.012 F18000.000
G1 F1800.000 E1.00000
G1 X57.350 Y87.012 F1800.000 E1.52003
G1 X57.350 Y88.134 E1.55408
G1 X40.217 Y88.134 E2.07411
G1 X40.217 Y89.256 E2.10816
G1 X57.350 Y89.256 E2.62819
G1 X57.350 Y90.378 E2.66224
G1 X40.217 Y90.378 E3.18227
G1 X40.217 Y91.500 E3.21632
G1 X57.350 Y91.500 E3.73634
G1 X57.350 Y92.622 E3.77040
G1 X40.217 Y92.622 E4.29042
G1 X40.217 Y93.744 E4.32448
G1 X57.350 Y93.744 E4.84450
G1 X57.350 Y94.866 E4.87856
G1 X40.217 Y94.866 E5.39858
G1 X40.217 Y95.988 E5.43264
G1 X57.350 Y95.988 E5.95266
G1 X57.350 Y97.110 E5.98672
G1 X40.217 Y97.110 E6.50674
G1 X40.217 Y98.232 E6.54080
G1 X57.350 Y98.232 E7.06082
G1 X57.350 Y99.354 E7.09488
G1 X40.217 Y99.354 E7.61490
G1 X40.217 Y100.476 E7.64896
G1 X57.350 Y100.476 E8.16898
G1 X57.350 Y101.598 E8.20304
G1 X40.217 Y101.598 E8.72306
G1 X40.217 Y102.720 E8.75712
G1 X57.350 Y102.720 E9.27714
G1 X57.350 Y103.842 E9.31120
G1 X40.217 Y103.842 E9.83122
G1 X40.217 Y104.964 E9.86528
G1 X57.350 Y104.964 E10.38530
G1 X57.350 Y106.086 E10.41936
G1 X40.217 Y106.086 E10.93938
G1 X40.217 Y107.208 E10.97344
G1 X57.350 Y107.208 E11.49346
G1 X57.350 Y108.330 E11.52752
G1 X40.217 Y108.330 E12.04754
G1 X40.217 Y109.452 E12.08160
G1 X57.350 Y109.452 E12.60162
G1 X57.350 Y110.574 E12.63568
G1 X40.217 Y110.574 E13.15570
G1 X40.217 Y111.696 E13.18975
G1 X57.350 Y111.696 E13.70978
G1 X57.350 Y112.818 E13.74383
G1 X40.217 Y112.818 E14.26386
G1 X40.217 Y113.940 E14.29791
G1 X57.350 Y113.940 E14.81794
G1 X57.350 Y115.062 E14.85199
G1 X40.217 Y115.062 E15.37202
G1 X40.217 Y116.184 E15.40607
G1 X57.350 Y116.184 E15.92610
G1 X57.350 Y117.306 E15.96015
G1 X40.217 Y117.306 E16.48018
G1 F1800.000 E15.48018
G92 E0
G1 X42.083 Y118.428 F18000.000
G1 F1800.000 E1.00000
G1 X57.350 Y118.428 F1800.000 E1.46338
G1 X57.350 Y119.550 E1.49743
G1 X42.083 Y119.550 E1.96081
G1 X42.083 Y120.672 E1.99486
G1 X57.350 Y120.672 E2.45824
G1 F1800.000 E1.45824
G92 E0
G1 X60.378 Y124.038 F18000.000
G1 F1800.000 E1.00000
G1 X76.350 Y124.038 F1800.000 E1.48476
G1 F1800.000 E0.48476
G92 E0
G1 X76.378 Y146.478 F18000.000
G1 F1800.000 E1.00000
G1 X141.555 Y146.478 F1800.000 E2.97818
G1 X141.555 Y147.600 E3.01223
G1 X76.378 Y147.600 E4.99041
G1 X76.378 Y148.722 E5.02446
G1 X141.555 Y148.722 E7.00264
G1 X141.555 Y149.844 E7.03669
G1 X76.378 Y149.844 E9.01487
G1 X79.083 Y150.966 E9.10374
G1 X97.350 Y150.966 E9.65817
G1 X97.350 Y152.088 E9.69222
G1 X79.083 Y152.088 E10.24666
G1 X79.083 Y153.210 E10.28071
G1 X97.350 Y153.210 E10.83514
G1 F1800.000 E9.83514
G92 E0
G1 X100.083 Y153.210 F18000.000
G1 F1800.000 E1.00000
G1 X118.350 Y153.210 F1800.000 E1.55443
G1 X118.350 Y152.088 E1.58849
G1 X100.083 Y152.088 E2.14292
G1 X100.083 Y150.966 E2.17697
G1 X118.350 Y150.966 E2.73140
G1 F1800.000 E1.73140
G92 E0
G1 X121.083 Y150.966 F18000.000
G1 F1800.000 E1.00000
G1 X139.350 Y150.966 F1800.000 E1.55443
G1 X139.350 Y152.088 E1.58849
G1 X121.083 Y152.088 E2.14292
G1 X121.083 Y153.210 E2.17697
G1 X139.350 Y153.210 E2.73140
G1 F1800.000 E1.73140
G92 E0
G1 X42.083 Y122.916 F18000.000
G1 F1800.000 E1.00000
G1 X76.350 Y122.916 F1800.000 E2.04005
G1 X76.350 Y121.794 E2.07411
G1 X42.083 Y121.794 E3.11416
G1 F1800.000 E2.11416
G92 E0
G1 X59.619 Y119.131 F18000.000
G1 F1800.000 E1.00000
G1 X59.619 Y81.936 F1500.000 E2.12891
G1 X75.124 Y81.936 E2.59950
G1 X77.892 Y73.370 E2.87273
G1 X82.278 Y65.731 E3.14008
G1 X88.147 Y59.176 E3.40712
G1 X95.243 Y53.993 E3.67383
G1 X103.255 Y50.406 E3.94025
G1 X111.832 Y48.573 E4.20646
G1 X120.601 Y48.573 E4.47261
G1 X129.178 Y50.406 E4.73883
G1 X137.190 Y53.993 E5.00525
G1 X144.286 Y59.176 E5.27195
G1 X150.155 Y65.731 E5.53899
G1 X154.541 Y73.370 E5.80635
G1 X157.253 Y81.760 E6.07396
G1 X158.170 Y90.533 E6.34170
G1 X157.253 Y99.307 E6.60945
G1 X154.541 Y107.697 E6.87706
G1 X150.155 Y115.336 E7.14442
G1 X144.286 Y121.890 E7.41146
G1 X139.814 Y125.157 E7.57954
G1 X139.814 Y143.131 E8.12506
G1 X78.619 Y143.131 E9.98240
G1 X78.619 Y119.131 E10.71083
G1 X59.703 Y119.131 E11.28495
G1 X59.058 Y119.692 F18000.000
G1 X59.058 Y81.375 F1500.000 E12.44792
G1 X74.715 Y81.375 E12.92314
G1 X77.376 Y73.141 E13.18576
G1 X81.821 Y65.400 E13.45668
G1 X87.769 Y58.758 E13.72730
G1 X94.960 Y53.505 E13.99759
G1 X103.079 Y49.870 E14.26760
G1 X111.773 Y48.012 E14.53741
G1 X120.660 Y48.012 E14.80716
G1 X129.354 Y49.870 E15.07698
G1 X137.473 Y53.505 E15.34698
G1 X144.664 Y58.758 E15.61728
G1 X150.612 Y65.400 E15.88789
G1 X155.057 Y73.141 E16.15882
G1 X157.805 Y81.643 E16.43000
G1 X158.734 Y90.533 E16.70130
G1 X157.805 Y99.424 E16.97260
G1 X155.057 Y107.925 E17.24378
G1 X150.612 Y115.666 E17.51470
G1 X144.664 Y122.309 E17.78532
G1 X140.375 Y125.442 E17.94654
G1 X140.375 Y143.692 E18.50044
G1 X78.058 Y143.692 E20.39184
G1 X78.058 Y119.692 E21.12027
G1 X59.142 Y119.692 E21.69439
G1 X58.497 Y120.253 F18000.000
G1 X58.497 Y80.814 F1500.000 E22.89141
G1 X74.307 Y80.814 E23.37127
G1 X76.860 Y72.913 E23.62328
G1 X81.364 Y65.070 E23.89777
G1 X87.390 Y58.340 E24.17197
G1 X94.677 Y53.017 E24.44585
G1 X102.904 Y49.334 E24.71945
G1 X111.713 Y47.451 E24.99286
G1 X120.720 Y47.451 E25.26620
G1 X129.529 Y49.334 E25.53961
G1 X137.756 Y53.017 E25.81321
G1 X145.043 Y58.340 E26.08709
G1 X151.069 Y65.070 E26.36129
G1 X155.573 Y72.913 E26.63578
G1 X158.356 Y81.526 E26.91052
G1 X159.298 Y90.533 E27.18538
G1 X158.356 Y99.540 E27.46025
G1 X155.573 Y108.154 E27.73499
G1 X151.069 Y115.997 E28.00948
G1 X145.043 Y122.727 E28.28368
G1 X140.936 Y125.727 E28.43804
G1 X140.936 Y144.253 E29.00032
G1 X77.497 Y144.253 E30.92577
G1 X77.497 Y120.253 E31.65420
G1 X58.581 Y120.253 E32.22832
G1 X58.777 Y119.767 F18000.000
G1 F1800.000 E31.22832
G92 E0
G1 X98.591 Y152.158 F18000.000
G1 F1800.000 E1.00000
G1 X98.716 Y152.033 F900.000 E1.00537
G1 X98.591 Y151.908 E1.01073
G1 X98.716 Y152.033 F18000.000
G1 X98.841 Y152.158 F900.000 E1.01610
G1 X98.716 Y152.033 F18000.000
G1 X98.841 Y151.908 F900.000 E1.02146
G1 F1800.000 E0.02146
G92 E0
G1 X119.591 Y151.908 F18000.000
G1 F1800.000 E1.00000
G1 X119.716 Y152.033 F900.000 E1.00537
G1 X119.591 Y152.158 E1.01073
G1 X119.716 Y152.033 F18000.000
G1 X119.841 Y152.158 F900.000 E1.01610
G1 X119.716 Y152.033 F18000.000
G1 X119.841 Y151.908 F900.000 E1.02146
G1 F1800.000 E0.02146
G92 E0
G1 X140.591 Y151.908 F18000.000
G1 F1800.000 E1.00000
G1 X140.716 Y152.033 F900.000 E1.00537
G1 X140.591 Y152.158 E1.01073
G1 X140.716 Y152.033 F18000.000
G1 X140.841 Y152.158 F900.000 E1.01610
G1 X140.716 Y152.033 F18000.000
G1 X140.841 Y151.908 F900.000 E1.02146
G1 F1800.000 E0.02146
G92 E0
G1 X77.841 Y151.908 F18000.000
G1 F1800.000 E1.00000
G1 X77.716 Y152.033 F900.000 E1.00537
G1 X77.716 Y152.033 F18000.000
G1 X77.841 Y152.158 F900.000 E1.01073
G1 X77.591 Y152.158 F18000.000
G1 X77.716 Y152.033 F900.000 E1.01610
G1 X77.591 Y151.908 E1.02146
G1 F1800.000 E0.02146
G92 E0
G1 X40.842 Y123.158 F18000.000
G1 F1800.000 E1.00000
G1 X40.717 Y123.033 F900.000 E1.00537
G1 X40.717 Y123.033 F18000.000
G1 X40.842 Y122.908 F900.000 E1.01073
G1 X40.592 Y122.908 F18000.000
G1 X40.717 Y123.033 F900.000 E1.01610
G1 X40.592 Y123.158 E1.02146
G1 F1800.000 E0.02146
G92 E0
G1 X40.592 Y121.158 F18000.000
G1 F1800.000 E1.00000
G1 X40.717 Y121.033 F900.000 E1.00537
G1 X40.592 Y120.908 E1.01073
G1 X40.717 Y121.033 F18000.000
G1 X40.842 Y121.158 F900.000 E1.01610
G1 X40.717 Y121.033 F18000.000
G1 X40.842 Y120.908 F900.000 E1.02146
G1 X40.842 Y119.158 F18000.000
G1 X40.717 Y119.033 F900.000 E1.02683
G1 X40.717 Y119.033 F18000.000
G1 X40.842 Y118.908 F900.000 E1.03219
G1 X40.592 Y118.908 F18000.000
G1 X40.717 Y119.033 F900.000 E1.03756
G1 X40.592 Y119.158 E1.04292
G1 F1800.000 E0.04292
G92 E0
G1 X40.592 Y85.158 F18000.000
G1 F1800.000 E1.00000
G1 X40.717 Y85.033 F900.000 E1.00537
G1 X40.592 Y84.908 E1.01073
G1 X40.717 Y85.033 F18000.000
G1 X40.842 Y85.158 F900.000 E1.01610
G1 X40.717 Y85.033 F18000.000
G1 X40.842 Y84.908 F900.000 E1.02146
G1 X40.842 Y83.158 F18000.000
G1 X40.717 Y83.033 F900.000 E1.02683
G1 X40.717 Y83.033 F18000.000
G1 X40.842 Y82.908 F900.000 E1.03219
G1 X40.592 Y82.908 F18000.000
G1 X40.717 Y83.033 F900.000 E1.03756
G1 X40.592 Y83.158 E1.04292
G1 F1800.000 E0.04292
G92 E0
G1 X40.592 Y81.158 F18000.000
G1 F1800.000 E1.00000
G1 X40.717 Y81.033 F900.000 E1.00537
G1 X40.592 Y80.908 E1.01073
G1 X40.717 Y81.033 F18000.000
G1 X40.842 Y81.158 F900.000 E1.01610
G1 X40.717 Y81.033 F18000.000
G1 X40.842 Y80.908 F900.000 E1.02146
G1 F1800.000 E0.02146
G92 E0
G1 X60.026 Y98.505 F18000.000
G1 F1800.000 E1.00000
G1 X104.245 Y142.724 F2250.000 E2.89896
G1 X105.038 Y142.724 E2.92306
G1 X60.026 Y97.712 E4.85611
G1 X60.026 Y96.918 E4.88022
G1 X105.832 Y142.724 E6.84735
G1 X106.626 Y142.724 E6.87146
G1 X60.026 Y96.124 E8.87268
G1 X60.026 Y95.330 E8.89679
G1 X107.420 Y142.724 E10.93210
G1 X108.213 Y142.724 E10.95620
G1 X60.026 Y94.536 E13.02560
G1 X60.026 Y93.743 E13.04971
G1 X109.007 Y142.724 E15.15320
G1 X109.801 Y142.724 E15.17730
G1 X60.026 Y92.949 E17.31488
G1 X60.026 Y92.155 E17.33898
G1 X110.595 Y142.724 E19.51065
G1 X111.388 Y142.724 E19.53475
G1 X60.026 Y91.361 E21.74050
G1 X60.026 Y90.568 E21.76461
G1 X112.182 Y142.724 E24.00445
G1 X112.976 Y142.724 E24.02855
G1 X60.026 Y89.774 E26.30248
G1 X60.026 Y88.980 E26.32658
G1 X113.770 Y142.724 E28.63460
G1 X114.564 Y142.724 E28.65870
G1 X60.026 Y88.186 E31.00081
G1 X60.026 Y87.393 E31.02491
G1 X115.357 Y142.724 E33.40111
G1 X116.151 Y142.724 E33.42521
G1 X60.026 Y86.599 E35.83549
G1 X60.026 Y85.805 E35.85959
G1 X116.945 Y142.724 E38.30396
G1 X117.739 Y142.724 E38.32807
G1 X60.026 Y85.011 E40.80652
G1 X60.026 Y84.218 E40.83063
G1 X118.532 Y142.724 E43.34317
G1 X119.326 Y142.724 E43.36727
G1 X60.026 Y83.424 E45.91391
G1 X60.026 Y82.630 E45.93801
G1 X120.120 Y142.724 E48.51873
G1 X120.914 Y142.724 E48.54284
G1 X60.532 Y82.342 E51.13590
G1 X61.326 Y82.342 E51.16001
G1 X121.707 Y142.724 E53.75307
G1 X122.501 Y142.724 E53.77718
G1 X62.119 Y82.342 E56.37025
G1 X62.913 Y82.342 E56.39435
G1 X123.295 Y142.724 E58.98742
G1 X124.089 Y142.724 E59.01152
G1 X63.707 Y82.342 E61.60459
G1 X64.501 Y82.342 E61.62869
G1 X124.882 Y142.724 E64.22176
G1 X125.676 Y142.724 E64.24587
G1 X65.294 Y82.342 E66.83893
G1 X66.088 Y82.342 E66.86304
G1 X126.470 Y142.724 E69.45610
G1 X127.264 Y142.724 E69.48021
G1 X66.882 Y82.342 E72.07328
G1 X67.676 Y82.342 E72.09738
G1 X128.058 Y142.724 E74.69045
G1 X128.851 Y142.724 E74.71455
G1 X68.470 Y82.342 E77.30762
G1 X69.263 Y82.342 E77.33172
G1 X129.645 Y142.724 E79.92479
G1 X130.439 Y142.724 E79.94889
G1 X70.057 Y82.342 E82.54196
G1 X70.851 Y82.342 E82.56607
G1 X131.233 Y142.724 E85.15913
G1 X132.026 Y142.724 E85.18324
G1 X71.645 Y82.342 E87.77631
G1 X72.438 Y82.342 E87.80041
G1 X132.820 Y142.724 E90.39348
G1 X133.614 Y142.724 E90.41758
G1 X73.232 Y82.342 E93.01065
G1 X74.026 Y82.342 E93.03475
G1 X134.408 Y142.724 E95.62782
G1 X135.201 Y142.724 E95.65192
G1 X74.820 Y82.342 E98.24499
G1 X75.467 Y82.196 E98.26514
G1 X135.995 Y142.724 E100.86450
G1 X136.789 Y142.724 E100.88861
G1 X75.661 Y81.596 E103.51373
G1 X75.855 Y80.996 E103.53287
G1 X137.583 Y142.724 E106.18376
G1 X138.377 Y142.724 E106.20786
G1 X76.048 Y80.396 E108.88451
G1 X76.242 Y79.796 E108.90366
G1 X139.170 Y142.724 E111.60607
G1 X139.407 Y142.168 E111.62444
G1 X76.436 Y79.196 E114.32871
G1 X76.630 Y78.596 E114.34785
G1 X139.407 Y141.374 E117.04380
G1 X139.407 Y140.580 E117.06790
G1 X76.824 Y77.997 E119.75552
G1 X77.018 Y77.397 E119.77466
G1 X139.407 Y139.786 E122.45396
G1 X139.407 Y138.992 E122.47806
G1 X77.212 Y76.797 E125.14903
G1 X77.405 Y76.197 E125.16817
G1 X139.407 Y138.199 E127.83082
G1 X139.407 Y137.405 E127.85492
G1 X77.599 Y75.597 E130.50924
G1 X77.793 Y74.997 E130.52838
G1 X139.407 Y136.611 E133.17438
G1 X139.407 Y135.817 E133.19848
G1 X77.987 Y74.397 E135.83615
G1 X78.181 Y73.797 E135.85529
G1 X139.407 Y135.024 E138.48464
G1 X139.407 Y134.230 E138.50874
G1 X78.429 Y73.251 E141.12744
G1 X78.718 Y72.747 E141.14510
G1 X139.407 Y133.436 E143.75137
G1 X139.407 Y132.642 E143.77547
G1 X79.008 Y72.243 E146.36931
G1 X79.297 Y71.738 E146.38696
G1 X139.407 Y131.849 E148.96836
G1 X139.407 Y131.055 E148.99247
G1 X79.587 Y71.234 E151.56143
G1 X79.876 Y70.730 E151.57909
G1 X139.407 Y130.261 E154.13562
G1 X139.407 Y129.467 E154.15973
G1 X80.166 Y70.226 E156.70383
G1 X80.455 Y69.722 E156.72148
G1 X139.407 Y128.674 E159.25315
G1 X139.407 Y127.880 E159.27726
G1 X80.745 Y69.217 E161.79649
G1 X81.034 Y68.713 E161.81414
G1 X139.407 Y127.086 E164.32094
G1 X139.407 Y126.292 E164.34505
G1 X81.324 Y68.209 E166.83941
G1 X81.613 Y67.705 E166.85707
G1 X139.407 Y125.498 E169.33900
G1 X139.550 Y124.847 E169.35925
G1 X81.903 Y67.200 E171.83486
G1 X82.193 Y66.696 E171.85251
G1 X140.008 Y124.512 E174.33538
G1 X140.467 Y124.177 E174.35263
G1 X82.482 Y66.192 E176.84276
G1 X82.820 Y65.735 E176.85999
G1 X140.926 Y123.842 E179.35533
G1 X141.384 Y123.506 E179.37258
G1 X83.195 Y65.317 E181.87151
G1 X83.570 Y64.898 E181.88858
G1 X141.843 Y123.171 E184.39111
G1 X142.302 Y122.836 E184.40836
G1 X83.945 Y64.479 E186.91448
G1 X84.320 Y64.060 E186.93155
G1 X142.760 Y122.501 E189.44126
G1 X143.219 Y122.166 E189.45851
G1 X84.695 Y63.642 E191.97181
G1 X85.070 Y63.223 E191.98888
