; generated by Slic3r 0.9.10b on 2013-12-15 at 00:41:08

; layer_height = 0.25
; perimeters = 3
; top_solid_layers = 3
; bottom_solid_layers = 3
; fill_density = 0.2
; perimeter_speed = 30
; infill_speed = 60
; travel_speed = 200
; nozzle_diameter = 0.35
; filament_diameter = 2.85
; extrusion_multiplier = 1
; perimeters extrusion width = 0.39mm
; infill extrusion width = 0.39mm
; solid infill extrusion width = 0.39mm
; top infill extrusion width = 0.39mm

G21 ; set units to millimeters
M190 S60 ; wait for bed temperature to be reached
M104 S190 ; set temperature
G28 ; home all axes
M106 S255; 
M109 S190 ; wait for temperature to be reached
G90 ; use absolute coordinates
G92 E0
M82 ; use absolute distances for extrusion
G1 F1800.000 E-1.00000
G92 E0
G1 Z0.250 F12000.000
G1 X41.110 Y88.070
G1 F1800.000 E1.00000
G1 X61.610 Y78.070 F900.000 E1.34400
G1 X63.140 Y77.530 E1.36847
G1 X64.750 Y77.350 E1.39290
G1 X104.750 Y77.350 E1.99616
G1 X106.150 Y77.480 E2.01737
G1 X107.490 Y77.890 E2.03850
G1 X108.720 Y78.550 E2.05955
G1 X109.810 Y79.440 E2.08077
G1 X110.700 Y80.530 E2.10200
G1 X111.360 Y81.760 E2.12305
G1 X111.770 Y83.100 E2.14418
G1 X111.900 Y84.500 E2.16539
G1 X111.900 Y85.500 E2.18047
G1 X111.780 Y86.810 E2.20031
G1 X111.430 Y88.070 E2.22003
G1 X110.840 Y89.250 E2.23993
G1 X110.060 Y90.300 E2.25966
G1 X86.560 Y116.300 E2.78821
G1 X85.450 Y117.290 E2.81064
G1 X84.150 Y118.040 E2.83328
G1 X82.730 Y118.500 E2.85579
G1 X81.250 Y118.650 E2.87822
G1 X44.250 Y118.650 E3.43624
G1 X42.850 Y118.520 E3.45745
G1 X41.510 Y118.110 E3.47858
G1 X40.280 Y117.450 E3.49963
G1 X39.190 Y116.560 E3.52085
G1 X38.300 Y115.470 E3.54208
G1 X37.640 Y114.240 E3.56313
G1 X37.230 Y112.900 E3.58426
G1 X37.100 Y111.500 E3.60547
G1 X37.100 Y94.500 E3.86186
G1 X37.220 Y93.180 E3.88184
G1 X37.590 Y91.900 E3.90194
G1 X38.180 Y90.710 E3.92197
G1 X38.990 Y89.650 E3.94209
G1 X39.980 Y88.760 E3.96217
G1 X41.061 Y88.100 E3.98127
G1 X41.280 Y88.420 F12000.000
G1 X61.780 Y78.420 F900.000 E4.32526
G1 X63.230 Y77.900 E4.34849
G1 X64.750 Y77.730 E4.37156
G1 X104.750 Y77.730 E4.97482
G1 X106.070 Y77.860 E4.99483
G1 X107.340 Y78.250 E5.01486
G1 X108.510 Y78.870 E5.03483
G1 X109.540 Y79.710 E5.05488
G1 X110.380 Y80.740 E5.07492
G1 X111.000 Y81.910 E5.09489
G1 X111.390 Y83.180 E5.11493
G1 X111.520 Y84.500 E5.13493
G1 X111.520 Y85.500 E5.15001
G1 X111.320 Y87.140 E5.17493
G1 X110.720 Y88.690 E5.20000
G1 X109.770 Y90.040 E5.22489
G1 X86.270 Y116.040 E5.75345
G1 X85.220 Y116.980 E5.77470
G1 X84.000 Y117.690 E5.79599
G1 X82.650 Y118.120 E5.81736
G1 X81.250 Y118.270 E5.83859
G1 X44.250 Y118.270 E6.39661
G1 X42.930 Y118.140 E6.41662
G1 X41.660 Y117.750 E6.43665
G1 X40.490 Y117.130 E6.45662
G1 X39.460 Y116.290 E6.47667
G1 X38.620 Y115.260 E6.49671
G1 X38.000 Y114.090 E6.51668
G1 X37.610 Y112.820 E6.53672
G1 X37.480 Y111.500 E6.55672
G1 X37.480 Y94.500 E6.81311
G1 X37.650 Y93.000 E6.83588
G1 X38.140 Y91.580 E6.85853
G1 X38.940 Y90.300 E6.88130
G1 X40.010 Y89.220 E6.90422
G1 X41.231 Y88.451 E6.92599
G1 X41.450 Y88.760 F12000.000
G1 X61.950 Y78.760 F900.000 E7.26999
G1 X63.310 Y78.280 E7.29174
G1 X64.750 Y78.120 E7.31359
G1 X104.750 Y78.120 E7.91685
G1 X106.000 Y78.240 E7.93579
G1 X107.190 Y78.600 E7.95454
G1 X108.300 Y79.190 E7.97350
G1 X109.260 Y79.990 E7.99234
G1 X110.060 Y80.950 E8.01119
G1 X110.650 Y82.060 E8.03015
G1 X111.010 Y83.250 E8.04890
G1 X111.130 Y84.500 E8.06784
G1 X111.130 Y85.500 E8.08292
G1 X110.940 Y87.050 E8.10647
G1 X110.380 Y88.500 E8.12991
G1 X109.490 Y89.780 E8.15343
G1 X85.990 Y115.780 E8.68198
G1 X85.000 Y116.670 E8.70206
G1 X83.840 Y117.340 E8.72226
G1 X82.570 Y117.750 E8.74239
G1 X81.250 Y117.880 E8.76239
G1 X44.250 Y117.880 E9.32041
G1 X43.000 Y117.760 E9.33935
G1 X41.810 Y117.400 E9.35810
G1 X40.700 Y116.810 E9.37706
G1 X39.740 Y116.010 E9.39590
G1 X38.940 Y115.050 E9.41475
G1 X38.350 Y113.940 E9.43371
G1 X37.990 Y112.750 E9.45246
G1 X37.870 Y111.500 E9.47140
G1 X37.870 Y94.500 E9.72778
G1 X38.020 Y93.090 E9.74917
G1 X38.490 Y91.740 E9.77073
G1 X39.250 Y90.530 E9.79228
G1 X40.250 Y89.520 E9.81371
G1 X41.401 Y88.791 E9.83426
G1 F1800.000 E8.83426
G92 E0
G1 X45.212 Y95.462 F12000.000
G1 F1800.000 E1.00000
G1 X80.288 Y95.462 F900.000 E1.52900
G1 X80.288 Y110.538 E1.75636
G1 X63.212 Y110.538 E2.01389
G1 X63.212 Y98.538 E2.19487
G1 X45.212 Y98.538 E2.46634
G1 X45.212 Y95.520 E2.51186
G1 F1800.000 E1.51186
G92 E0
G1 X44.827 Y98.923 F12000.000
G1 F1800.000 E1.00000
G1 X44.827 Y95.077 F900.000 E1.05800
G1 X80.673 Y95.077 E1.59860
G1 X80.673 Y110.923 E1.83758
G1 X62.827 Y110.923 E2.10671
G1 X62.827 Y98.923 E2.28769
G1 X44.885 Y98.923 E2.55829
G1 X45.058 Y99.308 F12000.000
G1 X45.058 Y111.308 F900.000 E2.73927
G1 X44.442 Y111.308 E2.74855
G1 X44.442 Y94.692 E2.99913
G1 X81.058 Y94.692 E3.55134
G1 X81.058 Y111.308 E3.80192
G1 X62.442 Y111.308 E4.08267
G1 X62.442 Y99.308 E4.26365
G1 X45.115 Y99.308 E4.52497
G1 X44.673 Y99.308 F12000.000
G1 F1800.000 E3.52497
G92 E0
G1 X64.942 Y85.308 F12000.000
G1 F1800.000 E1.00000
G1 X64.942 Y84.692 F900.000 E1.00928
G1 X104.558 Y84.692 E1.60674
G1 X104.558 Y85.308 E1.61601
G1 X65.000 Y85.308 E2.21260
G1 X65.135 Y84.974 F12000.000
G1 F1800.000 E1.21260
G92 E0
G1 X80.009 Y96.071 F12000.000
G1 F1800.000 E1.00000
G1 X79.679 Y95.741 F1800.000 E1.00704
G1 X79.134 Y95.741 E1.01527
G1 X80.009 Y96.616 E1.03396
G1 X80.009 Y97.161 E1.04219
G1 X78.589 Y95.741 E1.07251
G1 X78.044 Y95.741 E1.08074
G1 X80.009 Y97.706 E1.12271
G1 X80.009 Y98.251 E1.13094
G1 X77.499 Y95.741 E1.18455
G1 X76.954 Y95.741 E1.19278
G1 X80.009 Y98.796 E1.25802
G1 X80.009 Y99.341 E1.26626
G1 X76.409 Y95.741 E1.34314
G1 X75.864 Y95.741 E1.35137
G1 X80.009 Y99.886 E1.43990
G1 X80.009 Y100.431 E1.44813
G1 X75.319 Y95.741 E1.54830
G1 X74.774 Y95.741 E1.55653
G1 X80.009 Y100.976 E1.66834
G1 X80.009 Y101.521 E1.67658
G1 X74.229 Y95.741 E1.80003
G1 X73.684 Y95.741 E1.80826
G1 X80.009 Y102.066 E1.94335
G1 X80.009 Y102.611 E1.95158
G1 X73.139 Y95.741 E2.09831
G1 X72.594 Y95.741 E2.10654
G1 X80.009 Y103.156 E2.26492
G1 X80.009 Y103.701 E2.27315
G1 X72.049 Y95.741 E2.44316
G1 X71.504 Y95.741 E2.45139
G1 X80.009 Y104.246 E2.63305
G1 X80.009 Y104.791 E2.64128
G1 X70.959 Y95.741 E2.83458
G1 X70.414 Y95.741 E2.84281
G1 X80.009 Y105.336 E3.04774
G1 X80.009 Y105.881 E3.05598
G1 X69.869 Y95.741 E3.27255
G1 X69.324 Y95.741 E3.28078
G1 X80.009 Y106.426 E3.50900
G1 X80.009 Y106.971 E3.51723
G1 X68.779 Y95.741 E3.75709
G1 X68.234 Y95.741 E3.76532
G1 X80.009 Y107.516 E4.01683
G1 X80.009 Y108.061 E4.02506
G1 X67.689 Y95.741 E4.28820
G1 X67.144 Y95.741 E4.29643
G1 X80.009 Y108.606 E4.57121
G1 X80.009 Y109.151 E4.57944
G1 X66.599 Y95.741 E4.86586
G1 X66.054 Y95.741 E4.87410
G1 X80.009 Y109.696 E5.17216
G1 X80.009 Y110.241 E5.18039
G1 X65.509 Y95.741 E5.49009
G1 X64.964 Y95.741 E5.49833
G1 X79.482 Y110.259 E5.80841
G1 X78.937 Y110.259 E5.81664
G1 X64.419 Y95.741 E6.12672
G1 X63.874 Y95.741 E6.13496
G1 X78.392 Y110.259 E6.44504
G1 X77.847 Y110.259 E6.45327
G1 X63.329 Y95.741 E6.76335
G1 X62.784 Y95.741 E6.77159
G1 X77.302 Y110.259 E7.08167
G1 X76.757 Y110.259 E7.08990
G1 X62.239 Y95.741 E7.39998
G1 X61.694 Y95.741 E7.40822
G1 X76.212 Y110.259 E7.71830
G1 X75.667 Y110.259 E7.72653
G1 X61.149 Y95.741 E8.03661
G1 X60.604 Y95.741 E8.04485
G1 X63.122 Y98.259 E8.09863
G1 X62.577 Y98.259 E8.10686
G1 X60.059 Y95.741 E8.16064
G1 X59.514 Y95.741 E8.16887
G1 X62.032 Y98.259 E8.22265
G1 X61.487 Y98.259 E8.23088
G1 X58.969 Y95.741 E8.28466
G1 X58.424 Y95.741 E8.29289
G1 X60.941 Y98.259 E8.34667
G1 X60.396 Y98.259 E8.35490
G1 X57.878 Y95.741 E8.40869
G1 X57.333 Y95.741 E8.41692
G1 X59.851 Y98.259 E8.47070
G1 X59.306 Y98.259 E8.47893
G1 X56.788 Y95.741 E8.53271
G1 X56.243 Y95.741 E8.54094
G1 X58.761 Y98.259 E8.59472
G1 X58.216 Y98.259 E8.60295
G1 X55.698 Y95.741 E8.65673
G1 X55.153 Y95.741 E8.66496
G1 X57.671 Y98.259 E8.71874
G1 X57.126 Y98.259 E8.72698
G1 X54.608 Y95.741 E8.78076
G1 X54.063 Y95.741 E8.78899
G1 X56.581 Y98.259 E8.84277
G1 X56.036 Y98.259 E8.85100
G1 X53.518 Y95.741 E8.90478
G1 X52.973 Y95.741 E8.91301
G1 X55.491 Y98.259 E8.96679
G1 X54.946 Y98.259 E8.97502
G1 X52.428 Y95.741 E9.02880
G1 X51.883 Y95.741 E9.03704
G1 X54.401 Y98.259 E9.09082
G1 X53.856 Y98.259 E9.09905
G1 X51.338 Y95.741 E9.15283
G1 X50.793 Y95.741 E9.16106
G1 X53.311 Y98.259 E9.21484
G1 X52.766 Y98.259 E9.22307
G1 X50.248 Y95.741 E9.27685
G1 X49.703 Y95.741 E9.28508
G1 X52.221 Y98.259 E9.33886
G1 X51.676 Y98.259 E9.34710
G1 X49.158 Y95.741 E9.40088
G1 X48.613 Y95.741 E9.40911
G1 X51.131 Y98.259 E9.46289
G1 X50.586 Y98.259 E9.47112
G1 X48.068 Y95.741 E9.52490
G1 X47.523 Y95.741 E9.53313
G1 X50.041 Y98.259 E9.58691
G1 X49.496 Y98.259 E9.59514
G1 X46.978 Y95.741 E9.64892
G1 X46.433 Y95.741 E9.65716
G1 X48.951 Y98.259 E9.71094
G1 X48.406 Y98.259 E9.71917
G1 X45.888 Y95.741 E9.77295
G1 X45.491 Y95.889 E9.77935
G1 X47.861 Y98.259 E9.82997
G1 X47.316 Y98.259 E9.83820
G1 X45.491 Y96.434 E9.87718
G1 X45.491 Y96.979 E9.88541
G1 X46.771 Y98.259 E9.91275
G1 X46.226 Y98.259 E9.92098
G1 X45.491 Y97.524 E9.93668
G1 X45.491 Y98.069 E9.94491
G1 X45.681 Y98.259 E9.94897
G1 F1800.000 E8.94897
G92 E0
G1 X63.676 Y110.259 F12000.000
G1 F1800.000 E1.00000
G1 X63.491 Y110.074 F1800.000 E1.00395
G1 X63.491 Y109.529 E1.01219
G1 X64.221 Y110.259 E1.02778
G1 X64.766 Y110.259 E1.03601
G1 X63.491 Y108.984 E1.06325
G1 X63.491 Y108.439 E1.07148
G1 X65.311 Y110.259 E1.11036
G1 X65.856 Y110.259 E1.11859
G1 X63.491 Y107.894 E1.16911
G1 X63.491 Y107.349 E1.17734
G1 X66.401 Y110.259 E1.23950
G1 X66.946 Y110.259 E1.24773
G1 X63.491 Y106.804 E1.32153
G1 X63.491 Y106.259 E1.32976
G1 X67.491 Y110.259 E1.41520
G1 X68.036 Y110.259 E1.42343
G1 X63.491 Y105.714 E1.52051
G1 X63.491 Y105.169 E1.52875
G1 X68.581 Y110.259 E1.63747
G1 X69.126 Y110.259 E1.64570
G1 X63.491 Y104.624 E1.76606
G1 X63.491 Y104.079 E1.77429
G1 X69.671 Y110.259 E1.90630
G1 X70.216 Y110.259 E1.91453
G1 X63.491 Y103.534 E2.05817
G1 X63.491 Y102.989 E2.06641
G1 X70.761 Y110.259 E2.22169
G1 X71.306 Y110.259 E2.22992
G1 X63.491 Y102.444 E2.39685
G1 X63.491 Y101.899 E2.40508
G1 X71.851 Y110.259 E2.58365
G1 X72.396 Y110.259 E2.59188
G1 X63.491 Y101.354 E2.78209
G1 X63.491 Y100.808 E2.79032
G1 X72.941 Y110.259 E2.99217
G1 X73.487 Y110.259 E3.00040
G1 X63.491 Y100.263 E3.21389
G1 X63.491 Y99.718 E3.22212
G1 X74.032 Y110.259 E3.44725
G1 X74.577 Y110.259 E3.45548
G1 X63.491 Y99.173 E3.69225
G1 X63.491 Y98.628 E3.70049
G1 X75.122 Y110.259 E3.94890
G1 F1800.000 E2.94890
G92 E0
G1 X44.771 Y111.036 F12000.000
G1 F1800.000 E1.00000
G1 X44.714 Y110.979 F600.000 E1.00063
G1 X44.786 Y110.770 E1.00236
G1 X44.714 Y110.697 E1.00316
G1 X44.786 Y110.488 E1.00489
G1 X44.714 Y110.416 E1.00569
G1 X44.786 Y110.207 E1.00742
G1 X44.714 Y110.134 E1.00823
G1 X44.786 Y109.925 E1.00995
G1 X44.714 Y109.852 E1.01076
G1 X44.786 Y109.643 E1.01249
G1 X44.714 Y109.570 E1.01329
G1 X44.786 Y109.361 E1.01502
G1 X44.714 Y109.289 E1.01582
G1 X44.786 Y109.079 E1.01755
G1 X44.714 Y109.007 E1.01835
G1 X44.786 Y108.798 E1.02008
G1 X44.714 Y108.725 E1.02089
G1 X44.786 Y108.516 E1.02261
G1 X44.714 Y108.443 E1.02342
G1 X44.786 Y108.234 E1.02515
G1 X44.714 Y108.161 E1.02595
G1 X44.786 Y107.952 E1.02768
G1 X44.714 Y107.880 E1.02848
G1 X44.786 Y107.670 E1.03021
G1 X44.714 Y107.598 E1.03101
G1 X44.786 Y107.389 E1.03274
G1 X44.714 Y107.316 E1.03355
G1 X44.786 Y107.107 E1.03527
G1 X44.714 Y107.034 E1.03608
G1 X44.786 Y106.825 E1.03781
G1 X44.714 Y106.752 E1.03861
G1 X44.786 Y106.543 E1.04034
G1 X44.714 Y106.471 E1.04114
G1 X44.786 Y106.262 E1.04287
G1 X44.714 Y106.189 E1.04367
G1 X44.786 Y105.980 E1.04540
G1 X44.714 Y105.907 E1.04620
G1 X44.786 Y105.698 E1.04793
G1 X44.714 Y105.625 E1.04874
G1 X44.786 Y105.416 E1.05046
G1 X44.714 Y105.343 E1.05127
G1 X44.786 Y105.134 E1.05300
G1 X44.714 Y105.062 E1.05380
G1 X44.786 Y104.853 E1.05553
G1 X44.714 Y104.780 E1.05633
G1 X44.786 Y104.571 E1.05806
G1 X44.714 Y104.498 E1.05886
G1 X44.786 Y104.289 E1.06059
G1 X44.714 Y104.216 E1.06140
G1 X44.786 Y104.007 E1.06312
G1 X44.714 Y103.934 E1.06393
G1 X44.786 Y103.725 E1.06566
G1 X44.714 Y103.653 E1.06646
G1 X44.786 Y103.444 E1.06819
G1 X44.714 Y103.371 E1.06899
G1 X44.786 Y103.162 E1.07072
G1 X44.714 Y103.089 E1.07152
G1 X44.786 Y102.880 E1.07325
G1 X44.714 Y102.807 E1.07406
G1 X44.786 Y102.598 E1.07578
G1 X44.714 Y102.525 E1.07659
G1 X44.786 Y102.316 E1.07832
G1 X44.714 Y102.244 E1.07912
G1 X44.786 Y102.035 E1.08085
G1 X44.714 Y101.962 E1.08165
G1 X44.786 Y101.753 E1.08338
G1 X44.714 Y101.680 E1.08418
G1 X44.786 Y101.471 E1.08591
G1 X44.714 Y101.398 E1.08671
G1 X44.786 Y101.189 E1.08844
G1 X44.714 Y101.116 E1.08925
G1 X44.786 Y100.907 E1.09097
G1 X44.714 Y100.835 E1.09178
G1 X44.786 Y100.626 E1.09351
G1 X44.714 Y100.553 E1.09431
G1 X44.786 Y100.344 E1.09604
G1 X44.714 Y100.271 E1.09684
G1 X44.786 Y100.062 E1.09857
G1 X44.714 Y99.989 E1.09937
G1 X44.786 Y99.780 E1.10110
G1 X44.714 Y99.707 E1.10191
G1 X44.786 Y99.498 E1.10363
G1 X44.714 Y99.426 E1.10444
G1 X44.786 Y99.217 E1.10617
G1 X44.764 Y99.194 E1.10642
G1 F1800.000 E0.10642
G92 E0
G1 X65.267 Y85.036 F12000.000
G1 F1800.000 E1.00000
G1 X65.214 Y84.983 F600.000 E1.00059
G1 X65.476 Y84.964 E1.00264
G1 X65.549 Y85.036 E1.00344
G1 X65.758 Y84.964 E1.00517
G1 X65.831 Y85.036 E1.00597
G1 X66.040 Y84.964 E1.00770
G1 X66.112 Y85.036 E1.00850
G1 X66.321 Y84.964 E1.01023
G1 X66.394 Y85.036 E1.01103
G1 X66.603 Y84.964 E1.01276
G1 X66.676 Y85.036 E1.01356
G1 X66.885 Y84.964 E1.01528
G1 X66.958 Y85.036 E1.01609
G1 X67.167 Y84.964 E1.01781
G1 X67.240 Y85.036 E1.01862
G1 X67.449 Y84.964 E1.02034
G1 X67.521 Y85.036 E1.02114
G1 X67.730 Y84.964 E1.02287
G1 X67.803 Y85.036 E1.02367
G1 X68.012 Y84.964 E1.02540
G1 X68.085 Y85.036 E1.02620
G1 X68.294 Y84.964 E1.02793
G1 X68.367 Y85.036 E1.02873
G1 X68.576 Y84.964 E1.03046
G1 X68.649 Y85.036 E1.03126
G1 X68.858 Y84.964 E1.03298
G1 X68.930 Y85.036 E1.03379
G1 X69.139 Y84.964 E1.03551
G1 X69.212 Y85.036 E1.03632
G1 X69.421 Y84.964 E1.03804
G1 X69.494 Y85.036 E1.03884
G1 X69.703 Y84.964 E1.04057
G1 X69.776 Y85.036 E1.04137
G1 X69.985 Y84.964 E1.04310
G1 X70.058 Y85.036 E1.04390
G1 X70.267 Y84.964 E1.04563
G1 X70.339 Y85.036 E1.04643
G1 X70.548 Y84.964 E1.04816
G1 X70.621 Y85.036 E1.04896
G1 X70.830 Y84.964 E1.05069
G1 X70.903 Y85.036 E1.05149
G1 X71.112 Y84.964 E1.05321
G1 X71.185 Y85.036 E1.05402
G1 X71.394 Y84.964 E1.05574
G1 X71.467 Y85.036 E1.05655
G1 X71.676 Y84.964 E1.05827
G1 X71.748 Y85.036 E1.05907
G1 X71.957 Y84.964 E1.06080
G1 X72.030 Y85.036 E1.06160
G1 X72.239 Y84.964 E1.06333
G1 X72.312 Y85.036 E1.06413
G1 X72.521 Y84.964 E1.06586
G1 X72.594 Y85.036 E1.06666
G1 X72.803 Y84.964 E1.06839
G1 X72.875 Y85.036 E1.06919
G1 X73.085 Y84.964 E1.07091
G1 X73.157 Y85.036 E1.07172
G1 X73.366 Y84.964 E1.07344
G1 X73.439 Y85.036 E1.07425
G1 X73.648 Y84.964 E1.07597
G1 X73.721 Y85.036 E1.07677
G1 X73.930 Y84.964 E1.07850
G1 X74.003 Y85.036 E1.07930
G1 X74.212 Y84.964 E1.08103
G1 X74.284 Y85.036 E1.08183
G1 X74.494 Y84.964 E1.08356
G1 X74.566 Y85.036 E1.08436
G1 X74.775 Y84.964 E1.08609
G1 X74.848 Y85.036 E1.08689
G1 X75.057 Y84.964 E1.08862
G1 X75.130 Y85.036 E1.08942
G1 X75.339 Y84.964 E1.09114
G1 X75.412 Y85.036 E1.09195
G1 X75.621 Y84.964 E1.09367
G1 X75.693 Y85.036 E1.09447
G1 X75.902 Y84.964 E1.09620
G1 X75.975 Y85.036 E1.09700
G1 X76.184 Y84.964 E1.09873
G1 X76.257 Y85.036 E1.09953
G1 X76.466 Y84.964 E1.10126
G1 X76.539 Y85.036 E1.10206
G1 X76.748 Y84.964 E1.10379
G1 X76.821 Y85.036 E1.10459
G1 X77.030 Y84.964 E1.10632
G1 X77.102 Y85.036 E1.10712
G1 X77.311 Y84.964 E1.10884
G1 X77.384 Y85.036 E1.10965
G1 X77.593 Y84.964 E1.11137
G1 X77.666 Y85.036 E1.11218
G1 X77.875 Y84.964 E1.11390
G1 X77.948 Y85.036 E1.11470
G1 X78.157 Y84.964 E1.11643
G1 X78.230 Y85.036 E1.11723
G1 X78.439 Y84.964 E1.11896
G1 X78.511 Y85.036 E1.11976
G1 X78.720 Y84.964 E1.12149
G1 X78.793 Y85.036 E1.12229
G1 X79.002 Y84.964 E1.12402
G1 X79.075 Y85.036 E1.12482
G1 X79.284 Y84.964 E1.12654
G1 X79.357 Y85.036 E1.12735
G1 X79.566 Y84.964 E1.12907
G1 X79.639 Y85.036 E1.12988
G1 X79.848 Y84.964 E1.13160
G1 X79.920 Y85.036 E1.13240
G1 X80.129 Y84.964 E1.13413
G1 X80.202 Y85.036 E1.13493
